/* XPM */
static char *_1bricks1[] = {
/* columns rows colors chars-per-pixel */
"256 256 253 2 ",
"   c #170605",
".  c #2F120A",
"X  c #381708",
"o  c #392516",
"O  c #3A2C27",
"+  c #481A0D",
"@  c #551C1A",
"#  c #482717",
"$  c #4C2B12",
"%  c #562A18",
"&  c #58351B",
"*  c #6B3419",
"=  c #492B25",
"-  c #4A3628",
";  c #4F332E",
":  c #583828",
">  c #583B35",
",  c #663A28",
"<  c #763B27",
"1  c #663C35",
"2  c #713930",
"3  c #5A432B",
"4  c #5A4638",
"5  c #514938",
"6  c #6F4821",
"7  c #68442A",
"8  c #77472A",
"9  c #77522C",
"0  c #684838",
"q  c #774A37",
"w  c #69533B",
"e  c #775539",
"r  c #7C533C",
"t  c #583E43",
"y  c #5A4945",
"u  c #575249",
"i  c #684B45",
"p  c #774C44",
"a  c #695647",
"s  c #7B5443",
"d  c #775848",
"f  c #694D53",
"g  c #6A5954",
"h  c #785B54",
"j  c #7A634A",
"k  c #6B6457",
"l  c #796657",
"z  c #736D53",
"x  c #666061",
"c  c #796A65",
"v  c #74726E",
"b  c #7A7568",
"n  c #863C25",
"m  c #8D471B",
"M  c #86482A",
"N  c #964B2B",
"B  c #88542C",
"V  c #97552C",
"C  c #864B37",
"Z  c #954C37",
"A  c #875739",
"S  c #8B543C",
"D  c #975637",
"F  c #945B3C",
"G  c #9B5B3C",
"H  c #A7542D",
"J  c #A35C3C",
"K  c #A85A38",
"L  c #B45C38",
"P  c #8B633B",
"I  c #99623C",
"U  c #A8643B",
"Y  c #B5673B",
"T  c #B7703B",
"R  c #C45A3C",
"E  c #C46C3C",
"W  c #874D44",
"Q  c #865747",
"!  c #845B44",
"~  c #8C5B44",
"^  c #8B5C4B",
"/  c #945C43",
"(  c #9B5C43",
")  c #985847",
"_  c #935C4B",
"`  c #875C54",
"'  c #965D54",
"]  c #A35D43",
"[  c #A75C47",
"{  c #AE5D4B",
"}  c #876548",
"|  c #8C634B",
" . c #946344",
".. c #9C6344",
"X. c #94634B",
"o. c #9B644B",
"O. c #976A48",
"+. c #9C6B4C",
"@. c #8C734B",
"#. c #99734B",
"$. c #846453",
"%. c #8C6453",
"&. c #886A58",
"*. c #946453",
"=. c #9B6453",
"-. c #946B53",
";. c #9C6B54",
":. c #95685B",
">. c #9B6C5B",
",. c #89735A",
"<. c #987559",
"1. c #A46443",
"2. c #AB6444",
"3. c #A46A44",
"4. c #AC6B44",
"5. c #A4644B",
"6. c #AB644B",
"7. c #A46B4C",
"8. c #B36443",
"9. c #B46B44",
"0. c #BB6C44",
"q. c #B66549",
"w. c #B36C4B",
"e. c #BB6C4C",
"r. c #A77349",
"t. c #AC724C",
"y. c #B97547",
"u. c #B4734C",
"i. c #BB734C",
"p. c #A76756",
"a. c #A46B53",
"s. c #AB6C53",
"d. c #A36C5B",
"f. c #B36C53",
"g. c #B76B55",
"h. c #A47354",
"j. c #AC7354",
"k. c #A4735B",
"l. c #AC745B",
"z. c #A87B59",
"x. c #BB7453",
"c. c #B3745B",
"v. c #B87A58",
"b. c #8A5D61",
"n. c #876B64",
"m. c #986B63",
"M. c #887767",
"N. c #987866",
"B. c #886D72",
"V. c #897A75",
"C. c #977C74",
"Z. c #A66D64",
"A. c #A37463",
"S. c #A87A66",
"D. c #B67A65",
"F. c #AC7A72",
"G. c #C15C42",
"H. c #C36B48",
"J. c #C5764A",
"K. c #CA7352",
"L. c #C57956",
"P. c #C47B64",
"I. c #7C8476",
"U. c #D1833F",
"Y. c #AC8359",
"T. c #B8835A",
"R. c #98846A",
"E. c #8A8577",
"W. c #988777",
"Q. c #928C74",
"!. c #A88569",
"~. c #B78668",
"^. c #A7936C",
"/. c #B2936B",
"(. c #A78976",
"). c #B78976",
"_. c #A9947A",
"`. c #B79679",
"'. c #C78459",
"]. c #D18754",
"[. c #C78767",
"{. c #CE8E70",
"}. c #C69679",
"|. c #D59E74",
" X c #897C83",
".X c #988A84",
"XX c #9A9587",
"oX c #93918E",
"OX c #A68C84",
"+X c #B38C87",
"@X c #A89787",
"#X c #B69A87",
"$X c #A89A94",
"%X c #B59C94",
"&X c #AAA38B",
"*X c #B8A48A",
"=X c #A9A597",
"-X c #A0A39B",
";X c #B7A797",
":X c #B1B195",
">X c #B9B39A",
",X c #ABACA6",
"<X c #B8AAA5",
"1X c #B9B6A7",
"2X c #B9B8B4",
"3X c #C59986",
"4X c #CF9A8A",
"5X c #C6A68A",
"6X c #C6AA97",
"7X c #D2AC90",
"8X c #C8B49A",
"9X c #D5B69A",
"0X c #E5B69F",
"qX c #C4ADA4",
"wX c #C7B8A8",
"eX c #D6BAA7",
"rX c #C7BBB5",
"tX c #D4B9B2",
"yX c #BEC69F",
"uX c #BAC3B3",
"iX c #C9C3AB",
"pX c #D7C3AB",
"aX c #C9C6B8",
"sX c #D7C8B8",
"dX c #CDD1B8",
"fX c #D9D3BB",
"gX c #E3CCA4",
"hX c #ECCCAF",
"jX c #E5CAB8",
"kX c #E7D4BA",
"lX c #C0C5C4",
"zX c #CACAC5",
"xX c #D7CBC5",
"cX c #CCD4CA",
"vX c #D9D6C8",
"bX c #DAD9D4",
"nX c #E7D8C8",
"mX c #F0D7C9",
"MX c #E6DBD5",
"NX c #DAE4D4",
"BX c #E9E3CB",
"VX c #F7E4CA",
"CX c #E8E6D8",
"ZX c #F7E9D8",
"AX c #ECF2DC",
"SX c #FBF4DB",
"DX c #DDE6E4",
"FX c #E9E9E5",
"GX c #F6ECE5",
"HX c #ECF4ED",
"JX c #FAF7E9",
"KX c #F6F9F5",
"LX c #FEFDF4",
/* pixels */
"wXxXsX;Xh 0 : , & & % + % + + % X . oXLXvXl r ^ A , , p 1 - p b.' ` Q ' =.n.c $X<Xh -.S.N.N.N.N.<.N.A.-.N.(.(.(.#X6X9XqXCXLXZXZXkX6X5X8X9X9XjXVX8XXX<XnXnXeX#X#X8XeXsXBXBXSXLXBXjXVXVXkXpX;Xk W.xXnXfXfX8X*X(.(.*XaXzXNXHXvXrXvXbXFXFXGXLXJXmXsXMXMXDXLXHXvXCXCXnXsXnXsXwXrXxXrXMXLXZX<X2XCXbXzXxXMXxXlX2XrXxXHXJXbXJXLXGX2XxXaXvXxX=X=XxXGXKXKXJXvXsXwX*XpXLXJXwXrXnXCXnXjXeXeXeXeXsXrX<XwXZXZXpXeXpXeXtXpXqXqXqXrXLXLX1X$X2XbXHXrXR.&._.R.} } 7 3 d w d ` h .XLXLX1X@X=X;X&.l M.$.N.W.j R.E.M.@X.X<XGXnXaX;XW.@X@X$.& # 3 h _.",
"HXvXLXLXZX;XN.@X;X;XW.l l M.(.C.3 b zXcXbX.X!.N.,.<.N.OXOX+X%X+XC.n.h %.%.l c bXGXn.* r %.-.X.~ q q r A _ X.! r s r , i $XCXW.N.S.~.~././.#.r A r d e } } #.!.!.z.-.@.R.j e w 9 r } !././.`.N.&.<.^.*X`.(./.5X7X*X&XXXuXvX<X.XOXOX=XwX@XN.W.R.N.W.n.oXzXMXxX;X#X*X6XeX8X6XkXZXnXZXGXtX;X;X.XW.M.@XeX%X=X=X=X.XOX=X=X=XrX=XW.;X<XtXsXqX;X;X@X$XwXbXtX_.R.Y.^.9X8XN.l M.M.<.<.<.<.%.m.W.1XbXrX(.3X5X`.~.~.~.S.`.7X(.C.$X<XaXrXrXHXLXLXjXwXpXkXkXgX#X_.#X*X8X#X_.;X;X@X@XkXJXLXpXnXLXLXLXVXeXqX8XsXtX$XtXnXsXCXJXZXnXSXVXtXsXnXLXLX",
"k 5 a _.eX8X8XkXSXJXJXJXLXGXZXZXjXfXvX1X=XqXsXsXjXmXZXZXGXJXGXnXeXmXmXkXpX6XM.<XJX8X&.).7X3Xc.1.o.o.+.s.6.6.2.6.a.( X.a v 1Xd 8 6.i.y.Y.v.r.r.j.r.j.j.3.U r.t.u.u.v.v.I M F U 3.U V t.T.T.T.T.T.'.T.Y.T.j.r.r.r.} ,.&XvXOXg } 7 7 q q 8 8 A A r q : g =X;X7X,.A ;.S.~./.`.7X9X7XeX0X}.<.~.X.r s S k.#X(.`./.!.`.`.`.#X*X#X!.!./.!./.!.@.r 7 q $.xXsXS.~.|.[.j.~.~.Z.} ,.A C B M 8 C i XXbXOXs  . ...3.t.r.I #. .9 7 } <.&.e ,..X.X.XW.,.0 r ,.<.!.<.N.(.!.N.Q } w # . : d R.N.,.j &.,.R.(.!.N./.#XM.h a 0 l #X8X;X6X#X$X<XvXcXE.",
"4 3 e A A A A @.<.<.N.*XLXnX$.S.3X`.6X(.&.!.W._._.#X*X_._.(.#X_.(.`.8XgXkXkX9X8XhXgX7X9X5X{.{.0.6.v.6.w.8.Y L 2.w.6.( - g =X,.* J Y y.].u.1.1.4.U 9.8.Y 9.9.9.U 8.9.9.L.L.x.0.0.].E ].y.T Y K J.i.6.1.v.u.i.'.t.D | *XnX!.7  .F G 3.3.4.t.t.u.6.5.W S.#X} A I +.G G D M B B B 8 8 8 1.U D N M F G D A  .D D U t.I +.+.r.h.+...A B I +.+.+.+.X.r nX7XC K H m N S [ p.d.X.B M J i.'.x.s <XLX#X~ ( S G U U 4.U U D I 6.6...7.+.a.,.g h ` r | ! e 8 q q 8 q 8 C A ;.X.9 9 A q ! X.#.h.A q #.k.;.} ;.z.%.s q q 7 7 , 7 7 : # o 1XLXrX",
"0 ! ..6.u.J D P B A e $.nX8Xr a.7.r.T.~.l.D.*.<.!.(.N.<.~.z.~.k.~.l.#.#.h.T.|./.~.T.j.r.U y.u.Y w.2.2.w.e.H.Y K Y 9.C - 2XLXqXN K L Y E Y K H L L H.K.H.Y T T i.t.U Y J.J.0.0.Y T T Y Y U Y Y K K 1.y.T u.0.J.E U h.(.(.0 C 5.K.e.t.9.9.4.u.i.9.6.( S.6X<...4.4.H U U 8.9.U I D D M D U 1.6.6.4.4.i.v.x.x.x.i.J.0.v.v.v.I I a.o.F M M N S a.*., *X5XM N K { [ ( o.Z.A.p.J 2.Y Y J.J.0 8XLX_.8 S C 5.2.u.Y L K [ w.Y Y Y Y U V _ %X%XQ ~ ~  .~ q ~ A W q C S C M C B A C ..X.F G 1.5.1.F C C A C B X.X./ A 8 < 8 } 9 $ . # <XLXnX",
"s _ 5.x.i.e.4.4.u.5.~ ,.fX8X! A G 1.1.s.l.l.s.p.c.~.~.j.v.{.v.1.7.v.v.t.3.I t.t.t.T x.1.J D D U 1.[ 6.6.s.J 9.9.1.Z 2 <XLXLXtXA V Y Y T i.J.Y J.x.w.2.i.U Y [.{.'.v.v.u.f.x.w.w.6.J 2.9.U t.L.e.6.F D M B J.].].V ~ 6XsXd r p.w.f.v.w.f.v.v.u.f.6.~ ,.sXS./ D U J U J 8.x.7.F B M ( 6.( S ( o.1.5.s.v.x.c.v.9.U 0.u.u.L.4.G s.v.v.7.G 8.x.D.l.r 6XmX/ Z 6.6.5.l.h.h.d._ w.0.Y Y E 8.< +XLX(.< ( ( 5.[ 2.L H.8.8.8.0.0.Y Y L H A eXqXQ C A / ..( o.X.d.+.7./ ..F B 8 C A / A o.( [ w.w.J D V D B B I ....F M [ o. .9 q 2 > rXLXqX",
"4 s f.e.e.H.e.w.L.f.W d aXnX&.8 c.x.w.f.l.s.L.w.6.6.v.v.L.x.f.{ 6.w.J.0.6.v.J.L.x.0.e.5./ _ ^ W X.o.~ q 0 A r ! s Q 1 ,XLXLXdX} X...B r.h.t.T.[.}.).~.v.I A 7.h.~.~.~.l.a.v.T.T.'.'.T.u.v.j.t.7.j.7.I t.i.'.'.u.B q rXLX@Xh | / d.s.D.D.X.r S h.A.h h sX(.X.o.7./ ( S 6.a.^ _ ^ Q =.d.=._ Q r S *.*.~ ~ X.+.j.3.u.w.w.x.L.[.l.l.}.}.v.x.v.j.D.N.2XqXQ < (  .h.h.@.#.A.| k.U U Y H H W C.rXg ! l.a.5.5.6.K K Z 2.[ ( 5.5.[ w.( | eX#XQ ~ / o...( 7.h./ h.a.;./ A A A A W X.A A C W S J Y '.{.|.'.u.3.t.1.../ ( A ! ! ` 0 - xXLXsX",
"l r D.w.w.w.U 1.6.5.W 1 ;XZXW.r d.j.6.6.s.a.s.( F A F 5.f.( [ f.f.f.J.H.w.6.w.e.f.v.x.r 1 > > - - : > : : : = 4 O .     oXDXdXw o X X . - d & : h h &.| #.-.<.&.$.} s r 9 9 } P #.I P 9 A A -.P } -.8 ..T.[.r.A 8 w aXLX2X- w w 7 , % # X o X # : o 4 <X@Xd q e e 7 $ % X # - : > 1 1 : - - X . o = o # : $ & & * * % % * 0 q q ! | | a.;.X.^ i -XXX  . - : 3 3 - 3 d 4 3 7 8 8 W W 0 <XLX=Xa d d q q ` ' Q ' Q >.| X.;.W ( ( s @X_.h s s | | ^ ~ | q %.>.>.d.D.+.;.=.=.*.^ ^ ^ *.o.j.T.[.v.u.6.6.7.l.o.p.=.s q s s , = C.LXLXLX",
"V.- s k.+.+.r.+.a.p.=.Q ;XLX;X> s 8 8 C q q s ! ! ! -.Z.Z.>.m.>.s.5.[ [ 6.6.6.6.1.7.S.+XC.n.V..XrXsXnXGXZXsXwXnXrX.XN.c ,XvXnXnXCXvX2X,X2X<XOXW.=XtXqXl l W.;XN.&.M.,.N.-.N.`.<.} P O.P A ! r &.mXZX<.7 9 P 6 3 } M.aXCXbX<XXXa = o o k 1XBX;Xa 4 c 1XCXsXW._.*X*X$X$X;X=X2XE.g V.W.C.V.V..X$X=XaXdXaXvXMXXXb b M.l g g g a a l l l l Q 0 : # o -XLXxXrX$XM.E.XXE.b V..XE.c O .     o =XKXcXa y V.V.f - > 4 > n.c w # : : , % 4 iX<X; o o - - 3 7 , d w p 1 q Q r ! *.' *._ Q q 1 0 7 & 8 A ;.l.~.~.D.Z.Z.h 4 > i $.$.a .XaXcXbX",
"vXW.&.&.-.0 7 e s = . > vXLXvXXXC.l w : = = O 4 g a a h h c n.l 0 q B A o.h.+.r.r.a.D.!.(.*XZXLXLXxXsXsXsXmXhXeXqX6X).(.(.(.*XnXHXbXbXKXKXHXZXsX=X=X=X;X;X@X_.R.;XkXsXhXeX7XZXSXkXVXVXSXSXZXVXVXSXSXmXpX5X9XpX5X(.(.;X@XrXLXLXZXwXvXLXLXLXvXtXtXwX;XXXaXvXiXiXkXfXvXBXLXLXLXbX1XiXwXsXLXLXLXLXLXLXLXLXHXLXLXHXFXDXHXKXLXLXLXLXLXGXbXrX$X;XqX$XXX-XuXbXxXCXbXbXJXLX,X,XbXHXCXmXwXOXqXsXLXFXNXCXHXHXJXKXMXvXvXMXLXLXrX@X<XwXkXJXSXJXvX;XXX$X<X.Xc y a a a d $.$.l d w 7 q $.%.d d - > 3 0 } s 7 = : , , % - h oX.XW.M.d - l uXKXHX",
"rXnXtXtXmX6X#XeXpXqX%XxXZXfXBXJXJXLXLXLXHXHXHXHXHXbX2X<XrXbXFXLXxX.X: : , $.r 7 %...I A A & W.vXOXh a q q 7.j. .A X.( C C A o.e a = y lXDX,XM.&.h w d $.$.<.<.-.<.<.%.Z.A.>.A.S.~.~.h.Y.~.~.~.~.z./.*X_.!.@.`.5X}.3X_.,.,.@XeXjXwXiXCXCXE.a h ` s 0 l 8X>XR.R.R.(.R.E.@X=X-X1XfXBXwXW.;XrXaXnXaXXXW.;X=XrXxXbXMXHXLXLXLXFX2X2X=XXXE.XX<XxXnX$XE.W.W.E.M.=X=X$X=X<X<X$X$X<X;X;XsXkX#XR.@X@X@X_.%XwXnXZXGXJXnXmXsXxXNXvXvXfX>X;X8X;X=XtXvXGXLXMX2XxXMXtXnXnXMXvXrXvXrXeX_.wXkXwXnXxXrX%XqXnXnXsX6X;X;X#X#X@X<XrXsXeXqX8XpXwX=XuX=X",
"s } } &.n.M.R.R.N._.;XqX@X,.&XfXsXvXCXMXvXFXLXLXLXLXLXLXCXMXxXaX<XxXZXZXtXnXsX_.N.+.U F A 7 4 b : % q S A J U D 1.6.f.6.6.[ w...q X o DXLXrX0 e 9 q ! X.A A G 7.7.7...5.5.s.a.S F 1.G I 4.U 4.t.t.t.a.+.+.9 O.O./ 7.} 8 q ~ k.S.! a a w , q s C C C X.} } #.-.} A A s p i w &.<.-.} r } R.d s <.s : 7 7 : : : # 5 zXLXrXa i w a h $.N.j d 0 7 } s Q s s q 7 ! s s ^ | ! ~ | X.} A A C q Q s ^ -.-.-.&.-.N.<.!.!.(.@XM.,.R.&.w 0 4 w d d l V..X.X<XGXwXW.E.W.E.z z Q.@XQ.,.a ,.sXxXqX;XR.R.R.(.8XeX_._.`._._.@XR.&.<./.`.(.l E.l ",
"! B D ..-.-.! } } 0 0 0 r r e s 0 : 3 3 a Q.xX@XM.N.!.W.N.N.R.R.W._.*XwX+XOXC.M.&.I 3.[ Z ~ h =XD.A F D 9.0.U U 6.1.1.9.8.Y Y K Z % = bXLXtX9 7.7./ o.j.1.6.9.w.i.w.w.U J w.w.x.f.x.9.U U Y T t.U U K U 2.[ ..t.U 2.G F G B M M A -.5X*.( [ ( Z Z [ 5.G 6.1.2.2.[ f.' ( _ 0 ~ 7.D D v.j.{.D.h.c.5.C S M M S S A , N.9Xk.C =.+.+.X.;.#.!.`.l.h.7X[.f.s.s.6.c.f.( 6.( G G D B F G G U 2.s.s.p.s.D.l.;.+.X.X.-.#.~.!.R.,.,.<.@.! q r ! q 0 0 0 0 o g rX&.0 7 4 w a w z N.N.!.8XR.rXM.3 <.-.} } } -.O.P P A 9 , 8 S  .A 8 8 q & & - ",
", q A ( 6.j.a.+...+.a...( ( S q 8 * * * 7 ,.*Xe & 9 A I I O.O. .| ! | <.Q Q %.$.s r M Z ( C ` $X^ 8 G U Y 0.8.e.x.f.2.9.Y J.J.Y 8.Z 1 xXLXeXM 9.0.K J K Y J.H.8.Y Y Y Y Y Y 8.L.J.0.0.0.0.Y Y U Y Y H H H [ 1.u.u.6.1.7.6.s.5.s.s.-.6XQ * * * Z { q.8.Y 0.K Y 8.8.8.w.6.( #.~.v.w.J J 9.i.x.w.w.2.D V V J 2.D ( C 8 ;.( [ { f.v.j.h.+.l.}.7X4X4X4X{.x.J.i.'.L.w.e.9.U U J 1.6.1.4.9.e.x.x.f.l.6.( ~ A A ( A r.~.~./.~.#.+.l.h.a.p.( ( 3...;.~ # M.ZX`.~.#.!.!.!.`.+.A A ~ / e W.l $ 8 t.v.v.i.i.4.7.6.s.h.7.7.I 4.U V D G A C , ",
"o.~ F 1.4.c.c.j.s.j.j.s.s.f.P.5.7.o.( / ~ (.pX<. .v.u.u.4.4.U V B  .7.c.l.h.h.a.o.C C C C * Q tX#Xq / J 8.8.2.2.L.K.f.w.8.8.4.9.e.[ r sXLX3XS J H H H Y L H.K.P.i.U t.'.0.U U 0.J.i.0.8.9.J U Y U U 0.Y [ S C N F 7.a.a.s.v.s.x.a.,.sXM.+ < c.{.P.c.f.Y L K K 9.0.9.J Z C A  .1.x.K m K 9.9.x.x.f.2.G J [ [ 6.[ C 8 ~.c.[ [ J x.{.v.+.p.p.s.x.x.P.P.{.{.|.{.|.J.x.1.V H K 2.2.x.c.v.x.u.v.x.f.2.( D V V n M J G -.h.~.~.v.h.v.v.6.( 5.4.G s.a.;.N.eX~.+.~.[.D.6.6.1.( ( ( / 8 XX;Xe $ V L J.K.H.f.6.w.x.f.l.l.6.3.J U e.w.G 6.5.",
"5.G D 3.s.s.( ( p.s.( ( 7.f.x.s.7.( s.' W (.VX3X~.[.J.J.i.w.2.U 6.s.6.u.t.6.s.D.l.=.=.:.^ 1 0 rX<X- 0 s _ /  .8 8 < C C [ A A j.6.C p fXSX(.A F ..5.5.6.[.c.D.c.~.j.t.6.t.v.s.1.s.c.s.f.6.[ 6.v.v.v.[.f.6.( / M S k.D.D.v.v.6.v.o.N.JX;X= ` ).m.=.Z.s.x.6.6.f.x.x.f.5.( < ! ~.( D 6.G D 6.[ f.P.D.f.6.6.2.6.G D S A ~.h.6.w.2.6.v.j.+.5.5.6.6.1.f.x.P.D.[.c.v.c.....G [ [ 6.5.c.3XZ.G w.x.w.U 9.U J K K 8.K H K ..#.~.~.#.>.l.l.7.7.o.6.a.D.~.!.<.(.<.;.s.5.5.( D 5.a.a.a.l.-.$XCXwXv.Y K L Y w.4.9.x.L.c.s.s.a.5.K U 8.w.f.1.5.",
"Q q A ;.Z.d.Z.=.p.F.p._ 7.5.D 5.o._ Z._ 1 W.LX#XA j.[.v.v.L.[.[.c.v.f.6.4.1.c.c.l.*.d : : - o k bXzXv g l e <.,.j l i = # # d ,.7 X 3 JXLXl # & 7 0 : , : e i : : : 0 q q q Q s r s Q Q 1 1 W Q C ! W ( d.d.D.l.>.^ q q B B F j.-.N.ZXaX- a OXh > > q q C W _ W / *.S.+XS.#XZXS.q p._ W ' =.d.D.D.d.p.( ..5.A A _ } !.e A ( 5...+.<.z.D.h.+.j.~.D.k.=.W C ! _ d./ / *.*.Q ` | l 6X3Xj.j.t.3.4.9.9.2.x.L.L.J.i.2.G -.N.R.N.$.N.N.&.} &.+.z.k.!.h l &XM.w 1 s s s ^ _ X.r * , 3 -XKXsX<.6.x.6.5.6.t.4.4.2.G 7.k.;.;.=.5.o._ Q W :.",
"f i - h C.F.(.).).+X+XF.).S._ ' >.>.p.=.i M.fX;X3 q Q -.-. .c.j.h.A C X.>.k.~.~.).N.W.n.l c XXoXDXLXLXJXMXBXnXwXXX1XzX2XxXJXLXLXsX#XW.aXJX;Xl M.M.M..XM.u a V.W..X=X.Xc g f k a 4 a g g c V.n.l l M.l w 7 : w w j R.(.N.} ! @.} : z CXLXLX=Xg V.V.f > a M.N.N.l $.$.a h M.<XnXd : : + + 1 ` ` -.*.q 7 , : & , i i g wXM.. # : # X # 0 e 0 : : 0 3 - : = : , % # + # # o . = : V.ZX(.+.~.T.j.t.u.T.[.{.{.v.1.o.A , 7 w g V.v l y 5 y g ,.d w : o u CXaX4 y 4 4 - # : , p M.#XCXLXHXrX&.` S.d.7.a.X.} A A q e w s ` m.S.F.S.m.m.B.",
"C.<X.Xh i a : 0 &.M.,.,.Q q r s ^ | >.Q d _.CXCXqXOX(.@X(.N.<.A 0 s i i d M.!.z.!.(.@X;X;XrX<X=X;X@X@X6X8X*X(.W.g E.bXbXJXJXvXdXaXsXwX@X*X8X*X*X1XLXLXCXdXaXzXMXLXLXHXlXzXFXHXFXbXvXCXFXLXLXbXrXaXfXvXZXZXsX>X;X>X1XZXSXJXSXZXZXwX_.=XbXnXrXrXsXJXLXHXbXvXvXZXJXSXvXdX2XGXLXLXE.i M.OX%XW.g l &.N.#X6X6X;X$XOXOXE.E.FXLXaX$X$X$X.XV.OXwX<XbXaX=X=X=X=XvXbXzX2X,X,X,X2XcX2X2X<XaX;Xe 8 } X. ...r.l.;.q , & , s } N.*X;XXX@X@XXXE..X=X<XR.a w 4 u E.GXLXHXvXvXAXvXvXxXrXJXLXsXbXCXdXsXW.h $.%._ A.).6XeXeX;X.XM.$.i y i h h > i h ",
"JXLXLXkXpXkXpXkXeX;X#X#X(.<.R.,.&.*XeX!._.;XaX<X<XwXtXsXpXeX6X(.;XMXKXFXFXZXkX9X5X!.<.N.&.,.j 4 j e , , * , & % . XXDXzXh # : 5 : 3 0 0 7 e } ,.R.E.E.M.E.$XrXxXvXzX2XDXDXNXLXLXCXvXAXCXCXxXrXsXsXiX1XwXnXLXLXdX1X&XQ._.$X$XM.E.@Xd : 4 a N.W.C.V.2XLX2Xk k I.Q.XX:XaX<XfXAXfXwX;XsXJXLXLXGXZXJXVXVXLXLXLXLXLXLXxXzX-X1XbXrXvXLXJXMXZXJXHXHXLXLXJXCXbXLXLXLXLXLXLXLXLXLXLXFX$X@X,.^.).~.~.~.~.z.l.D.S.`.9X#X5XeXsXkXVXVXVXnXkXZXZXmXZXBXsXnXLXZXwXsXJXJXZXBXvXGXLXCX_.;X_.w 3 5 g C.(.N.^ s 0 ` N.W.%XrXLXLXLXVXMXmXZXmXpXpXZXLX",
"_.(.^.`.7X9XgXkX8X5X8X*X`.`.5X8X6X*X_.`.(.,.j l l l &.M.,.,.<.-.W.%XbXJXMX(.!.T.k.l.7.a.+.#.#.^ M A S ..../ 5._ 1 rXLXaXN.*.X.! | ~ 8 < A A A 9 8 & , 9 } 9 0 , # O XXaX=XwX#XN.&.&.N.&.a 3 0 &.@.,.j j &.N.;Xk w a 3 : 0 > > > : 0 0 7 8 8 q 0 : l MXNXV.5 a j k 4 w a w a a j &.s w $.(.#X#X(.&.j (.(.N.n.M.OXM.$.a 4 n.h h M.N.n.C.&.g g _.*X(.N.&.&.N.N.N.N.C.wXJXZXwXR.Q 9 -.h.h.D.D.h.+.r. .#.k.~.N.!.!.S.!.~.~.~.Y.N.#.`.~.} 8 w 0 w ,.&.9 A  . .S $.,.c =X;X4 0 r Q ! e &.>.>.k.d.s.m.m.h - - y =XKXBX*X6X6X9X7X`.`.`.*X",
"#.#.Y.r.3.B P } #./.`.`.`.`.`.7X`.`.5X`.S.X.A A r A 7 7 7 7 * * d i W.<XW.<.U U w.2.K J U I B C n Z Z 5.5.U 2.[ 0 wXmXQ C M V 1.1.[ D [ 3.2.8.U D G U N D V M M C d JXZX,.q M C G 1.......7.7.D D I 7.F Q d h w d q r X.A.S.Z.d.>.%.=.a.1.v.7.+.^ w @X<Xl s q r 7 7 ! *.r r r r ~ A 8 C ~ / A q ! *.W W A ~ A r ! p.<.! ! W < , 8 C A r q 7 r ! A A M 8 8 8 8 8 8 q (.pX#X`.;.J [ 1.3.t.v.T.~.T.'.[.{.{.~.D.h.h.j.l.T.'.~.j.1.4.U V V -.<.X.} +.4.U U U D } -.h @X;Xj *.=.a._ _ o.d.d.l.s.D.F.S.:.` 0 > c sX*X@.O.h.~.Y.t.r.#.#.",
"j.r.u.L.J.x.6.r.~.~.}.}./.`.5X5X/./.`./.~.D.u.t.4.u.3.7.7.3.I B A q #X6X3Xa.7.u.w.8.Y Y H D 2.J V J Z 6.6.4.9.[ , _.jX^ M H L H H H N N J Y L L L H L L H E 0.L N | pXN.+ C { 8.H.Y H Y K K K N K K i.f.Z C 7Xm.! [.{.{.{.D.c.[.{.}.D.6.9.J.L.v.a.| (.OXd 0 C * * A ( 5.( ( S C ( ( ( G G G / / A C C A G ( ../ s.( 1.5.S C B F 7...+.l.o.A C M M M M G D D M M Z 8 e } 8 ..3.I 2.2.i.i.L.'.'.'.[.[.'.v.s.7.j.v.v.v.u.u.7.j.6.[ J U t.~.{.[.L.u.U U K { 6.6.7.$.@X6X^ p.s.s.s.s.s.d.p.6.5.s.c.c.s.p._ 0 ;XBXY.U U t.T.].'.v.t.j.",
"s.7.4.J.L.L.L.T.~.~.}.3X`.`.`.`./.!././.).[.].L.i.u.u.L.6.u.i.U C r ZXeX~.( [ 2.w.i.J.J.0.J.i.i.L.K H K Y U 0.J < R.VX3XC 2.L { [ K H K H L L L H.E L E E E J.L M ^ GXnX| s.U 0.H.0.H.0.0.i.9.e.e.K Y '.2.h.ZX7XA.4X{.D.D.s.p.1.j.T.v.u.e.H.f.w.6.! %XrXh s C < % A ..6.1.1.G S F J J [ G C < 8 C A C C A W X./ C r C A A A o.o.Z.q.f.s.6.D C D Z Z D J D D [ J Z A } 9 + * G t.+.4.0.u.i.u.v.v.s.s.c.v.6.3.t.w.x.x.w.t.6.7.+.o.3.U D D I +.j.6.2.4.J [ 2.6.5.m.6XeX_ ' s.s.D.f.s.D.D.~.D.c.v.x.D.6.6.q _.pX#.I t.0.y.J.J.L.6.5.",
"=.a.j.w.8.9.U B A h.3X/././.`.#X*X`.*X`./.D.'.[.v.6.x.D.x.f.2.1.( *.mX&._ s.6.f.f.j.i.J.i.x.[.'.v.f.w.j.v.2.D [ -._.wXl 8 / 6.6.f.s.G Z J K 8.K.K.e.8.8.K 8.w.f.C N.LXnXS.D.x.8.L H.J.e.e.v.[.w.w.9.0.w.v.l.}.N.$.>.S.Z.Z.F.}.[.}.7.1.v.K.q.f.q.W s GXLXV.0 q q =.' C ( S A S ( ( ( [ ( C W _ _ Z.).F.~.S.=.>.d.>.=.W C A.;.' ^ _ [ D [ f.p.A A S ( 5.s.p.F S ( p.=.7XgX/.C 8  . .+.7.l.~.D.D.D.D.P.D.v.j.7.v.x.P.v.c.D.~.D.k.d.+.#.l.l.l.S.!.!.D.k.l.a.a.s.s.m.qX#XQ ' d.d.d.s.d.Z.Z.Z.a.o.5.a.s.' ' W #XfX<.+.u.u.x.v.L.v.p.' ",
"(.(.;.5.1.U V 8 9 @.(.R.(.`.*X8X*X_.&X_._.(.D.).}.~.D.D.D.Z.s.a.( &.nXM.p =.' ' p.Z.=.Z.d.p.s.s.a.Z.d.d.p.C A < # a :X&X3 + & & & , q 7 8 A 8 C q C q C M C 2 2 - rXLXrXp C ( [ w.f.6.6.s.s.s.s.c.6.w.c.l.A : - 4 M.n.C.Z.Z.+X).!./ 8 q Z 2 2 2 @ - vXHXg - 4 0 ` ` s ' Q W 2 q Q Q Q s , h +XC.C.+X+X+X+XF.S.).6XqXF.Q m.S.m.` s 7.5.1.S.Z.=.;.*.:.:.:.` ^ ! W p p $XsX#X).q , s -._ C X.X.<.N.N.S.-.} | X.*.o._ ! r ! ^ Q s Q s ! &.&.Q j 0 0 d e s 0 0 q 0 i wX$X,.=.%.-.^ W ! ^ Q _ ~ ~ ! q 2 q , @ $XKXM.: , , _ ~.~.k.S.F.",
"h a a $.} A r z W.E.E.E.Q._.E.E.E.E.XX<X;X@XW.W.;X;X.Xn.C.OXC.` O O FXbX> o 4 > - 1 p p d ` ` Q _ _ W ( W r w s d =XCXLXMX@XC.&.&.l l 4 - - = : > = X X X X . = t bXLX2X4 : , 0 q < q q 0 7 q 7 q s < , : 0 wXuXk a 5 > > > - - - # # + + # + = > u 2XcXx - > > 4 i i i > i h i > - = - = - y t > t o O - 4 > > 4 h h 1 0 h n.h i : & % # . . # : - = > i 0 = # @ h sX<X> i p d : : q 0 , : 7 3 & # + # $ # + X + X . . . X - n.l w 0 0 : 5 a a w w 4 5 w i - a AXCX@X$.h n.$.0 : 0 h ,.&.l l a g C.h - .XKXvX<X%Xa = : w h h c ",
",XXX@XW.M.l w w a u u 5 O 5 k l a 5 - y 4 g l a y > o - > i i > u ,XLXLXrXrXCXxXOXn.a 4 h y f a 1 = p :.m.sXtXqXwXbXvXAXLXLXLXLXLXJXCXNXbXvXCXFXHXCXxXxXrXrXvXvX,X,XuXzXsXtX@X@XW.N._.N.M.@X$XM.E.8X#XN.M.W.LXLXzXdXbXaX,X$XE.v k g u 4 M..X;XxXHXHXKXDXzXJXLXHXCXxXxXvXnXxXMXaX2XvXGXbXbXzXzXHXMXzX2XbXxXrX,X-XoX$X<X=XwX2X2XaXrXR.M.v E.OX_._.tXnXxXMXJXLXjXqXwXMXLXnXN.W.nXLXnX6XqXqX6X#X@X_.@X6X8XsXsXsXwX>XiXtXsXvXxXMXFXLXKXxX6X+X(.@XsXZXLXLXZXkXBXJXSXZXJXLXLXGXZXJXLXHXGXCXCXLXGXaXbXNXCXFXGXbXzXAXLXLXLXbX=XV.C.6XxX2X",
"LXLXZXkXkXkXpX8X_.6XZXSXkXpXjXnXsXeXeXpX9X9XpXeXeXjXtXtXsXwXsXGXJXJXLXZXrX;XJXLXLXJXVXnXZXHXGXGXvXtXjXnXxX.XC.h i c E.E.c c $X<XvXLXLXDXNXFXGXHXLXLXLXLXLXLXLXLXLXLXLXHXJXCXnXCXJXLXJXZXLXLXSXJXLXLXLXsXnXaXuXvXAXCXJXLXLXLXLXcXNXLXHXAXLXLXLXLXLXLXJXvX;XvXLXLXLXLXLXLXGXbXAXLXLXLXLXLXLXLXLXLXLXLXHXJXLXLXKXcXcXLXLXLXLXLXLXLXJXZXHXLXLXSXSXVXZXZXZXAXBXVXhXkXeXkXkXjXpXqXqXsXpXjXnXkXjXpX6XeX%X#X6XeX6X8X*X@X>X8XpXnXnXJXLXKXHX2X` ' A.).S.-.`.#X`.`.5X7X6X*X(.,.,._.OX@X#XqXnXsX;XnXZXrXrXnXsXwXwX;X@X@X8XiXaXmXZXmXjX6XaXLX",
"LX;X| k.).~.~.#.P A +.k.l.k.k.d.D.D.~.}.}.[.~.~.).}.).*XjXeXeXpXpX6XM.,.&.&.!.5X#X(.`.@X:XKXLXDXaX;X/.<.h i i h 3 i &.l i i h u a b 2XzXE.b l b l l c W.E.E.n.z z z z z E.R.b b XX=Xb M.=X;X=XXXE.XX>X_.W._.:XiXsXsXsXvXvXzX1X=XaXHXLXvX;X;X&XQ.z E.W.d w 0 i 0 ,.Q.@XN.,._.@X@X_.E.;XrX=X=XdX:XrXfX:XW.Q.;X1X=XuXaXaXsX$XE.8X;X@XW.dXLXaXN.! r s Q | <.} } A #.=._ X.} ~ ;.d.#.@.-.X.~ o.A o.W q C q ~ -.| } ! ! ! -.(.S.W.zXLXLXHXs * M C Z C o. .B 8 8 8 , A } -.| ~ ! r } } | r r } } e 9 } r e r #.| 9 9 8 7 ! -.~ r : g KX",
"LXN.D ..6.I U I U U D 4.2.v.6.M n G 6.4.Y 9.4.u.u.1.G S S C / W M A A ..1./ C A A A ~ q ,.1XLXbXE.@. .P / Q 0 s q q ! r q Q s w 3 a vXW.4 a j d d g w 3 4 a ` ,.l w 0 e @.| h M.W.&.j d 3 3 3 0 j &.&.N.,.j &.&.d 0 0 d l w a 0 5 E.vX(.q r q 0 7 q S ! W _ ;.9 7 r r r q e 7 , 7 7 8 8 , : 7 e 7 e } @.} r w 4 @X@X: : : : : s q w E.@Xd C S ( ( S M D 1.w.8.w.w.f.[ U U w.x.v.v.u.x.J H 8.J [ w.w.f.f.D Z ( ..( G [ j.a.s M.LXLXZX:.S 2.8.w.[ 6.f.t.U 6.v.v.t.1.3.6.1.7.7.7.1.....3.F D B M B B F F I D D V D B M C 8 8 7 l KX",
"MXN.J U 8.8.9.J.J.Y Y H.8.0.J.e.f.i.e.J.J.J.J.J.0.0.0.w.f.f.f.P.K.w.f.x.H.{ J 6.[ { g.{ (.;XKXkX<.7.+.+.1._ %.^ W ( ( ( W W ~ s 3 0 wX;Xw $.,.} r e s s d h &.&.N.-.%.O.j.~.+.q 7 s :.Q p ! q ! <.N.S.k.z.<.<.;.-.| -.S.S.S.S.*.h ,XsX-.( s.6...F 6.f.D.D.D.f.v.v.t.G 6.c.[.D.v.5.j.f.f.5./ o.F F ..j.F D C S q #X(., C C C Z ( 6.#.sXsX_ D { [ K K H K K 0.Y Y 8.8.H 0.8.H H K Y Y Y Y Y L H.H.e.{ [ f.e.K K 2.J J K J n * i vXLXxX*.6.U 8.w.v.x.w.Y 9.9.8.w.J 2.w.2.G 4.4.1.U x.w.w.w.i.9.U w.9.2.w.J.i.J.i.0.f.[ 2.3.3.A M.LX",
"nX<.U U 0.J.Y H.Y Y H.K.Y Y 0.J.L.J.J.J.J.K.J.J.Y J.J.K.H.8.q.K.H.H.8.8.G.H.H.K.K.K.q.{ =.@XGXtX5.v.~.l.k.=.-.=.d.s.( A _ =._ C , 3 M.E.,.R.R.&.^ } ,.,.,.,.%.-.N.).N...o.o.=.k.Z.).A.%.<.!.~.S.z.h.a.k.<.<.!.D.>.-.S.~.D.D.S.Z.(.nXmXA.5.f.[ f.v.w.2.c.v.v.6.t.j...6.x.v.v.T.v...7.4.u.x.6.6.v.x.[ 1.1.6.6.h.! 6X5Xr C N K Z [ U `.LXLXs.n L { { K.H.8.L L L { 8.{ H 8.K K 8.K Y Y 0.H.H.8.H.8.8.w.w.f.K.e.f.e.K K { K N S -.2XLXZX,.o.4.t.v.j.j.6.w.w.w.f.P.c.f.x.[.{.{.|.|.L.8.x.x.2.2.x.e.x.e.x.x.e.J.L.L.L.J.e.w.6.3.8 R.LX",
"SX<.K 0.J.J.0.8.Y Y J.K.K.J.J.0.e.'.J.J.K.J.J.J.K.J.J.K.H.L { q.K.e.K H 8.e.K.K.K.H.G.e.C &.JXmX_ j.+.o.D.S.N.:.W ( / X.>.Z.' W q N.MX,Xz M.&.N.Q h ,.,.,.N.&.<.(.N.N.;.A.D.S.>.S.S.N.!.Z.6.l.s.a.a.a.z.N.<.N.k.k.N.<.~ D ( S.S.n.2XnX(.o.6.2.6.4.4.6.w.x.~.~.#.h.a.7.s.v.6.j.j.j.D.v.v.v.v.v.P.[.D.[.x.v.v.~.!./.eXQ C Z [ q.w.u./.CXvXd.S J f.c.f.x.x.2.G V Z [ ' [ 1.S [ J D F [ v.x.e.w.6.w.w.6.s.s.D.x.f.x.f.f.2.9.f.( (.;XFXLXl ! l.h.z.;.#.h.D.l.' p.F.4X4X3X}.}.}.}.4X{.x.v.v.v.[.|.{.{.[.c.s.v.v.x.w.4.w.w.6.t.v.A R.LX",
"SX-.H L.J.0.J.e.e.i.J.J.J.J.J.0.e.x.x.J.K.J.K.J.J.Y Y Y H.H.f.K.H.8.[ w.K.v.v.f.K.H.8.{ < d JXMXd ^ &.<.N.S.!.-.s C } | *.Q Q ` p C.LXcXb b l l h d ` :.m.m.,.,.N.M.N.N.(.N.S.<.N.R.R.D.c.p.d.;.k.S.N.R.S.~.[.).!.D.D.X.~ #.}./.@X<X@X(.s.5.5.7.7.6.5.6.s.f.N.<.A.Z.Z.a.5.s.k.5.a.a.l.l.a.D.a.a.s.l.D.j.t.+.z.#.S.OX&.` ( ( *.x.T.R.SXAX$., < q W s s r q , , & : : # % : , 7 7 q A ^ r A A 8 q q q q q ! W X.o./ o.a.1.v.s.^ ,.cXLXk & s N.N.N.A.~.).` p p 0 m.m.&.,.N.&.&.| *.=.k.~.).~.D.Z.}.~.Z.Z.Z.D.D.l.D.v.l.l.~.{.v.R.CX",
"LX!.D u.u.4.4.s.6.w.v.L.'.'.v.v.T.[.|.[.w.w.v.u.U 4.x.v.j.7.5.( p.p.D.~.D.k.A.=.' ' ( C * 4 HXKXV.M.j w s d j 0 h s #.&.&.$.` s > a JXJXE.5 4 3 l &.&.N.(.(._.W.N.E.M.M.M.l l d a z M.N.X.A q w h d W.pX/.~.|.}.`.3X~.7...A  .j. .| ! X.7.p.o.s.f.2.U 2.6.f.l.W.N.&.` Q C S A A >.-.-.<.<.-.Q Q ^ %.*.^ } } } : j .Xh - - = > A * 4 aXCXM.g N.$.f h l l M.E.sXnXOX.X.X.X@X_._._.W.M.d : d $.#X#XN.M.W.N.M.,.s 0 & , q 8 8 & X a 2XbX,XM.l s p q , , 4 i n.B.f g C.C.h : g g h $.d 7 q Q Q q 7 q q s %.>.A.A.S./.D.D.D.S.D.h.R.BX",
"pX_.7 8 8 0 w 3 0 C * < 6 B 8 8 * & , , < * 8 q 7 e r i 4 0 7 7 $.h ` &., = - = - 1 1 q d n.bXLXHXLXsXW.,.M.M.,.j s e 3 0 w w p d g vXLXiXW.M.@XC.$.,.&.,.(.l ,.W.&.R.W..XsXxX<X&XE.E.<.<.!.qXsXqXtXjXVX0X}.l.;.a.c.u.x.e.x.4.v.3.A +.-.#.j.o.5.5.7.6.w.f.f.l.(._.;X<X(.-.} -.-.(.(.R._.@XN.&.l d M.N.$.&.l g XXvXCX<Xn.h g W.}.5XkXLXLXLXfXsXLXLXLXLXLXLXLXLXLXLXLXLXLXZXBXnXVXnXpX*X;XeX6XpXeXeXsXfXwX#X@X#XS.-.S.~./.D.>.-.<.W.@X*X6X5X~.Z.d.( ( %.#XZXLXLXLXGXxX=XXXvXvX1XvXLXGXCXrXaXCXCXvXbXaX2X<X8X8X(.(.!.!.S.).S.w R.sX",
"R.!.D.j.4XkXGXJXkXpX}.~.`.k.X.-././.z.~.5X).3X5XeXVXSXxXrXnXVXZXGXZXZXLXVXeX6X#XeXkXZXZXVXmXvXcXbXrXwXkXmXjXeXVXkXgX8X(.#X`.8X#X#X$XtX=X&XtXSXLXVXeXLXLXLXSXsXeX8XeXjX=X<XmXnXnXLXSXkXhXjXZXLXLXmXqX#X3X}.}.~.e.i.e.8.0.J.J.0.e.t.6.6.s.7.7.5.5.a.p.5.v.x.s.D.{.;XvXvXVXVXkXnXjX8XkXLXJXSXLXLXJXZXSXSXZXCXCXbXLXGXaXCXLXkXeX_.#.h./.|.5X8X`.^.9XVXVXkXhX9X9X5XaXLXLXfX*X5X`.!.5X`.`././.!.<.<.Y.~./.Y.@.s d S.d.k.~.~.~.k.;.-.} A A S  .h.6.1.5.( 6.7.@.&XLXLXLXbXwX_.Q.=XXXXXwXiXsXfX&X=XCXJXMXLXLXLXCX8X9X5X(.}.).~.).~.N.R.(.",
"A ..v.T.~.#XM.1XfXR.5X4X3X/./.N.!./.} P Y.Y./.S.!.&.wXLXLXLX6XC.(.`._.`.`.`.`.~.!.<.-.!.z.N.XXwX;XR.S.~.`.(.a e ,.R.(.R.!.!./.S.-.! j : X & e N.(.R.$.<.R.R.(.(.S.(.5XW.$.l a d _.8X5X!.S.N.%.$.$.Q &.X.+.h.j.w.J.e.0.e.].J.w.l.j.4.s.D.D.D.Z.Z.d.s.s.j.v.s.p.W ,.N.&.n.&.,.(.!.,.`.*X_.*X8X*X;XsX>X;XkXvXsXxXrX=XQ.;XBX#XS.N.} I P B B A O.9 A  .O.S B F D < M.HXsXw 7 A B A I A r.h.I A A ..7.7.r.h.+.;.;.a.a.s.6.1.6.v.t.6.t.s.5.5.s.6.3.4.u.u.u.w.a.&.aXaX@Xl s s <.N.&.s s w 0 0 0 w 0 d d g E.2X#X} F ..7.s.s.v.v.v.o.7...",
"L.'.].i.7.} - I.dXz } ~.~.3X3X~.k.j.r.I r.v.D.D.#.e z uXLXrX,.S.z.} h.l.I I j.t.I B B D B 9 (.gX/.#.r.r.j.h.Q | e e q q 7 q 8 q A X.;.A 8 A q q ! +.+.~ 7  .z.k.X.-.z.-.s e 0 7 , , 7 B A X.A q A A  .+.h.h.+.h.6.6.6.x.x.A.6X6X' ( d.l.Z.Z.s.~.v.~.D.D.A.A.m.Q -.k.#.| r q / ' -.@.&.| P 8 9 A } ! A ! $.h w d s 9 9 7 ! A / t.t.t.t.U I I D I I I I U 4.H n :.FXmX} B D 2.4.U U t.L.i.v.u.4.J V U t.i.u.w.U U U Y 0.0.9.0.i.i.x.f.w.w.[ J U i.L.i.H.G #.LXJX&.9 ( F A A / C < B A P  . .h.v.S.w h @X;.G e.e.x.x.L.L.[.L.'.L.i.",
"|.|.].'.v.! .XKXLXl -.G D [.{.v.3.4.L.u.U 4.2.6.t.h.P E.sX(.X.c.* * v.{.v.J.L.0.t.J.i.0.U I D.~.U u.i.i.v.6...X.} 9 A W C A 8 S C M C B S C F +./ D 1.6.1.1.B C A B A / o./ A 8 < , / f.A.d.;.#.l.l.z.S.N.S.S.<.h.;.=.>.m.m.wX;X%.Z.>.>.d.d.z.l.T.D.S.A.>.Q q s A.D.D.=.Z.' =.' _ *.-.<.X.S C S G D D 5.I * M M D U .. ...1.8.Y V V H U H H H H m V H U Y L N S.LXLXz.V U 0.Y Y Y L Y L J.0.0.Y Y Y J.0.Y Y Y Y Y H.H.E J.J.Y Y J.K.J.J.L.J.J.J.K.J.J.2.-.MXGX;.C [ J 2.6.6.q.w.w.v.v.T.t.v.v.7.%.wXGXc.V H.K.P.].].J.L.L.].].].",
"].].].].v.A C.LXLXg q 6.J 9.t.U U e.J K 8.w.0.U U 3.B z kX`.7.N * M J.].].J.J.J.0.0.0.H.K.J.~.[.2.J 8.J.i.u.6.6. ./ o./ a.a.=.o...G B M M A / A _ ( [ 6.e.Y D V D V M D ..I F M D r 7 , : 0 7 7 e r 0 3 # # : : : : : : = - rX=X$.Q Q Q s , w $ 7 s Q Q $.w h n.N.!.-.e d : 0 : p l N.M.o.! 0 C A H L K u.L.H J L 8.Y t.t.w.0.L.0.0.i.0.J.J.0.0.J.H H L Y E N ` GXbXe M K 8.8.Y Y L L Y 0.i.L.K.J.J.Y H Y Y Y L.J.E E J.E J.Y Y Y J.Y J.K.K.J.K.J.H.8.2.%.rXxX-.Z q.w.6.[ { q.w.2.D B D 1.4.w.j.| ;XGXl.V Y H.K.].].L.].L.K.].'.",
"i.e.8.w.6.^ &.MXLXg + D.J.'.t.L.i.f.[ [ D w.e.J D j.8 R.LX}.v.2.Z 6.J.P.L.J.x.L.L.J.L.L.'.v.~.[.2.G [.6.s.j.6.7.o.( o.h.o.o.k.d.X.A A A A C X.~ S C A S D U t.'.{.'.0.3.7.3.A A q q 0 > h ;X$XM.h h w a M.W.W.W.M.,.M.E.c E.LXLXxX@XW.#X@X&.M.j w d d M.W.@XXXW.W.M.W.#X8X6XsXsXZXCXaX(.<.S.S.(.~.J.J.0.e.L.2.U Y Y Y 9.6.w.9.v.u.u.'.'.L.L.'.L.x.L.L.J.L.Y < l HXNX- * S f.x.2.8.w.'.|.'.1.4.'.L.L.L.U u.i.v.'.v.9.9.0.L.v.u.u.i.'.i.t.t.x.P.e.L.e.J 8 &.LXLX(.r p.5.s.s.[ p.c.s.7.8 M v.j.c.Z.,.=XLXk.M 0.J.[.[.L.L.[.L.L.[.L.",
"[.{.{.L.v.*.$.HXLXXX. 2 2.[.[.{.[.Z.;.a.;.X._ W W A.` _.SX`.~.v.f.c.P.[.L.D.D.~.[.[.~.t.v.v.).3X}.l.h.o._ ( =.-.| | ! X.r A -.A.=.D.;.X.=.*.=._ W ! *.=.7.v.[.[.v.w.w.7.a.a.;.!.`.eXJXLXLXLXKXxX6X3X#X6XjXnXJXLXVXBXZXLXLXSXZXZXZXZXZXGXLXHXLXLXLXZXCXJXLXLXLXLXiXsXCXVXBXmXJXAXAXLXvX;XkXVXjXZXJX|.i.e.8.J.L.L.v.t.B 8 W W A B F F ....o.l.j.7.l.D.a.7.{.{.q M.LXHX5 X % _ s.l.+.A A A 8 A 9 8 A A A +.7.+.-.X.A 8 * A F A A P A ..A A B 8 8 q C q * : XXFXGXV.> :.%.Q m.S.>.A.S.A._ ~ d._ Q p n.GXLXN.A j.6.5.s.s.j.c.c.6.T.~.",
"* , 8 n C , -.HXHXHXrXd q q , , % $ : $ & : = - 1 > = a ZXpX! X.! ~ a.A o.#.| } } r e 8 P } &.&.} } r * > - = - - : w : d w p p 7 Q Q ! =.' =.*._ s 0 0 q 7 8 A o.l.D.).Z.<.`.5X3X6XqXnXLXLXKXrXp q ^ ;.~ r <.<.#.#.<.N.<.R.#.s s ,.,.N.XX1XrXFXFXsXaXiX1X:XfXaXW.$X;X_._.E.M.M.M.b z l ,.&.a g l ,.c.w.i.L.L.x...8 8 s h 7 = 7 , % # + $ # X . + + $ : , q 7 V.cXLXNXXX= . % : & X X o # & : : : = : h 0 7 : 3 3 e e 0 s ,.R.$.h > # : i a l E.M.g d ;XJXLXFX2X.X$X@XC.N._.N.R.(.+X+X+X+X6XtXrXMXLXLXOX$.8 % + + . + % % * % % ",
"a 0 , & 7 3 j XXXXaXLXLXjX@XW.@XC.<XZXMXnXBXnX;XC.C.M.*XZXnX&.w W.<X@X@X#X%X%XrXsXOX_.;XsXrX,X-X,XrX*X#XV.M.E.$X.Xc a 4 a w i h h d d w 7 7 s %.p h : - > : e d 7 : : , *.~.z.#.X.).S.n.<XLXLXLXQ * M Z [ D 5.5.I B A F B I O.h.a. .~ d _.@XW.a i l h d l ,.d a d l N.N.&.d h ,.,.h %.-.,.%.h w a M.!.X.v.c.D.P.[./.eXVXGXJXGXZXZXmXjX6X_.n.g M.$X;X@XW.C.N.N.V.,XzXKXLXCXOXN.$XrXsXsXvXBXmXnXmXnXnXjXnXeXjXpXsXpXSXZXpX6X8X>X8XsXrXrXFXJXLXLXLXLXAX;X@X1X1XXX2XbXLXLXLXLXLXJXZXsXsXqXsXjXJXLXLXMXV.<X*X_.j l N.a # w N.(.N.z d ",
"<X%X#X_.#X`._.W.@XE.E.wXqX;X#X;X;XqXsXqXsXVXmXVXnXeX6X*X*X6X@Xn.nXLXaX<X;X@X@X;X=X.X_.*X;XwXxXMXzX%XC.+XtXrXbXLXJXrX2XnXsXtXnXnXCXrXsXiXtX#X#XkXeXsXxXrX=X;XkXnXsX6X@X;X~.D.j.u.1.1.( 0 l HXLXMX>.[ 8.8.e.2.w.i.9.U u.v.c.#.} ' ( ( X.! ! ;.-.q ! Q Q s Q %.%.Q ` Q s Q ` | ^ ' ^ ^ S.3XS.>.-.-.%.h W.(.*.a.l.D.}./.Y._.`.5X*X_.(.(./.).;XvXvX$XOXnXkX*X_._.S.$.M.M.M.W.*XeX7X6X8X9X*X#X`.`.`.6X*X#X3X`./.`.5X(.(._./.#X(._._.(.N.OX,XDXLXLXJXCXnXwX%X(.N.j j d n.@XrXvXnXCXzXaX@X,.l ,.,.M.R.M.h h h z M.E.=XaX<XOXW.OX6X6X;XfX",
"_.,.N.(.N.<.<.&.0 d e 0 ! %.} %.N.%.-.-.-.@.&.<.N.<.! e | | r Q tXLXfXfX_.h &.&.,.,.} &.d d %XxXsXOXn.Q $.M.M.W..X.X%XMXMX%X_.XXQ.E.z E.@X@XR.j j ;XnXrXqX(.R.R.(.8XjX*X~.1.3.2.K K n < i aXLXvX*.1.U 2.w.w.x.u.4.4.4.6.7.;.-.m.&.m.m.` | *.' ' =.m.m.*.' ^ ^ *.' ` ` | %.s | ^ ^ %.N.S.! s Q %.} ! 6X6X&.%.A.A.~.~.~.~.~.A 9 9 A F ..( N.aXaXM.X.| A 9 P h.h.h.z.<.-.O.k.~.}.~.Y.Y.#.j.Y.T.Y.h.h.7.7.h.h.Y.~.Y.~.}.[.}.~.~./.~.6.X.&.sXnX@XN.N.S.!.S.%.*.X.X.=.S.-.w : : : - a ,.,.$.d j w e w e j &._._.W.W.E.W.W.N.-.| &.R.pX",
"N.$.*.N.| -.S.!.-.A.S.S.d.a.d.l.Z.l.D.v.j.j.a.+.h.~.l.D.D.l.;.^ R.kXLXSX_.} k.*.X.;.-.S.<.s ,.W.$.-.-.N.A.<.-.d 3 - - =X@X0 7 4 4 w w j ,.(.<.6X_.;XwX0 %.#.@.@.} -.#.P o.f.w.8.8.K J ( S.<XLXGX,...4.7.v.D.a.*._ Q Q s } -.%.c n.n.n.n.,.&.` ` :.` ` ` ` ` ` h h n.` h $.h $.h h h h ` h h d h ` ` W.%X$.%.N.A.a.o.( s.1.J G D J 9.Y N ^ 6XVX}.{.[.u.t.T u.i.v.[.{.[.v.u.x.x.v.i.t.i.'.'.T.y.y.u.u.x.v.t.r.i.v.J.J.y.'.i.U t.t.J.i.X.9XeXD.;./ ( 7.A / / B B ( C / h. ...A $.R.R.!.!.#.<.#.} #.#.} <.@X;X@X@XXXXX$X(.<.z.<.!.8X",
"j ,.*.>.;.=.z.D.~.~.D.k.f.D.D.D.g.j.v.v.v.v.7.j.7...F _ =.o./ o.s !.9X5X#.l.~.D.l.l.l.k.-.-.N.N.S.T.D.D.D.~.l.k.*.: > jXeX!.D.<.!.S.`.z.| r ~ ;.~ b _.& * +.6.o.5.5.c.c.6.f.f.v.6.w.x.( S.@XbXLXh q k.z.!.OX;Xl y l M.g a g l y y 5 a h d > - = # - - > y i g y y x f i i g h g g h i i y t t i t - V.sXw > w 0 ~ ( ( 1.1.U 9.J K Y Y H q N.9XT.U 0.J.J.J.0.0.9.i.u.4.U Y 9.0.Y Y Y Y J.y.J.0.y.0.J.J.w.w.6.U 9.0.K.].L.J.K Y Y Y J.v.7X4X[ 6.w.2.K J J D V V m m V 9.4.2.o./.`.R.!.Y.Y.Y.Y.Y.#.z.#.<.@X@X@X;X$X=X*X<.-.7.<.N.N.",
"&.F.m.A.<.S.S.l.;.D.D.D.f.s.s.f.s.j.6.5.a.5.k.l.l.l.a.>.>.X.X.A.*.| ! ! / l.~.D.~.D.a.k.<.S.S.S.v.T.T.v.'.u.4.j.7.=.$.6X7X#.~.~.[.v.j.3.( S ( ( M l ;X,.$ * < , 0 7 r r A A C A X.F 5.( 0 d cXKXc = w %.M.V.<XV.- - 5 y g y u u u k k g w l V.V.M.$X,X1X$XM.y O O O O y > - - > O O = t > O O - > O XXJXMXsXOXM.N.k.5.1.8.w.8.w.6.2.[ [ ` 6XpX<.V 8.2.2.x.x.w.v.[.t.I 6.w.6.2.U U t.U 4.t.v.v.9.4.w.8.w.6.j.6.t.v.i.i.L.L.'.u.U H t.k.).).C J u.w.U Y 9.J K K 8.8.K K K q.( Q l N.Y.z.z.Y.h.<.N.N.,.-.@X@X$X;X>X<X8X!.S.l.N.N.l ",
"h $.-.N.F.S.S.>.>.S.N.<.d.d.;._ _ ~ ;.>.>.! $.-.N.(.).F.C.N.N.(.:.` -.A.p.;.D.D.<.-.<.S.N.N.N.l.d.h...7.v.6.6.6.v.~.-.!.!.-.l.p.p.( S ( a.a.o.k.l.B.vXsX~.3.-./.*X*X_.W.| r , 7 r C C & + d ,XzXaX&XM.(.`._.wXZXZXnXsX<XnXZXMXnXSXSXW.a E.MXLXLXLXLXLXLXLXLXaX=XsXsXCXGXjXqX;X6XqX;X%XwXmXvXtXsXmXnXZXmXnXmXZXJXmX4Xh.5.1.x.u.d.p.d.p.W h MXCXN.~.D.l.~.~.).).).7X!.-.D.;.~ / D.~.v.h.r.l.j.h.D.a.6.[ F W ~ | ! | 9 A _ =.X.X.-.O.@.d (.6Xv.j.r.3.3.U 9.2.x.'.].L.i.0.J ( p > M.a j #.<.<.#.-.N.$.h c E.M.M.Q.R.W.N.j } -.N.M.M.",
"V.g > 4 h h h d $.l d a a w w > # 3 i - - i c V.V.V.C.c B.V.C.n.n.> > h ` 0 : 3 a l ,.-.<.&.&.M.<.k.s.a.p.( _ F A A d W.W.d 0 r s ! ^ *.-.N.s ,.&.g CXLX_.v.Y.`.*X*X(.N.#XS.A.).}.}.~.S.S.#.<.<.R./.}.}.[./.~.5X0X0X9X!.!.#X3X`.!.S.} r OXJXLXLXBX6X#X}.gXgX5X/.5XeX9X9X5X#X5X7XeXpX*X`.9X9X*X(.(.(.(.N.&.,.N.N.N.%.r 7 q q A Q ` ` h d V.bXvX5 w ! 7 7 0 0 0 w ,.j d q w 7 , r r q A ~ r 7 0 %.Q ! 9 r w : = - = X # X # # : : & 3 a nX8XA h.~.j.r.t.v.[.[.{.v.7...1.6._ 0 xXCXE.,.N.j d &.h a 4 y y k k 5 4 w a l l 3 : w 4 V.",
"LXMX%X$X.XW.l g M.V.V.V.g a a M.<X,X.X.X$X Xv oXoX X XoX X Xv u c v v v c l E.xXnXW.a w a a w M.l h r 9 0 0 > : & & O =XAXk - 4 4 - O - u 5 y u k E.KXAXw 6 +._ _ ~ A r k.;.d.v.v.j.j.+. .O.A M A F 7.u.t.u.t.4.D B I 3.G 8 M B M D C < l vXFX&X3 8 B B I m V I D I F P h.~.~.T.#.#.#.#.O.} -.A 9 B P O.-.-.} #.~.N.W.W._.M.h -.(.#X6XsXMXLXLX8X#X8X8X6X;X6X@XN.R._.*X`.).5X#X/.!.h.} -.-.} r | | N.6XrXrXcXzXdXCXsX;X6X#XeXtXaXsXrXaXrX,.7 A X. . .+.h.k.~ , * , q 8 , e R.=XHXLXLXGXtXvXCXnXCXAXCXbXFX1X=XZXJXkXfXwX;X2XqXOXvX",
"%X<XwXtXsXMX<XrXnXvXxXnXtXsXtXsXLXLXLXLXLXLXFXMXMXvXxXzX,X$XrXaX2XbXbXaXnXmXnXCXmXnXsXeXqXqX8X_.R.R.,.,.W.@XXX=X2X$Xc 2XLXHXvXzXbXMXxX<X<X=XdX,XoXuXAXLX>Xe ~ ( 1.u.j.j.6.f.w.9.w.w.w.u.t.t.v.6.6.w.0.i.0.J.J.J.U H U L.i.V H 9.Y 2.2.[ ,.wXZX_.A u.'.'.J.V V u.4.2.2.j.~.T.j.6.( 6.6.6.6.3.3.U 3.U 3.6.s.s.6.( a.S.zXNXFXCX=X3X9XgXgXkX>X@XW.*X*X6XkXVXnXVXjX8X8X8X9XeX3X5X7X7X|.{.|.7X7X5X`.~.!.#X<XE.uXKXaX.XsXnX6X6XW.R.W.&X;X$X_.R.R.`.).~.~.[.!.z.!.S.).eX6X#XN.| `.>Xb b XX=X<X=X;XaXsXfXBXJXLXLXLXnXsX*X_._.@XxXCXvXOXV.",
"p h j } } <.l E.&X@X^./.`.7X7X7X9XpXjXpXeXeXhX7X#X#X*X#X#X6XpXsX_._._.W.W.N.N.(.R.6XeXeX6X#X3X).(.6X`.*XwXaXcXFXHXzXaXsXZXLXJXZXZXZXZXjXsXmXLXZXwX*X*X&XwX7X~.w.J.Y Y 0.8.e.e.8.U U u.i.J.0.i.J.9.9.i.i.i.i.0.i.9.K U 9.J J 2.Y Y U U K ! wXwXS.u.L.i.Y J.J.J.8.w.i.6.D D D J [ N [ w.w.6.v.c.j.j.j.j.s.f.s.6.' p.).wXFXfX&X_.l.D.l.} 9 r } #.#.O.P A  .-.-.+.O.O.j.j.v.7.7.l.j.+.+.7.5.F I A M 8 Q d - ,XLX=X0 p q q s 0 q d 0 7 e 9 } #.a.k.D.k.+.+.+.-.z.l.S.%.*.A.;.-.| | #.} j @.#.#.@.} P A #.$.:XJX*X} } h.z.-.Y.z.N.,.p ",
"*.A q A ~ | w w R.<.I U I 3.r.#.P S S S A A B B +.Y.Y.~.`.!.#.@.@.#.<.N.,.q 9 } #.l.h.l.k.+.+.o.o./.|.5X*X_.&XzX2X.XM.| } +.} } @.@.-.h.~./.}.`.^.Y.#.-.k.l.l.9.Y Y J.H.e.i.x.8.J U v.x.J.f.J.L.L.'.L.x.v.J.w.e.J.e.x.L.2.[ g.Y J.J.e.[ ` eXjX+.8.9.i.9.J.0.9.J.L.w.L.w.[ [ ) Z [ [ [ 1.6.s.( ( ( p.p.( ..6.[ 6.5.=.XXSXeXY.U [ 2.2.[ 1.I I 3.4.u.t.U U U J u.i.u.L.e.e.Y e.u.u.6.4.D [ 4.6.v.6.G M * : ;XFXc -.d.Z.~.Z.S.Z.=.' ..3.7.1.1.3.6.v.T.[.T.[.[.{.{.[.D.D.T.v.4.1.1.j.j.j.l.j.j.+.I 1.G F 8 W.kX!.F v.l.l.r.T.l.-.-.-.",
"t.t.....( X.~ &.#XS.D Y U U U U U t.t.t.4.U U '.{.|.'.'.v.v.T.j.3.6.....7.4.U D U D V D D I D U 1.9.u.I r ,.iXnXl d ! 8 F U I V V V V V V V V m m B _ X.d.>.v.0.Y K.K.J.0.0.8.8.e.J.g.f.f.w.w.L.v.v.x.x.D.v.f.P.P.P.P.f.6.K Y J.H.L { [ C.nXsXS.v.L.L.v.v.4.v.f.( ( 6.f.6.( W ( W W r W Z.Z.S.S.A.F.).Z.d.l.( A ! s @XLX5XI V H K Y 0.e.Y Y U Y Y 0.0.J.0.0.Y '.|.'.9.Y K Y Y U 4.4.J 2.i.0.i.L.L.[ D -.BXLXN.A S 5.x.6.6.f.w.f.w.e.w.w.2.i.i.L.L.'.'.].{.'.L.'.'.].].K.J.0.9.9.U 2.2.2.w.w.w.8.8.2.D _.hX~.U Y v.v.v.T.~.r.t.r.",
"v.t.6.2.[ 5.o.W.eX/.J E E E E E E T J.J.J.K.].|.].T U U K U J.J.w.w.J J J Y Y Y Y L H K U H V L Y L.].t.+.<.6XeX| C 1.6.G U U t.t.0.Y Y J [ 1.5.-.$.` &.m.&.S.v.t.v.L.L.x.6.D S o./ S 8 0 q 8 8 7 r >.S.! , C =._ ( ( ! ~  ...D 1.f.=., - sXvXe * q 7 $ % & + # # .   + = - 1 0 > > - y n.m.N.N.(.OX+XOX).F.=.! r , @XJX}.T.J.0.0.Y Y K L L U Y Y 0.0.0.0.9.J t.[.v.U U V H U U S < D 1.i.9.J K J.K.6.| sXLX5XS v.x.v.x.9.8.H.H.K.K.K.f.[ 8.e.i.i.i.Y 9.L.L.[.i.0.J.K.J.J.J.H.J.J.e.e.8.e.0.J.e.{ [ V R.kX}.v.8.v.s.v.D.[.T.'.v.",
"v.v.v.f.6.s.a.W.BXeXv.].K.J.E E J.J.'.J.K.].J.0.J 9.4.Y J.0.0.J.J.L.L.J.K L Y Y Y Y 0.J.i.E Y 8.8.J.].T D k.*X,., / f.e.v.u.e.8.4.u.9.e.' ' s 0 - - = - > - O : % % % & & : 1 > = = i l c n.M.N.W.E.;XsXwXwX6XN.m.m.N.n.n.M.h 0 d d p h M.BXBXE.w $.M.M.OXOXwX$X%X<X,XrXbXCXMXrXxXtXxXOXh l w w &.N.,.,.o.| $.N.$.0 b wX#.t.'.J.x.9.v.w.9.9.Y 9.9.1.G D G 6.7.q 7 8 M G G 7.r.o.! , q 8 8 M S D 6.D.=.3 iXLXeX#.D.c.Z.v.v.L.L.K.f.f.x.f.[ s.j.s.5.7.3.I 7.j.~.u.u.i.'.J.f.6.D J w.u.'.{.[.v.u.x.f.f.B _.SX5X/ [ c.s.s.c.[.v.4...",
"d.Z.;.o.s.a.s b dXwXe I ].|.].L.'.T.'.v.'.L.D.x.5.7.o.u.v.i.9.i.u.G 1.V D U u.i.i.4.v.[.P.u.J.J.'.].{.y.M <.nXsXw ^ ( 6.j.s.x.x.l.v.v.c.a.' %.N.$X$XoXV.V.2X2X$X*XW.OX=XwXxXFXFXFXFXLXLXLXLXLXLXJXnXnXJXJXLXJXZXGXmXtXLXLXLXHXsXnXmXnXMXtXwX&X$X;XtXnXZXJXZXnXxXLXLXLXLXLXLXLXGXaXvXZXVXjXVXVXSXVXpXwXN.k y - O . . $XaXl 8 ..l.a. .o.a.6.v.~...8 + % , + + : ` 0 : 1 r 7 , : # > > > = # : = : * ` i . -XDXW.$.-.1 0 , q q C _ o.a.;.-.X.*.^ ^ N.%.r r 0 , : r -.O. .X.^ ` *.X.;.l.l.h.h.#.O. .5./ } 1XCX;XN.m.d.d.Z.l.X.h.D.d.",
"p 0 7 , , 0 - k aXAXd . G j.+.M 8 $ & * * % % % X + + $ % $ + + + + + $ $ & * % & , , 7 , A U v.'.|.T.+.8 &.ZXLXM.d Q ^ ;.p.d.^ 7 $ , *.%.d h xXLXNXLXLXLXLXFXaX6X*X;XwXwXrXrXrXxXHXLXLXLXMXnXaX6X(.N.N.N.N.!.S.).D.;.jXaX1XbXwX@X+X(.M.%.%.h h &.&.&.l l a h a a .XHXCX2XW.l j d <.R.Y.~.`.`.8X`.`.`.A.u u f c k V.2XxX=X<.q , & : 7 : 8 q r q ! N.+XeX6XC.h l l h ` $.n.n.N.C.c c %XrX,X.Xl > - i c $XbXcX.Xd (.C.W.M.M.&.h h 0 3 3 7 7 3 > h n.0 w a 4 = o & & & o = i y w 0 : X X     X X X & $ R.LXJXE.> = : : : : = q q 0 ",
"#X#X=X$X=X<X=XuXcXvX@Xs X # = a l a 3 - = 3 l l 4 z M.z j d w 7 d l R.W.W.N.M.l E.;X;X>X*Xs 8 I j.u.9 9 0 M.AXLX.X- w : = X . o 3 w : # o o .XxX-Xu M.W.V.c y l <.<.j w a w i h - c CXsXM.d q r 7.v.6.G D ..7.6.6.w.6.h.,.;XFX6X` ^ W r _ o.*.m.m.*.| %.-.;.^ 0 3 k ,X1Xl s A 7 7 +.Y.t.t.I D P #.j.v.v.(.$XtXmXpX*X;X#XqXeX7X7X7X7X7X6X5X3X`.3XhXmXsXeXeXeX6X(.@X+X+X6XeXkXjXmXjXnXvXMXLXLXLXJXZXGXsXrXaXxXkX@XeXZXZXGXGXLXLXCXsXfXpX6X6XqXsXeXqX6X*X8XsXnXBXmXmXsXZXZXvXrXiXkXkXnXnX<XOX.X_.>X_.W.1XiXfXsXsXqX$X@XW.E.W.,.#X6X",
"BXkXuX1XvXFXcXXX=XMXnXtXtXMXZXLXLXLXGXHXMXxXZXSXfXSXLXBXnXBXZXZXSXSXZXLXLXLXJXJXLXLXLXJXBX;XS.@.#.#.P } ,.W.dXzXCXCXiXl i a M.aXLXSX;XM.W.=XaXbX2Xy d p p h N.X.X.#.<.-.| -.Q p - l nX5X} ~ F D H L H.H.H.e.i.L.i.0.H.6.r *XnX3X=.s.c.v.l.D.D.~.D.Z.d.l.~.4X4X~.S.M.rXBX,.< D ..;.o.t.v.L.L.J.u.L.L.L.L.[.`.`.`.`.}./.~.)././.~./.D.k.!.Y.}.}.~.!./.5X3X/.`.).}.5XD.;.>.D./.!.z.<.N.n.%XHXLXMXtXsXeXR.l ,.%.} } A.N.$.l l E.uXLXLXAX;XC.+X7X#X(._.(.,.R.`.*X*X6X`._.;XJXLXfX;XiXgXnXxXrXrXaXkXkXwX;X:X>X_._.*X*X=X<X<X<X@X&XkXSX",
"#.#.$.j w w a d 0 ,.N.`.#X#XC.@X=X<XCXLX_./ z.z.<.<.N.N.,.N.(.N.#.h.-.l.!.S.!.!.S.<.<.<.,._.6X5X7X9XgX5X).#X&XW.rXJXLXmXvXLXLXLXNX=X;X6X+XM.XXBXaXn.*.^ _ ~ W / ~ o.o.=.Z.=.=.' ! <.eX`.+.s.6.8.L L e.8.8.2.2.x.8.8.L [ r wXAX+XZ.D.P.v.~.~.~.~.v.D.D.s.6.s.D.F.S.N.iXZX(.( { v.D.D.c.w.e.J.e.8.w.J.J.L.L.v.u.u.T.Y.T.'.v.v.l.j.v.v.v.j.T.~.~.T.~.~.~.Y.r.~.v.j.~.j.v.j.j.j.j.h.+.A s i l <XOXQ Q q 9 9 A A  .+.( o.~ ! 0 # O uXLXpX-.` *.<.!.!./.!.#.z.!.D.#.h. .;.} @XLXsXj } +.Y.S.-.-.(.`./.!.S.z.<.#.#.h.j.S.-.<.N.<.@.A P ",
"G U j.+.e 7 q q 8 M B G  .A 8 8 , 4 xXJX(.J v.v.u.7.S ~ a.a.o./ 1.j.j.v.v.j.7./ F S  .+.#.| &.!.@.e `.`.).`.N.s &.(.7X5X_.@X1X_.5 0 q 0 , 7 ,._.!.%.X.X._ C _ Z.' C 2 _ p.Z.Z.' ^ %.#X/.a.s.q.e.w.6.v.x.6.[ [ f.w.8.q.q.%.sXbXOXS.D.D.~.}.}.~.T.v.Z.D.D.d.p.( ' %.W.1XBXN.' q.6.d.Z.s.( [ [ 6.6.6.L.L.L.J.J.J.y.0.v.T t.U U t.v.j.v.j.v.7.5.5.( ( 7.( G 7.6.5.D.)...3.r.7...( 1.U 6.+.} j E.N.p.' [ ( 5.( C D [ 2.6.6.{ ( 0 & =XSX`.S 6.l.v.D.D.D.c.j.+.C S u.v.i.e...r BXZXA U Y Y t.v.5.A / l.[.v.v.4.t.w.x.x.v.j.6.7.j.3.U D ",
"9.e.w.v.}.~.s.6.u.U 0.Y U 9.9.w.D h SXBX~.J.J.L.J.9.U 9.v.x.e.f.w.x.x.f.2.6.6.6.w.6.x.f.X.o.o.7...A O.F F ..A 8 8 q ~ X.q j j q C W C Z Z 2 X.~ N.!.(.S.N.C.%XqXqX6X).F.m.` m.m.&.h $XN.q / p.[ p.p.=._ _ ' ' Z.p.p.S.S.M.vXNX,.=.}.).~.+X3X~.A.d.D.).).F.m.W Q i M.JXJXn.q ( [ 7.7.o. .A ~ =.h.+.t.v.u.v.w.i.T J.0.T t.t.t.t.L.u.u.u.v.v.x.v.5.( 1.1.6.v.v.v.~.}.6.U +.t.U D J U 9.6.O.(.5XA.S Z [ [ w.w.w.w.6.6.{ [ [ [ , d nXVXY.J e.u.x.L.e.x.w.6.1.D 2.0.0.J.H.2.A 8XVX7.i.J.J.9.9.D M M S w.w.w.9.w.w.e.8.J.0.t.9.9.x.J.e.",
"e.0.e.6.c.D.D.L.'.L.L.J.J.K.J.0.m } LXVX>.K L E H.0.K.J.e.e.J.K.e.w.[ J J 8.w.J.J.i.e.Y U 0.K 8.2.[ 7.t.2.2.I G 1.( S B ~ (.6XC Z C n N N.M.h i u - 0 a c c .X$XV.C.n.l n.h i N.V.c ,X$Xd h :.Q q 0 s 0 , p p 0 1 q 1 0 l sXJX@X1 1 + X # : : : 1 % & q , + X = X M.CXCXC.0 q 8 q r r e : : 0 } e ..v.h.j.6.6.w.x.u.i.t.t.U V U 4.4.u.u.u.u.t.6.5.7...F F B V / ~.v.4.t.t.t.4.U Y 0.v.I ~.5XX.( [ [ [ [ [ Z Z 6.c.[ Z ( ( , n.MX`.I u.e.w.w.e.e.x.J.L.v.L.].Y Y H.H.q.o.#X5X3.0.T L.J.[.|.hXhX{.L.L.H.x.x.e.H.H.K.H.L.'.L.L.J.e.",
"6.v.x.1.l.~.[.[.v.x.i.w.v.J.0.w.V l JXvX> 2 [ e.L.[.[.v.x.x.x.f.f.U Y Y Y f.w.D.f.6.6.6.Y Y L H J ..4.u.v.7.7.s.s.s.s.v.;.N.6X1 @ * Z qXZXLXMXrX,XM.W.<XwX@X@X_.n.C.(.#X(.,.$.l a l =XsXqX#Xn.N.N.N.9XeX3X6XqXeX6X6X6X6X#X;X8XOX= = c .XM.M.R.<.&.&.w e $.(.sXjXsXbXzXLXLXZXkXgXeXeXeXkXZXMXtXnXtX!.z.#.#.k.~.Z.=.a.f.5...A & B r.....t.h.h.h.k.a.;.X.~ r 7 8 ! !.h.I +.r.t.t.t.u.4.v.I `.6X} ! ( C C C C C C C W Q _ W 2 0 C.MXQ.9 B D D [ v.P.{.|.|.4X{.[.v.l.[ ( < 1 ;X7X .j.t.a._ / h.}.4XD.6.w.v.v.6.1.2.w.w.w.v.v.T.L.'.v.",
"/.~.T.l.!.`./.~.D.a.a.a.j.v.s.l.} V.bXbXg . % C ! C ! ! ^ ;.S.D.v.'.'.T.y.7.7.d.Z.d.Z.D.Y 0.J.8.[ C M M S a.k.j.c.c.f.x.^ _.nXi + W ~._.eXZXLXLXLXLXjXqX6X9X9X7X5X3X0XhX4X}.}.(.$.j z _.@XN.$.m.`.`.9XgXgX9X5X5X`./.3X3X}.`.`.).(.OXzXLXLXsX8X9X5X7X6X7X6X7X6X8X_.;X@XW.#X*X*X*X6X8X#X@X6XwX+XOXC.F.<.>.<.S.(.` p 0 , : # : 0 e e 7 7 r w 0 w h d 4 4 4 > . X > l w + & 0 : , q q , , : *X<Xa = X . . - > i a : : Q N.d 0 - b 2XaXiX,.% % : , 0 0 7 0 p 0 1 7 3 a l M.$XnX;Xs -.} i # # # + 8 #.h.v.T.+. . .h.5Xm.*././.`./.Y.Y.",
"$.r <.<.,.R.R.w i $.s ! !.S.r : : $XLXLXDXc o   o = - 0 3 i 0 1 q 8 8 8 B A ! h ` ` ` &.l.v.x.f.s.=.7...a.k.Z.v.v.t.t.v.} ;XLXM.= N.F.A } W.bXzXW.(.| 7 r +.~.~.l.v.3.U t.t.j.Y.#.O.9 ! %.<.>.>.-.O.A I r.+.h.~.l.h.h.v.v.~.v.~.D.F.%XKXLX@X0 ! r r r r } } } r s s p s 7 , e e @.#.| ! @.<.Q Q %.%.q q , , 0 h V.XX<X<X=XxXLXZXwXqXtXtXsXvXxXsXtXMXFXMXFXrX<XlXzXaXsXsXsXqX#XOXOXOX+XE.,XlXaXMXnXMXFXFXbXbXdX@X$XmXLXLXGX<X,XzXcXLXLXCXMXxX$XV.h > > - y .X;X1XbXCXKXFXzXrXc h @X<X<X<X=X@XN.<.N.<.<./.eXN.R._.g - a w w j e j ",
"#X#X(.*X_.&X8XeX%X#X,.$.d (.pXsX@X@XCXLXLXLXvXwXMXmXjXnX;X_.W.(.#X#X#X(.<.j h h g i g i 0 q 0 q W *.<.-.| r 7 7 * 8 A  .e @XLX2Xh l -.G S ^ tXzXj } j.6.7.t.v.v.v.t.T U T U t.i.v.v.'.v.j.j.v.s.1.6.1.1.3.6.6.6.s.6.3.t.v.x.x.9.u.~ N.LXJX(.q C ( o...o.h...o.o.p.Z.F.D.D.}.}.).~.7.B ..7.v.l.j.j.a.+.a.( ( -.@XMXLXLXGXMXvXCXLXJXCXwX@X;XwXwXaXFXFXMXxXMXHXLXLXHXaXnXMXMXGXMXtXsXxXtXwXaXrXxXGXLXHXLXLXLXGXfXsXfXsXBXGXCX@XQ.=X=XXX=XvXMXrX<X<XwX<X<XrXFXLXLXLXLXCXbX,X=XsX;XqXZXLXLXLXLXJX;XN.N.N.#XpXSX6XW.qXCXCXvX_.,.N.N.(.",
"#X+X`.*X@X&X@X_.(._._./.N.&.6XmX#X} a c .X@XW.$X<X$X@XwX8X8X8XeXjXmXnXjXpXwXnXMXxXsXvXrX$X@XE.M.h w w a R.6XeX*X(.(._.<.3 W.LXLXLX$XN.<.[ W qXJX(.+.'.|.[.T.T.[.6.U i.'.'.i.L.].[.L.[.L.v.w.u.L.x.x.L.x.x.f.c.s.f.6.G 1.v.x.L.J.i.F N.JXJXN.( [ [ 6.f.x.w.2.6.f.q.D.4XP.D.[.[.D.6.1.1.s.s.u.u.6.j.D.j.7.7.s.v.&.V.2XvXV.g h h ,.j M.M.j d d h l $.l d w 0 w n.$X$Xl d w : a h 0 5 > i g M.C.,.&.&.d w ,.R.M.,.d e e w : : - y k a k u o - u g b M.E.V.V.2XAX>X(.,.R.R.w j ,.N.N.C.M.E.,.&.,.n.h $.Q %.N.$.n.M.OXKXLXSX;X!.R.(.OX",
"<.<.S.<.<.R.} } -.X.-.h.;.X.;.>.<.<.! $.w 7 &.j &.N.-.} ,.N.N.<.<.N.-.&.,.<.(.8XwXpXsXwXsXbXCXLXLXSXvXfXiXwXBXZXJXJXZXZXwXR.E.=X;XqX;XD.Z W ;XLXZX<.M U '.j.1.6.5.v.6.1.1.v.[.u.x.P.[.P.[.L.v.'.v.{.|.~.c.D.[.s.c.~.D.c.s.v.x.L.[.X.l FXLXR.( w.w.6.w.w.4.t.L.x.s.p.p.a.a.6.s.s.D.c.5.s.5.v.6.7.s.p.o.p.s.7.6.X.z oX>Xl 0 A A r 7 r } r A | ;.>.-.-.-.#.! } $.OXnX6X| | s q ^ Q $.,.N.N.&.A A r 9 -.-.r 9 e e r ! ! %.&.h 7 d l j j a w a a w w 0 0 d g E.=Xj & 7 7 r * 7 q 8 q e e q q q ! ` m.m.:.=.m.` :.h a =XvXW.#.+.-.&.-.",
"j.j.v.j.7.7.j.6.1.1.1.6.2.G I 3.+.s.s.j...+. .+. .+./  .F  .+.;.=.W _ / B B A } !.`.3X5X>X&X_.@XwXSXBXXX@XR.z l c h 4 g j 3 : : 7 } -.C < 2 OXKXFXW.8 D j.D.D.Z.s.D.v.c.j.7.~.l.o.o.=.W A / o.+.;.;.k.).~.k.A.*.' >.p.6.s.s.( 8 , & 5 uXDXN./ w.w.1.6.6.4.T w.1.1.h.;.+.o.o.5.( _ W W ' W C  .a.d.>.' ' Z.Z._ / <.W.N.} -.=._ r A } @.@.>.;.+. .h.;.;.;.;.*.s (.;X&.~ / / ~ X.=.>.A.<.<.#.-.-.X.=.=.~ A ! ! ! A ! ! ! N.(.%.,.j s d h } } | &.| -.=.Q i _.eXS.o.../ A C q q , 8 ^ W C ( ( p.' =.' ' p.k.=.>.s d E.;X} I u.Y.j.j.",
"v.v.v.6.6.v.7.u.4.w.v.x.4.u.4.t.3.1.v.v.t.u.I 6.3.6.6.6.6.3.6.6.[ [ 6.6.4.U +. . . .B B P @.s Q h ,.E.4 w 3 & w p p p 0 7 q 0 e 0 0 , X X X V.KXKXoXa q 8 0 0 r s ! ~ _ k.;.*.w 0 # X # X . X X X o X . # = = - # X + + + & : 0 l $XCXKXbXW.! d.Z.a.6.7.+.A A 8 r r Q } &.S.S.S.S.m.C.B.i - i C.F.(.#X).+X3XF.D.D.[ ( ( =.d.p.k.a.a.;.;.p.s.6.;.#.D.k.=.;.>.m.6XrXa %.d.>.X.*.=.=.A.!.(.N.S.A.=.=.' ;.=.^ ^ ;.-.^ | -.N.S.&.<.,.` Q ` ! Q *.>.*.=.F.m.> M.eXZ.S ( [ ( S A W W W _ _ o.p.6.[ ' p.p.p.p.=.=.=.m.M.iXVX<.j.u.'.v.L.",
"Y Y J 2.U I 3.3.7.t.6.F V I U U I T.|.'.i.i.v.T.4.1.w.u.t.4.3.4.i.J.x.v.x.w.v.3.U 4.K V J U 6.Z W Q ` 0 Q ~ a.D.D.D.s.Z.S.>.`.9XjXjXtXrXrX=XuXLXLXaXb l a > i $.N.M.g - - a k v .X1XzXbXCXvXzXuX2X2X$Xv v E.=XxX2X$X-X,X<X%XqXLXLXbXKXAXvX;Xl ` &.X.=.S.).*X6X#XW.l d i > > i h 1 - i f V. Xg i i w 3 h <.N.m.:.! q W ' X.*.X.s.s.s.A o.p.6.f.D.~.d.>.>.Z.A.` <XJXM.j N.-.$.Q %.=.' &.$.h N.N.m.Z.' ' ' :.N.N.` ` ` ` ` n.$.i i d ` :.^ *.A.>.' m.m.m.p M.6XS.( [ ( ( p.s.p.' m.Z.;.=.=.d.=.( =.a.o.o.=.m.` p a ;XkXe ;.r.J.J.J.",
"6.w.D.4X~.+.`.5X).#.-.k.^.`.7X~.+.Y.|.~.j...h.l.X./ F I I A A  .9.0.J.i.L.U U Y K 9.K K K Y J.J.M D.mX' d.4X}.}.P.c.v.[.{.~.#.^.`.tXMXJXLXfX:X1XaXaX;XwXMXJXZXLXZXsXtXW.M.;XwX;XwXwX<X=XaXLXLXCXGXxXwXsXqX@X<XCXGXMXGXLXLXsX;XsXW.4 w a N.OXN.-.! q s N.(.qXqXZXLXLXSXsXtXsXjXeX6XeXMXZXLXLXZX6XeX6X*X8X*X_.(.(.&.&.&.s <.9X`.v.v.}.D.k.Z.s.d.A.S.).S.S.S.=.i <XLX1X3 : 3 w a d ` C.OXn.c y . X p N.&.d h $.n.h p p i i i g > y i h n.&.^ Q s d n.n.i i wXtXm._ k.D.D.=.p.' Q ` n.` h d &.C.N.!././.!.N.m.` - 5 =XvX5 & r D D 4.",
"7 r N.6X#X$.d N.W.W.W.(.*X@X#Xw $ 7 e 0 : $ : h $.-.%.<.#.<.<.<.l.u.J.e.J.J.L.J.J.L.x.x.w.Y 0.'.1.}.VX).F.}.D.Z.Z.Z.o...v.l.#.h.X.} %.N._.R.,.,.R.N.,.N.7XwX8X8X*X_._.N.,.!.!.S.#X#XN.l &._.*X(.R.M.<.N.-.d j ,.M.N.E.XXaXM.- w q s 0 d %.-.>.d.=.=.` ` 0 > 4 .XHXLXsXeXsXjXkXeX7X6X8XwX8X`.*X7XhXkXVXkX8X8X8X*X_.*X8X6X8X*X*X`.!.N.0 w ` %.%.%.d w 3 : q 7 h $XCXJXpX6X;XN.w = i i i y y O O O . - i i 5 a M.c g g g g f c c v g u a a w w h d 4 o o k aXCX@Xw : & 0 e Q $.l g y g g y f f w w 3 : 3 w i 4 - b FXLXv - > + $ % ",
"4 a C.OXl M.E.g l c l c M.E.E.4 = - 5 a c V..XC.l a d h l M.E.S.S.k.J.2.w.J.f.e.f.v.c.6.6.8.8.w.c.l.N.l ` m.S.F.Z.}.4X4X~.v.6./ 1.o.7...A } #.#.#.#.h.a.#.#.@.,.<.#.h.Y.Y.Y.r.7.~.~.S.-.h.!.h.O.h.!.~.~.~.T.<.O.} -.l l wXW.h *.=.;.~ X.>.A.Z.l.s.F.F.m.Q i - - XXiX^.} #.Y.T.j.r.@.-.#.#.Y.r.+.I A #.@.R./.`.`.*X`.*X5X_.`.5X^.N.l M.n.,.Q h N.M.l l ,.5XeXqX=XXXiXVXSXZXjX6X_.@X%X<X<X1XuXFXCX*XC.OXtXfXiXiXfXMXnXnXJXJXGXJXLXFXuX=XE.R.R.E.M.XX<XvX1XQ.1XGXsX3   o l _.@XXXXXrXbXMXHXHX2XW.V.l k g M._.;XrXJXLXFXbXFXwXR.W.l ",
"wX6XsXnXnXLXLXLXJXMXsXtXmXJXJXGXZXJXJXLXJXLXFX2X2XsXsXsXGXJXqX).!.N.Z.p.s.p.6.s.s.p.=.s.s.5.6.s.~ : 5 O y l a n.b.m.m.:.;.j.o./ D 5.1...3.j.j.4.v.v.7.3.7.+.A I +.+.t.v.3.r.3.u.v.7.l.h.r.t.v.T.j.v.T.[.[.T.v.3.6.6.>.n.qX(.^ d.s.s.a.s.a.p.5.5.6.s.D.s.s.p.s l BX8X#.U T Y.'.'.T.u.j.l.h.r.T.v.e.w.3.j.~./.}.`.`.}.7X}.`.`.`.~.#X6XqXsXsXqXW.N.E.R.M.j ! } } ,.l 3 9 A 9 A -.!.!.(.#XpXvXLXAX&X_.#X+XW.R.R.(.8XpX;XW._.&XM.XXvXLXLXLXAX9X6X#XR.@X<XyXQ.b E.vXCX_.4 M._.E.=XNXJXZXmXnXJXFXwX;X;X;XsXZXkXkXkXpX;XV.k OXnXZXnXkXpX",
"z.D.<.&.!.R.R.!.!.S.z.!./.).(.`.`.OXOX$XzXLXrX.X<X;X6X8XwXeXN.$.w i i 0 , , 1 : % w w : 0 r & : = @XLXCXE.V.b a y - O = # , 7 8 M C A P A A A ....7.t.I D G G 1.1.I r.r.3.t.t.v.6.1.o.7.t.I B D I 7.j.3.7.v.u.2.w.6.' N.pX)._ p.s.D.D.s.Z.D.D.D.c.c.x.D.f.6.W s pX*XI T T T y.E '.x.6.7.s.4.i.J.L.L.v.~.~./.}.`.`.`.`.`.!.!./.).D.S.<.!.S.,.h w w 7 r h.7...A `.9X! D I D I B I t...+.S.<.LXpXe X.;.=.D.z.r.Y./.<.A 8 8 } s d = f uX@X3 9 -.A.-.&.a 4 3 j d i a l l a a > a uXfX!.;.#.#.o.~ -.>.>.k.=.h.h.5.;.#.| | A X.l.#.!.D.",
"v.x.j.7.A P A I +.j.~.[.}.~.v.+.S W s > $XLXrXi &.N.! r } N.M.M.n.$XjXsXwXwXtX;XsXsXwX;XsXZXqX;X@X=XHXFXdXbXCXCXbXzX,XXXXX$X@XS.*.>.N.,.&.e : & 7 r 6.j.v.v.c.v.6.1.j.7.7.j.c.D.D.l.d.;.+.+.h.l.h.z.!.l.h.j.j.s.s.s.=.(.eXN.W p.d.d.Z.s.Z.Z.D.l.a.5.5.s.6.' ' $.sX*XP t.u.i.v.'.v.6.( _ =.7.w.e.0.Y 3.F +.`.5X/.`.`.`.5X}.`.*X`.S.a.+.s.a.+.| ^ ` + @ c.].L.s.gXVXD.8.0.U 0.0.H Y Y i.v.o.jXhXh.D x.P.f.G D t.v.4.U 1.u.7.l.d.W l HXsX} A ( a.=.:.-.<.&.-.-.&.h h d i 1 > c LXVXk.D U U i.9.2.w.6.6.w.1.w.2.[ s.u.6.4.t.t.v.v.x.",
"w.9.e.J.x.f.6.w.u.t.u.U 4.w.6.f.x.K.f.2 $XLXrX0 =.o.=.*./.pXZXsXsXrX2XdXJXLXvXAXLXLXCXAXJXLXnXiXvXuXaXCXLXJXLXLXLXLXCXaXHXLXLXpX@X6X;XOX;XwX.Xl M.(.l.!.~.D.h.a.k.k.k.;.*.X.X.d.A.:.` %.| -.<.-.&.&.s Q Q Q ! r s Q p C.sXN.m.>.>.>.*._ =.' *._ ~ _ ^ r W p - g GXaX7 , 8 A D.}.D.Z.S.S.).A.7.[ U V B 6 e R.(.R.(.*X*X*X`._.&X_.l.5.s.p...I l.d.=.2 < w.K.H.U 1.1.H Y J.J.Y Y Y Y L L 8.j.eXgX5.2.g.L.J.w.u.u.t.9.J.i.u.6.j.d.W n.LXnX$.-.p.d.=.=.A.A.<.>.m.N.N.N.,.,.w : l LXVX6.Y 0.0.0.Y J J J 8.J.2.U 2.6.5.1.J 4.w.0.w.f.w.",
"L.v.0.e.L.J.e.L.x.2.2.2.2.9.9.9.f.e.f.W qXLXsXs o.S ( =.Y.}._.*X8XC.l M.W.M.a k M.E.E.z g M.W.M.z R.@X@X_._.(.XXQ.E.M.W.,XCXbXb g b n.&.l h g u a 0 q 7 & + + $ $ # + + + X . . . X i h 0 : , 1 : - : : : = = = > = . .XJX$Xn.w h h 1 % : 0 d Q h d a > h h O O cXHX$XOXl = : 0 s s h n.l d } | } P } R.W.Q.W._.&X&X_.@X_.XX>XrX!.7.o.X. . .| ^ :.:.=.[ e.J.i.9.K 8.Y U Y T T T 0.H.H Z +.5X`.S 6.w.v.x.v.D.j.t.'.x.6.6.v.v.A.` C.LXsX$.N.-.>.A.A.N.A.A.A.).S.N.S.N.-.$.p i GXjX+.t.0.8.0.8.8.w.L.L.L.u.4.6.v.s.1.1.w.u.J.e.e.w.",
"'.'.u.w.v.6.1.s.s.p.p.s.6.9.u.v.6.8.J , d GXsX! o.F ( d.l.l.-.! A.S.} &.,.s ,.h 0 : # d N.N.N.<.<.$.#.| r q e -.$.h d : - =XtXl g d h } N.n.n.M.-.<.N.&.N._.#X6X;X*X@X$X*X$X;X%X<X2XNXLXbXqX+XF.M.#XkXVXSXVXsXpXnXmXkXZXLXLXJXnXMXGXCXvXxXaXbXCXaXuXzXzXNXCXvXaXbXLXLXLXFX=Xc g N.;X-X-X.XM.M.l a 4 3 w a 5 - o O 4 u k 5 - y $.~ | ! #.j &.l $.g a = % % A A t.~.~.j.T.v.T.v.T.u.J.J S r N.!.X.o.c.~.v.l.D.k. .o.j.~.~.l.<.F.$.O u E.l h -.,.,.,.,.` ` Q ` -.m.S.S.N.N.h u CX;X} ( 6.6.[ { 6.6.s.6.[ ..v.T.7.7.7.j.j.v.v.'.{.[.",
"8 A q q ~  . .^ =.=.m.m.k.j.l.~.~.a.o.& OXLXtXd <.*.^ ! a.6.t.s.Z.l._ r r *.:.r ^ ;.X.>.;.;.l.k.z.h.k.+.o.-.h.D.D.D.Z.=.W.nX6X^ %.=.+.-.z.S.(.S.*X8XjXjXqXeXkXjXpXpX;XwXsXjXZXZXLXLXLXKXNXOXm.F.).3X(.#XpX8X8XeXjXkXjX8X_.W.@X;X<XwXtXmXJXvXvXLXCXaXnXCXvXsXaX;X&XwXfXnXCXJXmXmXeXtXHXLXLXLXZXkXkXgX9X*X_.sXSXnXeXpXjXjX6X*X(.(.e 3 & = = o O > O y k y M.4 } e , 7 q 7 7 7 8 9 9 B 5.^ w $XW.# , , X.<.&.} &.s Q >.N.&.@.} w h k -X,Xy 4 l M.M.n.$.h p 0 $.&.d Q Q &.m.a v FXaX= . % 0 q _ a.;.X.^ Q A 8 8 ! ! r r 9 A A B o.F ",
": : - > w w 0 0 4 > > > 3 % + # : : . o CXLXxX4 i h C.OX#Xl.l.7.=.;.d.Z.F.).<.N.<.z.!.z.j.h.h.z.#.<.!.k.<.;.S.D.l.D.Z.A._.ZXpXl.1.s.5.7.l.l.k.~.<.k.X.C C C A -.-.| } } | -.!.(.(.<XKXLXLX%X% < C A C A X.A 8 8 8 7 8 } } } ! ! s s } -.&.s } <.&.j &.,.s s &.<.} r P e s !.N.>.s > ,XLXHX(.<./.}.}.~.#.} #.~.).~.!.~.).}./.!.<.8XfXsXwX;X;XqX<XwXMXLXLXLXGXVXpX*X6XpXkXkXjX7X`.<.*.A : N.LXnXN.h 7 q : = = w g 0 : w ,.j 4 w %XLXLXLX$Xg l M.d w l _.%Xd = 4 d h p : - - aXLXLXOX&.l j $.h e q w w 5 4 4 3 = : 5 - # 3 - $ : : ",
"xXzXzXbXzX2XaXrXwX;XwX=XV.C.W.V.%XnX<X.XFXLXFX<X<XrX<X<X).!.N.<.S.!.S.>.S.S.N.R.N.l.l.l.~.D.k.k.<.<.A.d.A.d.Z.>.d.!.(.-.g tX6X*.o.D.d.o.l.~.D.j.v.v.6.J [ w.f.6.Z S ( / F F 7.D.*.h rXLXLX6Xq G [ w.[ [ 6.6.3.U j.v.6.3...j.5.7.+.7.7./ B ..F B B 8 8 M B B F F B M B B M 8 8 * * : =XLXsXA D 3.1.I G D U D I U 4.6.D < C A A r !.`.(.).(.7XpX7X#X`.#X#X_.;X*X;X6X*X6XtXqX6X6X6X5X3X).S.5XpXjXmXmXVXVXnXCXZXZXMXjX#XeXkXgX*XpXZXnXbXLXLXmXwX_.(.6XpXkXSXBXfXBXkXjXkXpX5X*XiX1XHXLXLXAXsXiX_.R.R.&XiXuXzXbXaX$XrXvXaX2XMXZXnXrXwX",
"rX,XzXKXHXbXvXsXsXsXkXpXtXMXZXnXLXLXxX<X<X<X<X$XsXMXrXN.N.M.N.W.N.,.N.&.N.W.W.W.`.4X}.}.).).).S.S.!.S.m.F.F.S.N.N.(.&.i $XJX@Xh S.-.S.S.3X7X`.~.v.v.x.u.8.L 8.e.J H 2.2.K K K V < : .XLXLXOX( w.U w.w.f.x.9.9.9.8.w.2.1.4.w.G G 3.2.1.w.x.w.9.w.u.U 2.9.2.2.e.e.i.J.0.e.w.J 1.I o.e rXLX8XF J U U Y J.J.0.U 0.0.0.J.J.e.i.u.4.w./ q q q A F / / / A 8 9 A ! $.&.N.#.-.%.%.$.| } e ! ~ ! ^ | Q Q %.-.%.V.bXJXqX6X3X}.}.`.}./././.&.j <./././.`.`.`.~.`.5X*X8X*X^./.5X9X7X5X_.d ,.#X5X9X8X*X*X6X5X8X1XuXNXHXrX2XrXxXCXCXxXxXsXwXwX",
"i > V.rXsXpXN.R./.5X9X9X8XVXZXmXVXZX3X`.#X&.$.s N.@XN.N.M.M.M.M.n.M.M.g a k b M.,.! ^ -.` d h $.l d 0 1 $.m.` a 4 o O v HXLX.X- a h d &.(.(.R.N.D.D.f.L.x.e.w.6.[ [ w.L H K K H n W C.HXLX%X~ 6.2.v.v.v.v.w.9.w.f.L.x.6.f.L.[.[.{.{.[.w.w.i.u.2.w.9.e.e.w.x.i.e.J.L.K.J.J.w.4.4.B 7 aXLX*XF K U 0.0.Y 0.E Y K.H.L Y H.K.L.v.v.e.2.( [ 6.( M M G v.I B G j.v.h.X.+.a.s._ ( o... .A A A o.5.7./ / / C r g ,XaXj 9 F v.T.T.u.I P I I I P B B U u.T.v.3.r.I 6 6 9 B B P Y.T.T.[.~.r.t.T./.Y.r.Y./.`._.Q.&XxX=XV.&.h d h &.e 0 j s d ",
"~ q N.@X<.z.P A F ..I I +.#.} } -.h.a.F 1.M 8 A  .<.%.(._.W.$XXXwXGXCXvXaX&X@X;X(.d w n.OXrXxXMXCXkXtXwXqX;XwXeXZXGXGXCXbXLXLXZXwXmXsXeX;X*X*XW.S.;.6.o./ o.( A 9 C 5.e.w.w.U e.J >.#XaXLXwXq h.h.z.#.+.+.j.c.a.[ c.}.4X}.}.}.}.}.4X7X[.v.x.v.v.{.{.[.[.v.f.f.x.v.x.9.w.w.w.2.v.1.r aXLXeXG Y 0.J.J.8.Y Y Y K.K.J.J.L.L.L.v.L.J.J.1.6.e.s.[ [ 5.[ ( 1.1.6.w.( 6.L.x.6.w.f.f.w.w.a.j.v.f.[ K K 6.6.6.~ > v @Xe B J U 0.U 0.Y 0.Y J.'.9.J H L Y 0.y.Y U K L Y H.J.0.J.J.0.i.J.x.'.].'.Y 0.J.J.i.U 9 $.wXmX,.q | 8 F ..F I 3.+.r.;.",
"5.o.#X#XA I t.u.U 2.J K I D V D 8 M 2.2.U G I U 3.a.o.D.6XeXpX$X;XtX;XsXSXSXBXSXZXnXnXCXLXLXNX=XCXLXkXsXpX8XmXSXnXZXMX=XE.XXtX*XW.%X6X;X(.6X8X;XZ.$.S.N.!.S.N._.R.N.Z.6.6.5.6.w.c.d.&.$XLXrX= e <.!.S.S.S.3X(.^ Q W m.(.F.N.S.S.<.-.>.d.Z.D.}.).}.D.}.4XD.Z.l.D.D.l.h.c.c.s.j.[.[.-.=XLX8XM 9.L.0.H.J.e.0.0.J.J.0.v.v.L.L.v.L.'.v.w.K K 5.5.6.6.( D [ [ w.2.2.e.J.e.J.e.e.0.0.0.v.6.U 8.8.E L K 8.w.2 - $XnX!.n K 8.Y U Y L H H Y 0.9.0.Y H.E Y Y Y Y 0.0.E E E E E E E K.H.J.J.K.].K.J.J.K.J.0.3.z.#X#X^ A 5.f.3.4.9.u.t.i.v.6.",
"6.( S.7X;.1.U J V K L H.i.1.I F B D J D [ s.w.6.a.a.( o.-.!.).,.d 0 : w N.(.R.(.N.E.XXzXDXoXu 3 - w 7 3 w $.N.<.s 0 0 : 3 0 0 0 d s $.} @.#.} } d.;XnXLXJX;X@X<X@X.XC.Z./ 8 q M < % # W.DXzXb g d d 0 7 , 0 > i h i - g V.h > 5 w w d p q 7 Q ` Q 7 q s s Q -.A.S.S.~.).D.D.~.D.D.<.=XLXjXB 9.L.i.0.x.x.x.v.'.'.'.t.I 5.c.v.u.v.w.0.J.i.i.0.J.0.x.L.L.9.9.U Y 8.U U 9.0.t.Y 9.9.[ [ 6.x.w.Y Y Y U H 2 OXLXLX*XD H Y J.0.Y E E L.].t.0.J.L.K.L.K U Y 9.u.J.0.Y J.J.J.J.T 0.J.T Y Y J.L.L.L.J.].E V ;.;X(.: ( f.e.v.x.e.w.t.u.w.f.",
"a.s C.mX-./ G 6.5.1.G w.c._ / C A s.c.( W W ( o.p.p.=.+.7.o.;.-.} A r q , * 7 7 % X . XXLXGXd & r A B 8 A P A 8 C / X.>.;.A z.-.A ~ *.;.l.D.+.X.7.l Q.2X=Xk k b c c g } -.k.S.D.;.^ } W.@X8XpX;X`.Z.d._ C ! N.eXJXHXHXFXvX<XW.;XvX1XrXnXMXsXwX;XwXrXrXwXwX=X=X$X6X(.R.S.S.S.S.!.} d 8XBXqX! < 8 8 7 : 7 8 8 * 8 B h.#.>.*.A  .o.( 5.o.X.#.j.u.x.c.~.D.l.l.o.5.s.( A o.F S A S ( a.a.o.X./ F ..o./ W p HXLXLX&XA 7.4.V t.v.0.'.{.[.v.6.4.U 1.v.u.v.v.T.~.~.v.I 4.u.u.t.t.u.u.u.u.v.t.u.w.J.].].y.M | nXZXl Q _ 5.s.s.x.D.l.j.l.D.",
"d > i <Xm.Q X.! r 0 , 8 : , p q p r W s p 1 # # , 1 A o.5.( B F ..F A 8 M M X.r & + = <XLXZXA A [ J J V J J J N V 1.G S 1.G 8 * * M ( S C M 1.7.I 7 ,.vXXXg h h Q $.N.<.D.[.~.~.k.#.-.} A A P h.v.5.5.1.[ 6.-.R.CXLXLXLXvX<XW.=X1X&X<XfXBXZXvX=XnXLXLXHXLXLXLXfXpX9X#X`.3X/./.).!.N.`.`.(.!.;.l.7XsXBXpX9X}.+.~.z.<.-.` d 0 7 7 , , = - a Q X.! 1 7 0 0 p &.d p p d d ^ Q Q d 0 , , : # # : : - ; # . c NXLX1X3 % % & 7 e } A | N.<.z.z.h.-.#.#.!.#.-.h.h.r.r.r.Y.t.r.I t.+.r. .P A D v.[.|.T.I 7 d CXLX.Xw Q ! _ _ W 7 $ . + q ",
"o - $XMX$Xd s &.,.j a w y g 4 > h h i > > y 4 y c a q ;.a.s.6.o.1...G B 6.a./ r r q > <XLXsXs C { [ J [ 2.K 8.8.J.2.2.J V V m < M C D C Z 1.v.+.D 8 } sX@Xh &.N.h.;.S.S.L.w.2.t.t.7.7.r...( 5.a.7.3.6.t.t.x.v.} XXbX2X@X&.s $.R.M.$.&.} w a a w w j l l W.aXsXR. ...+.7.j.s.c.c.7.+.a./ A 7.v.~.5X6X1XAXwX*X0X4X`.!./.N.&.N.(.d q N..X.X5     0 OX(.n.m.N.n.m.$.$.&.$.Q 0 > y y C.W.@X%X#XM.C..Xc > . O -XNXaXW.V.M.u 5 v n.3 i M.W.M.w s ,.R.h w e w r q r } 9 8 7 7 * * , q ! 8X`.8 8 I I 6 7 r M.bXLX,Xa a : # . . = l W.j # ",
";XwX1XzXaXiXfXnXfXvXZXLXLXLX1XXX=X=XaXGXHXLXLXLXLXHXrXE.d N.m.5.s.5.../ A C A Q ^ 1 - xXLXHXd , ( C C < < D 2.D w.6.w.x.v.3...G ( A 8 < q A ;.<.~ +.-.8X`.#.!.!.Y.l.!.D.L.K.L.9.9.i.i.u.x.w.w.6.J U u.T.i.0.8.A ;XLX;Xe ~ ..F A W A , < 9 9 A A } +.k.! : v W.A 4.U e.f.x.L.[.[.L.'.w.u.i.'.L.4.a.w O 1X=Xe l.[.}.0X0XgX9X9X#XS.Z.m.V.CXxXo . S.mXjX7X3X).S.).#X#X).#XeX6XtXCXJXGXMXGXJXJXZXmXmXnXwX6X%XwXwXkXLXLXLXLXKXHXFXMXxXrXsXtX#X@X;X6X_.;XeXqXtX#XeXZXkXgXgXhXkXhXgX7XjXLXLX9X`.!.^.!.<.N.W.rX1XCXLXZX@XM.W.<XCXLXJXiX#X",
"N.h E.NXiX_.`.*X>X;X:XvXCXcXbXCXZXiXrXJXLXLXLXFXNXdX<X%Xn.$.` ( 5.6.p.=.h q s s 1 = W.LXLXLXW.# , + + # % , ~ X.;.k.k.d.k.<.<.-.^ 7 & # # # # > 1 r } kX7X<./.!.~.~.~.!.v.i.e.H.J.J.T 0.J.J.H.K.J.Y 0.J.K.J.H./ #XLXqXB S J U 2.6.6.6.w.v.v.[.v.v.[.v.-.N.MXeXG Y J.P.].].J.J.L.L.].K.|.|.|.'.'.+.$.2XLX<Xd h.G 1.G 4.r.Y.r.A J [ ( m.CXZXQ B ..( a.7.a.5.o.F ..o...+.} j l BXLXsX.XN.N.N.}.`.S.N.S.' Q ^ X.A.R.W.c oXDXDXzX<X@Xn.&.M.E.R.N.,.,.(.*X#X4X+X).7X7X7X7X7XgX0X0X9X9X5X9X8X6X*X5X9X5X#X#X@XE.@XkXZXmXnXJXLXLXuXE._.+X",
"2 q &.N.<.<.#.@.} d l l l M.@X#X`.<.d ,.N.l R.R.l a &.N.N.*.^ p.=._ ' p 5 4 i l &.i v 2XcXFX2X- - l M.W.@XM.4 h s e e w : 0 w 0 h l b k a i f f i a @XnXwXM.(.`.(.R.(.@Xk.w.i.0.E Y Y Y 0.H.J.J.K.K.J.J.J.H.8.o.W.MX+XC 6.e.8.[ [ 6.w.w.1.D D 1.U 4.w.o.N.ZXeXD K Y J.P.].L.L.L.L.].].].].].].'.a.e vXLXrX7 s.D D J 4.u.i.t.w.K Y D >.MXeX8 D 4.w.2.1.6.6.2.w.4.3.3.I I 9 & z b 3 : 7 q 8 D U B F 5.[ ( ( ( 5.q ,   - DXHX.X3 q 0 0 s ! r ~ o.+.X.~ ~ a.=.=._ / +.+.A I 3.3.t.r.r.l.!.#.} 8 Y.!.l.~.#.e s S.3X`.,.,.E.b : 0 q q ",
"W W o.A ....I G [ 5.W W p & ^ o.M F ..l.`.-.;.l.+.| N.N.A.Z.<.N.N.,.d l -X,X=X_.&.a v 1XHXHXHXCXCXLXLXLXJXGX1XrXwXnXsXsX=XMXLXHXGXLXLXLXLXLXLXGXZXGXLX1X$Xb b z z 4 a y s A 1.t.u.y.t.y.J.y.Y Y 0.L.L.J.L.8.J q ;XLXsXA A [ 5.f.6.[ f.f.6.F * 1.v.v.c.k.M.MXjXM J e.L.{.'.L.[.[.x.'.].L.J.e.0.u.h.s <XLXrX# C L.w.9.J.J.J.J.0.J.'.D ` GXmX! G 2.6.w.2.2.6.u.v.1.1.3.3.G C ! l XX! q A I 4.Y U 1.6.1.w.w.9.2.8.J Z X > LXLX;X9 O.A ~ ;.h.I 1.2.u.u.4.6.U [ v.f.[ [ 6.U 4.U U t.t.U 1.J 1.1.F +.I D I B B C 8 8 A r &.N.s ( _ W C ",
"[ q.[ [ e.U 9.Y 8.w.q.6._ ;.v.6.K J i.u.[.v.6.6.4.a.p.Z.D.D.D.<.W.;X;XwXrXrX6X6XeXkXiX&X,X$X2XGXLXBXaXXXE.1XrX;X=XW.@X;XrXaXMXGXHXHXLXLXLXLXLXmXeXsX8XsXvXdXaX=XuXvXdX.X-.Q ^ +.P D +.I 7.j.r...F A C A / C % 0 aXLXxXa d m.*.>.S.Z.Z.Z.Z.>.C =.d._ *.d $XLXnXr 7.v.6.c.v.v.v.~.c.v.[.[.[.{.[.v.l.q $XLXGXO + >.O.+.K K K Y Y '.L.5.:.MXsX1 C 6.s.6.J D J 1...S B B F [ ( s n.=XX.B D K Y 0.2.2.w.6.4.9.Y 9.0.L [ * p FXLX_.8 v.u.( 1.4.2.i.8.9.0.0.0.Y 9.9.e.L.x.J.9.0.Y T Y Y U Y H K J [ 3.u.6.6.U U 6.5.( ( ( S.9Xq M n < Z ",
"f.e.8.Y Y K Y 0.J.8.[ [ A -.7.v.x.V V U 9.0.u.e.f.f.f.f.v.c.7.a.,.R.N.<.N.N.&.&.<.<.N.d b l g M.M.l l &.l ,.l 4 a w w w g a i 4 i n.oXFXFXXXN.@.| #.<.M.%XsXsXpX>XwXsX6X6X5X/.N.<.@.@.w 1 # + : : - a l w 3 &.iXLXLXzXE.V.C.M.l N.N.n.N.(.+XF.F.F.+XOX@XFXLXaXj ! , % % + $ % , * * , 8 C A S G / q tXLXKXzXl j R.(.{.].L.i.9.J.e.5.N.mXjXr C [ a.J V J H V J M n C 8 C C 2 m.6X| 8 1.8.8.e.8.J.K.K.8.8.8.x.i.Y 8.Z Q ZXLX`.V K H H H L Y K.K.H.Y Y T 0.Y Y Y L.J.0.0.Y Y U U Y U Y Y H J F ..1.6.7.a.a.s.s.s.v.>.N.qXp + * [ f.",
"D.Z.f.e.8.2.w.e.e.6.D Z , A / ( [ J V 2.w.w.x.L.D.l.s.6.5.1.G V U 3.r.F D F  .B 8 8 8 , & = = = 7 A +.T.~.z.s 0 d d e e e : : : : 0 g rX;Xj z. .+.j.}.z.h } _.8XR.@.<.A.S.-.<.#X6X8X8XeXtX<XrXMXCXHXLXLXJXaXOX1XNXuX2XbXLXLXLXLXJXZXnXsXtXtXtXjXmXLXLXLXaX,XxX@X<.0 e w X + w N.%.s 7 : & # + + & $ W.-X1XLXnX@X@X#X4X}.}.[.}.{.5., a 1X;Xi ` _ ;.X.X.~ A X.( [ ( _ W Q 2 % h nX_.: ^ ( 6.t...B D D [ { w.G ..u.f.( ,.ZXZXN.F U J J J e.x.f.P.[.'.t.u.u.w.w.w.2.e.x.w.w.2.J 2.w.2.i.L.w.[ C M < B a.D.v.v.v.j.v.X.W.GXn.+ _ ~.D.",
"h &.=.5.( a.s.s.s.s.D.Z.` 3XhX' C f.( ( 5.s.j.6.s.a.6.J G 1.D M V 0.L.i.0.0.L.4.D 1.7.( W q 0 q A M V V M M A / X.A A A ~ A C q 0 , : M.j . @ < D r.T.!.S.<.-.S.>.<.;.a.l.t.<.N.N.!._.(.+XwXbXLXLXLXLXLXBXrX+X(.,.d d h OXvXGXJXLXHXCXsXW.,.M.W.W.@X%XC.h a h ,.M.W.aXxXOXW.W.qXeX8XiXsX=X%X@X_.*X_.@XXX$X#XM.a # X o X . . .   . - E.HX2X5 > 0 3 3 w w : 3 ! *.A.S.m.h ` 0 5 =X2Xg - i q 0 r 7 7 7 , , , % r -.8 + d JXBXl , 8 ~ | r ~ <.k.*.! -.@.} o.=.>.=._ a.a.d.d._ _ =.a.a.l.s.s.D.d.l.a.d.>.;.a.t.7.7.v.| @XLX.X# m.+X` ",
"= o # , q q q 7 q s ` N.n.qXmXs q W 2 2 p e ! -.<.;...V D V V D M 8.Y U 0.Y Y Y U w.x.2.f.s.s.( G J J K H J J D D M D S F ..B M S A 7 &.N.8 n Z V [ d.A.D.A._ =.Z.d.h.a.j.v.s.a.h.<.l.j.1.&._.>X6X#X(.(.(.(.N.*.-.-.-.S.N.h 3 3 4 5 4 z ,.z a a a w w 0 j $.N.@XW.E.W.Q..XW.N.,.,.,.;XtXN.N.(.(.N.N.<.d w w 0 i d M.XX=X.XV.V.c E.2XLXLXzX=XwXrX$X$X=X=X@XV.h d d d h = - - 5 v KXLXxXwX;X>XiX*XW.@X.Xc M.#XsXwXM.0 M.LXSXj & 0 4 : 5 - X 5 y 4 > i i 0 - - 4 > - > 0 > > 1 p p 0 w 7 , 1 e | ! } h q 7 * 7 9 A 7 R.HXHX=Xc h i ",
"FXrX=XrXaXaXsXsXsX;XW..XsXLXsX4 = - - y g n.n.,.-.*.-.X._ C ~ _ =...v.[.v.t.t.J.0.w.w.4.4.J 1.U U U t.9.4.U V J U U 8.U U J U J V G #.MXjXA i.x.J D h.D.D.D.k.d.D.s.a.7.6.c.c.D.Z.d.~.D.D.Z. .A A A ;.o.a.a./ _ A B F / A a.-.A A w $.R.R.!.<.,.#.} @.#.} } (.*X&X@X@XXX@X_.S.<.z.<.*X;X,.%.N.<.| z.!.<.Q S.(.qXjXmXvXrX=X2XaX1XdXbXNX1XE.rXZXJXLXLXLXLXLXLXVXnXqX#X;XqX;XrXvX1XCXbXMXZXZXfXpX;XV.2XFXFXLXLXLXLXZXmX1X1XBXsX#X;X<XGXLXaX;X$X2XrXFXLXlX-X,X2X2X$XXX=X,X1XvXxX<XOX;X<X;X;X@X,.l ,._.wXBXkXpXeXeX6X,.W.CXLXLXwX$XzX",
"rXHXLX1XXX=X1XaXdXvXCXvXLXLXAX;X@XnXLXJXJXLXkX*X7 : > 3 w : : 0 r 8 X.;.X.o.h.7.1.w.v.t.7...a.s...6.r.D G I 1.t.t.w.2.U I I t.t.j.j./.GXnX~ u.v.1.( a.d.S.A.>.>.A.k.Z.D.~.D.D.S.S.S.A.>.S.).>.D V 1.D q M M D J V D V n M 4.6.2.G ;.*X^.Y.!.Y.Y.Y.Y.z.h.z.#.(.*X@X@X=XXX;X(.-.X.k.<.R.,.} :.*.>.X.k.D.D.}.D.!././.<.j a d N.W.M.N.&.j e e e 9 } -.| <.<.<._._.R.R.N.N.(.(.W.l l M.d w r s 0 , > o .XcX2XOXM.b b b M.M.z z N.N.W.;XvXbX<X<XaXAXJXLXLXHXHXDXHXLXLXLXJXLXLXLXLXCXbXvXvXnXZXLXLXSXvXaX:XiXfXMXmXaXvXwX,.l M.W.;X<X<X",
"4 =XLXuXk 5 k z I.b M.b E.W.E.W.W.W.@XeX*X(.N.S.#XtX;X<XwX2X$XM.j -.*.~ A 8 8 ~ ! r r r q r 0 q r ! r 8 q 7 8 e r ~ / *.;. ./  .7. .!.MXsX| +.M M  .r p h w w d d w 0 : 1 p p p d h h d 0 h h % * 8 r 7 & < C H K K K Y K H H 8.6.=.,.,.R.z.z.Y.z.#.<.N.<.,.(.&X@X*X>X;XwX#X!.!.z.<.N.d ,.N.=.d.k.D.D.h.D.D.l.h.7.+.+.;.o.A q A A A  .+.I I I I D V B A A O.#.Y.!.!.k.k.&.<.$.e ~ S S C M A A 2 > MXLXrXd , 0 3 7 , & , 7 8 q r e : 3 d $.&.l ` i u I.2XaXvXsXwX_._.&XW.M.a l _._.W.M.M._.sXvXM.E.b w w i 4 - > 0 0 : 3 7 e Q d ",
", a rXrXl w d e 3 : e s 7 0 q r ! 7 , 6 B  .+.D.ZXSXJXJXJXLXLXZXnXsX0X7X4X|.7X`.C.N.M.N.h h (.+XOXOX_.N.#X(.M.j l $.Q $.} q ! & + X h nXtXr 8 A 9 s h y c XX$X.X%XOX<X%XV.> g a a l ,.k u a E.(.s , w h 0 1 i Y 8.x.L.L.J.i.U J ' @ i h &.#.z.S.z.<.N.N.$.h M.Q.E.W._._.@XN.} -.<.R.M.l h m.N.S.S.S.A.*.A.N.S.A.v.G D V 2.[ M M D J J 1.8.9.4.4.6.e.9.4.3.3.t.T.u.u.U 2.7.#. ./ < Z S 5.7.I 6.( w vXCXN.d.( 1.7.l.a.Z S 3.1.J D M A B B F M 8 < & g LXAXW.-.W S A X.-.~ ~ ~ ~ A A -.| ~ Q j M.w w 7 & r %.%.%.Q d s ! A I I A s ",
"/ } +XOXp W C , 8 ~ o.( A W A A ..F ( ( G A A } 9 } A } #.} <.(.R.N.v.t.+.j.v.D.`.6XwXqXC.n.$XqX$XW.@X6XmXLXLXLXLXjX6X#XR.N.!.<.} 7 $._.(.s * D.7X%X%X<XzXbXvX,X2XvXJXLXKXJXMXvXpX8X8XLXLXtXwXkXkXqX(.W.OX%X+XL.[.{.{.[.w.6.4.f.q m.MX%X4 j ,.d s l h i y y k k a 5 4 4 a j w : 0 i a W.a i > h $.h $.$.n.(.N.8 B N N J [ [ w.2.8.K H D K J ..[ 6.{ e.w.D ..U Y U 0.Y Y J I G N J [ ( f.6.4.8.( 7 iXqXq n n H H V Z Z J J Y Y Y J U U V H U V J C N.ZXR.& M N K 9.2.K 8.K 2.J N J U w.D C ! N.q ^ d.D.~.D.D.s.D.).S.D.c.u.'.[.D.",
"5.! OXOXp W C % % A ..6.6.6.F D G 1.J G D Z C C A D N B B B  .} <.!.t.3.6.G F  .A } a h g h l M.l y a h N.$XvXLXLXW.&.,.,.&.N.S.N.N.$.i 1 q ! | `.`.`.#X8XsXsXwXwX;X$X@X<XbXsX#X(.!.^.9X9X(.$.M./.).`.7X`.>.j.v.a.8 * % * 8 8 8 s E.MXLXLXLXtX=XsXsXrXaXaX,XuXuXQ.;XBXfXsXiX@X.X@X.X$XHXMX<XC.M.M.l w e &.eX#X, * N J [ [ Z f.f.K.H.8.H N H 2.2.w.Y K J J U N H H H Y L K K U L L H N J J 9.H.D * *XkXA.M e.Y e.H H H H H L H H L H L E L J.].H n <.mXR., 6.8.H.H.Y L Y Y 9.K Y Y U J.L.Z D.ZXS.d.4X}.{.D.s.c.D.}.}.j.2.e.J.L.c.",
"C %.GXFXi 7 q q _ ( / ( C C F ( S S [ ( / C 2 C ' a.2.w.w.w.x.x.H.e.9.6.6.J 1.3.D } $.N.,.N.N.h i 1 0 r 0 X - rX=Xi Q s Q q Q %.Q -.Q s s ` 7.t.j.a.o.#.!./././.#.r 7 q $.aXmX!.~.|.{.v.D.}.S.%.k.{.T.~.~.v.j.!.D.S.`.6X#X).| &.8XXXb XXuXaXrX2XxXnXBXAXLXLXLXLXJXBXnX8X*X&XrXGXGXrXXX$XzXrXxXxXMXMX8X&.R.kX(.! ( Z Z [ s.D.N.q n n N J H V V J f.U M * * m M J 2.J 2.9.J.J.2.J K K K K K U K [ S *XjX&.A [ H [ w.8.H H H K 8.H.H.H.Y 8.L Y Y [ C (.LXsXS.D.w.9.Y J.J.J.J.'.L.i.e.Y 0.L.6.~.hX).A.F.c.Z.Z.D.a.a.T.t.u.L.K.f.f.6.",
"* h LXLXc a p s Z.Q W p.( W C _ =.=.=.C 2 :.).F.S.( 6.x.L.L.L.J.H.J.i.i.x.w.u.1.( %.%.>.>.A.z.-.*.-.=.S r : 4 @Xd q =.o.D.=.X.>.^ *.k.v.u.u.i.v.v.v.t...A B I +.r.+.h.+.r sXpXA J H N N S [ p.A._ X.1.+.j.+.r. .h.k.).S.*.<.k.;.#.@.$.&.e } &.,.,.#.#.P #.R._.AXZXN.} } z.#.<./.!.N.` > h $.&.,.M.R.4 . E.BXM.# & + , 1 - - O o + r -.A ~ o.A / / A ~ X.~ S W o.a.=.a.a.o...a.h.( 7...B D +.( ( e Q.;Xj : q ( _ / / F C o.5.5.f.[ 6.1.[ J 5.' W 1 rXLXqX:.p.f.[ w.f.e.w.w.v.f.6.s.6.w.f.D.;.$.a h N.F.F.Z.).4X3X[.F M D [ ( p.' ",
". > zX1XO . O - 0 i p 2 : 1 1 : 1 : : - = y h i l Q / v.J.L.L.x.u.u.v.x.v.w.2.( ( ( o.a.a.l.a.+.;.d.d.w.p.7 a ;X,., C S o.o.a.d.a.l.P.L.L.L.J.J.T.t...j.5.( C M N S p.=., Q.9XA N K { [ ( o.z.A.:./ 2.u.v.T.T.T.[.[.{.D.l.v.v.t.1...h.l.h.j.j.j.+.+.+.D G M e wXeX} 7.T.l.h.h.T.h.-.;.X.^ 7 9 <.-.r u x 2X1XE.M._.b M.c v oX-X-Xi - = o = 3 7 0 : - > 4 = - : # X . . . . . . X + # # # : % , % o b BXBX&.- # o # & : + o # X # # + X + + + X . t LXLX.X# : C / o.( o.=.o._ ( _ =.( ( ( q : l u 4 a > i p h p d s 0 , & & % + # ",
"<X,XbXcX,XrX<X%X.XC.C..XOX$X<XV.n.C.W.V.E.v oX$X.Xh 7 a.f.f.f.f.x.c.l.v.c.l...( 6.q.{ [ ( p.( W ' p.( [ C % h CX$X: 7 8 =.a.s.6.5.l.v.v.Y 0.x.i.'.u.U s.v.v.j.1.8.x.D.D.! $XZX;.Z { 6.5.j.h.#.>.^ / 2.J.L.'.'.|.[.'.'.[.[.].'.J.9.8.9.4.U w.2.6.w.u.9.8.8.G } pX9X+.U u.v.j.v.~.j.r.r.r.r.+.X.D.7XVXLXLXxXu c LXLXLXZXHXLXLXLXLXLXvXrX1XwXsXfXfXfXLXHXvXxXxX<X;X;XOXE.c c k g n.$X;X$X$X;X;X+X%XrXGXHXLXLXLXJXGXCXrX1X1X=XXX$X%X=X.Xc n.l l B..Xv lXNXaXC.N.p w 7 1 0 : = d h : w $.7 : : $XLXLX=X=X$XV.c y - - O # . . = a c .X",
"LXLXLXAXaXLXLXLXLXLXLXLXJXCXHXLXLXLXLXLXLXLXLXLXLXwXg %.~ d.d.D.D.*.r e ;.Z.C W ( ( ( ( C r ! C ! ^ W W 2 # M.LX$Xo 0 p ` ` ^ Q ^ X.+.l.t.v.v.f.x.L.[.l.l.~.}.D.x.x.s.D.>.<XwX` < W / h.k.-.#.S.%.%./ v.i.i.T J.L.'.L.0.J.K.K.J.K.J.J.J.0.e.8.8.8.J.H.e.{ [ A 8XgX~.w.e.v.f.v.[.T.'.'.T.t.4.7.s.+.h.(.V.g ; > N.$X$X.XW.E..X<XaX8X;XkXVX8X*X&XXX;XsXiXnXLXZXCXJXJXGXCXMXxXvXHXGXCXMXGXZXvXtX%XM.W.=X:X=X<XvXFXHXLXLXKXbXFXLXLXLXLXLXLXLXLXLXLXLXJXAXNXFXLXCXnXZXmXCXCXnXJXJXvXvXJXLXmXsXaX=XzXbXvXvXAXLXHXKXbX1XuXzX1XrXZXnXJXLX",
"1XaX;XM.l C.%X;XiXvXvX<X;XaXfXCXbXfXLXJXNXJXLXJXLXvX5 4 w 7 , % # X o o # - > 1 : : 1 0 0 d d &.$.j } 1 .   oXLXFXv u > o . o o = : & & & & : % % & , q 0 r } } a.;.| ^ 0 oX,X.   - & : : - 3 g 4 5 0 Q a.6.U 3.6.~.v.u.t.J.L.J.f.K H 8.9.x.'.{.L.x.w.K.w.6.r iXkXD.D q.s.s.c.D.[.v.U 6.v.v.v.6.o.F A p ` ' ' Q s 0 7 7 7 7 7 7 7 r -.#.s d l w = w j e z $.l M.M.M.n.c V.vXzXOXM.l l l i h h i > g z z 5 > h l XXvXFXNX=XXXXX=X$X=XrXMXvXvXaX1XyXiXyX:X:X;X@X=XsXbX<XaXJXAXvXfXaXCXvX;XwX1XiXBXLXJXLXLXLXLXbXuXCXLXLXLXJXZXCXdX",
"3 w r 7 q 8 0 & 7 j } e 0 d w 3 3 3 d j 0 4 d @XCXbX1X@Xl = = = k 1XCXwXl a V.C.n.V.V.W.M.R.,.,.N.&.0 3 h C.aXHXLXLXKXHXxXzXzXxXvXCX<Xb E.E.v k c h h g l z l l $.i - = o I.LXbXxX<XE.E.XXXXI.E.XX.Xd w %.| A A r q r #.h.h.j.a.*.=.;.h.D.~.~.~.v.h.r.j.s. .,.bXnX(.S.Z.l.l.Z.s.a.l.D.a.l.Z.h.s.D.v.a.p.( Z ( p.s.p._ S S C C C S o.7.s.X.*.*.r , 8 9 9 A 9 r ! Q ! ! p l nXwX$.q 7 r ! r p w h 0 d &.d d &.h 4 - u 1XQ.k k l d a a 4 a u a a a 4 3 3 w &.h j M.W.l a a a j z a a l M.,.z l R.R.,.&.z l l k l c E.uXCXW.w e w 3 ",
"A G 6.s.s.c.c.7.+.I S ( a.;.A ;.;.a.o.~ S ! ^ @X@X;XLXLXSXtXxXLXLXLXNXtXeXdXCXCXvXxXsXkXpXpXgXpX5X`.*X7XjXkXtXXX1X1XrXMXJXLXLXLXHXLXLXHXFXDXKXKXLXLXLXLXLXHXbXaX%X<XwX=X$X-X1XbXxXMXbXbXFXLXuX,XxXHXnX;XrX3 0 3 # X X $ $ + X : 4 0 0 : $ X .   . X X $ % 3 iXLXiXa - : , , w , , ! s q p 7 7 7 q s $.^ 1.G D [ { f.f.6.6.[ p.p.[ [ 5.6.[ 5.[ p.6.6.S M S 5.5.5.5.[ 5.=.,.sX`.! ( ( 5.5.5.*.! ! r C W W q C A s : M.ZXM.3 j j e e d w 0 w d -.N.M.} Q O.h.Z.^ s s e ,.} w , # e N.S.!.N.<.#.#.;.} r } S.<.%.%.1 : $XtX-./ 5.( A ",
"6.e.w.c.x.f.2.v.v.U 1.f.x.[.[.j.F 6.6.7.F +.D.`.,.&.(.8XpX8X1XbXCXW.a d ,._.@X@X_.R.S.!.S.A.A.~.S.A.S.h.h.D.!.<.,.&.! &.N.(.E.&X=X<XzXxXbXHXKXLXLXHX2X2X$XXXE..X;XsXxX;XM.W.W.R.M.$X=XOX$X=X;X$XOX=X*X#X%X$X*X8XpXsXsXjX8XtXvXaX2X=XwXwX8XwX;XM.l l R.(.,.Q.aXvXfXwX;XOXN.M.l M.&.&._.W.W.E.W.E..Xb c c ( D V V Z { 6.6.q.6.p.p.q.P.f.f.q.w.w.q.w.[ K n n K V H H J [ =.<.pX(.C D [ 6.5.6.>.A.>.d.s.( ( _ =.( q : : W.W.,.N.N.%.Q s ,.&.} $.%.%.N.!.*...a.s.X.^ _ A.>.s | D.k.k.k.;.a.k.z.#.l.a.o.+.k.D.D.D.d.p.(.mX6X_ 6.w.[ 6.",
"s.v.v.x.v.v.v.r.r.I 6.w.v.t.j.j.j.c.6.M M G I I 8 8 A ;.z.| a a w 1 0 ! W r ! | <.+...A / / W C A / / D G 1.3.+.X.o.l.D.l.+.7 7 0 : : > # = 1XLXvXh i d a h l N.$.d 0 7 j ! ! ! s q , ! r r ! %.^ -.! r &.(.R.*X8X8XeXeX*XwXCXLXLXrXiXVXVXGXMXxXxXxXVXnXwX1X1X*X_.>XwX;X1XrX1X;X@XiXJXSXBXbXzXvXKXMX.XN.6.D D S ( ( [ 5.[ 6.6.6.e.f.c.P.x.f.{ 6.{ J H Z J { J J V J [ 0 h ;X<.C G [ ( / a.,.-.*.' p.A / =.Z.` C 7 n.2XoXl M.N.,.! %.N.-.,.,.} <.R.R.-.=.a.k.k.Z.D.).N.N.N.k.l.z.l.h.l.z.<.<.!.k.d.;.D.Z.s.D.S.A.N.vXjXD.( f.5.o.",
"Z.~.D.h.a.l.h.X.k.l.j.s.s.j.l.l.v.L.w.[ [ 8.2.D D G F M M C *.5Xk.Z [ W Z Z 5.5.G 6.6.w.2.2.f.p.( p.a.1.1.J D U 3.6.s.6.2.5.B S C M S S A < &.9XD.C =.X.+.X.+.;.!.`.Y.h.|.{.v.f.s.s.v.f.J 6.6.c.P.6.5.j.l.z.<.!.!.z.#.-.X.&.,.JXLXW.} #.z.(.N.n.C.#X`.(.!.!.!.Y.<.<.h.!.N.N.(.R.<.#.@.R.!.<.,.l z l u x c.o.~ } X.*.^ 8 A ~ ~ A B W _ _ / X.' p.a.o.a.d.p.p.[ 6.s.s.p.` _.1X,.-.>._ X.>.*.N.(.%.0 W ~ X.*.` ` ! q %XLX-XM.,.l N.h d &.,.n.m.&.N.(.,.N.N.S.S.!.-.S.N.N.R.!.~.D.D.}.~.k.k.<.<.N.d.A.d.A.;.>.(.(.-.h rX6X| o.s.d.=.",
"5X9X#X).!.N.N.!.S.>.=.>.*.=.Z.d.i.i.w.e.{ K.f...7.5.s.5.s.l.%.6Xm.% * * Z { w.w.Y 0.Y 8.9.0.8.w.s.p.a.j.v.v.U J 4.x.f.6.w.6.G V D J 2.[ ( C 8 +.o.[ { f.v.c.h.+.d.{.4X|.4X4X{.P.f.f.L.L.f.D [ v.c.5.6.v.D.l.h.o.( 6.i.u.x.w.9 @XLX(.B U U U t.j.o.;.h.~.~.t.t.t.4.u.x.v.j.t.7.7.7.I D D D 3.#.r 7 7 q e w 7 3 3 : # : 7 & : 3 & $ : 0 3 : : : , , 0 h d p p q W s 1 1 - =XAXE.i h 0 = : 0 d h } &.| <.#.-.` ` ` 0 W.LXcXz k l a l ` ` N.F.C.W.R.R.W.N.W.N.l &.l ,.R.W._._.4X3X4X).).(.S.N.N.N.%.F.).F.-.&.&.a - $XHXXXw N.%.-.S.",
"W.R.,.N.W._.W.R.N.C.n.n.$.,.N.S.'.L.x.i.L.x.9.a.h.a.c.s.c.s.$.tXOX+ * d.{.P.D.f.0.Y K K 8.0.e.[ ( C 9 X.G x.2.V J w.w.i.v.v.6.G J [ [ 2.[ D 8 l.D.[ { J x.{.~.+.p.[ s.v.v.P.P.P.x.f.L.P.P.v.v.L.L.P.f.x.x.6.3.S Z 8.0.J.H.e.B #.SX4XU ].J.J.9.1.M * M 1.x.w.9.4.9.e.e.J.i.9.9.4.u.L.i.w.8.f.x.[.).D.6./._._.*X;X*XE._._.8XpX*XR.l M.C.M.R.M.l l W._.M.&.,.&.m.m.d i p $XLXLX2Xh c b b k 4 . = 7 0 0 e 7 e w w 0 : g JXKXQ.5 4 g n.` $.&.N.(.&.M.M.&.M.M.M.OX@XM.k a z M.l , : w i i h n.M.h i 0 ` m.n.h l 4 u XXLXLXdXg a ,.$.&.",
";X6XeX@X@X8X;XwXtXGXAXvXbXBXwXD.T.j.j.j.j.6.7.D.D.v.v.6.v.7.&.ZXsX- W F.A.*.Z.p.x.w.6.v.v.x.f.p.( q s ).o.( 6.[ D 6.[ f.D.D.f.6.6.2.6.[ D S A Y.l.7.q.6.2.v.j.+.5.o.6.t.1.f.c.D.D.[.x.6.v.{.~.v.L.[.x.w.i.i.v.x.P.L.Y 8.H.H.[ S.9Xv.9.T J.J.J.[.|.0X|.L.L.J.e.x.e.H.e.K.J.0.L.'.J.L.9.e.8.8.w.f.[.P.L.[._._.6X6X6X6X9XeXeX8X9X8X8XqX6XqXtXxXbXMXnXVXkXpXeX0X9X9XeXkXjX%XdXCXvXsXxXHXLXLXsX6XsXkX6X`.R.$.N.N.(.F.(.;XCXCXsXkXVXZX;X@XfXpXpXsX#X#X*X#X6X@XrXJXZXZXSXiX;XsX8XC.M.OXaXFXGXGXLXLXZXmXsXqXnXZXLXLXLXCXaXAXLXLXsXZXmXkX",
"N._.#X#X_.R.R.M.@X@X-XKXLXLXnX(.;.} <.!.!.~.| q q 8 A A r.+.,.nXbXy 0 OXn.> > 0 q C ! _ W / X.S.).F.OXGX+X2 p._ C ' =.d.D.D.s.p.o.( 5.F A X.} (.r q / 5./ +.#.z.D.h.+.h.T.D.k.;.k.~.[.a.~.}.`.v.x.x.x.[.{.{.|.|.{.P.u.s.[ Z , <.pXz.6.u.u.s.p.s.{.0X4Xx.v.f.x.x.2.2.2.e.e.i.L.T.'.L.v.u.w.L.w.7.~.}.{.v.-.A , , ^ -.S.| q 7 ! | | S , r h oXvX2XM.<.D.h.h.v.h.+.#.!.-.l N.W.@X@X$XzXHXGXsX*X,._.9X9X7X`.#X*X7X).N.,.,.w 3 &.6XmXpX8XfXCXBXpX6X5X#X6XeX@XOX@XW.$XkXZXVXZXnXnXnXbXHXFXaXM.;XBX8X*X;X*XsXnX8XwXwXE.c l R.M.&.N.(.(.",
"<.z.| r r } w & 3 3 O oXaX@XN.z.;.$.,.<.,.R.R._.(.&.} @.@.7 w dXLXLXrXh c .Xx t a M.N.N.&.&.&.d h n.$XMXl : : + + > ` ` %.*.q 7 , & % : w a w <X@X. X : # X X 3 w 0 : 3 w d w # # # : : : 3 a d q S / s ! Q ^ &.p 0 q i h h l <XnX,.| #.r 1 # = $ : / a.h.v.v. .+.A ~.~.' S.).`./.~.l.T.~.v.j.z./.`.~.~.a.F W A =.o.a.A ( / o.S G 6.v.f.! XXLXtX| o...1.U 4.u.3.r...A A ~ +.X.9 ~ n.f g l %.s r e e s r r | ! ~ ~ X.} , % 7 & 0 ! } 7 & & | !.S.-.<.(.,.e 7 : 7 s } j } d l l 1XHX-X4 3 & 7 7 & 3 r } } r 0 7 w 7 q r ! ! ! %.*.",
"a.a.+.h.+.P O.A q 7 3 W.;Xr M G 7.~.;X6X6X6X;XBXSXJXJXZXZXsX_.@XvXnXaXrXrXGXLXHXNXvXxXCXJXJXvXvX1XCXLXLX@Xa M.@X;XOXh h ,.N.*X6X8XqX;X$X$X.Xb bXLXvX<X%X;XOXE.XXwXwXvXnXaXaX,X,XwX<X2XrXaXaX1XXX%XN.l a - o O o y M.E.=XdXNXHXDXxX.Xi &.W. XV.V.M.l &.N.!.<.#.(./.#.#XR.4 w d d } } j @.,.#.!.<.R.R.&.d ,.-.^ ( S ( B D D B S D U t.'.P.A @XLXwXA ( C ( 1.4.9.J J D 1.i.i.8.9.t.4.d.C..X&.! ~ X.~ q S r q q 8 C C A / A A A / o. .5.v.j...7.~ A A A X.-.X.~ A q < * q 8 % .   V.LXLX$.: ~ S F B A I A < M ( o.;.l.F 7. .8 ~ _ o.",
"C Z t.I F I I G Z C 7 +XjXA n H H 1.z.N.N.N.N.R._.OX$XM.M._.z - 4 w ,.W.C.M.=XLXcXv k b E.XX=XiX1XaXCXvX<X;XtXZXLXLXLXZXLXZXnXLXLXLXLXLXLXvXzX-X,XxXrXxXLXJXMXMXGXLXLXGX1XcXFXMXxXFXHXMXGXLXHXFXJXZX<X<X<X$X<XlXHXLXLXLXJXFXcX,XaXtX@XtXLXLXLXLXLXMX(.<.N.(.7XZXVX_.(.sXuXrX$X&.,.,.N.W.(.R.(.Q.Q.*X6X#X(.N.d C M < M M 1.1.j.v.0.Y T L.M W.LX8X* D ( 5.6.w.8.H.8.e.e.Y Y Y Y Y m C %XtX` W / /  .S / W o./ / ( G D M M C S F S ..J [ 2.w.J C M M M 8 F ..F F M C C  .A 7 @ = %XLXGX_ C [ K H H J J 2.H 2.2.G S D G < $ * 8 S ( ",
"C G v.j.I I M n Z C q eXnX! Z H Y Y 1.A A A 8 8 e 0 > > > = 0 7 7 q 8 q 7 : a sXFX.X5 a j k 4 w a w a a d &.j 0 s R._.#X(.&.s N.(.,.n.n.W.M.l a 4 l $.i &.n.n.N.N.N.n.a 4 ;XAXb M._.C.c M.W.V.V.$XW.M.V.W..XE.$XFXFX1X*XW.@X,.z M.W.(.OX@X@X;XW.W.N.n.l $.` N.C.n.N.E.vXLXLXnX(.S.W._.+X;X#X*X*X&X;X;X*X#X5X`.S.d.5.[ 1.w.x.6.u.Y Y Y L Z n.xXW.q 6.6.5.2.2.K L H L L 2.6.8.8.[ { / 9XjX` A A / ..( a.a.a.a.;.o. .A A 8 q C o.A A A S ( U H U t.v.t.U 3.3.3.I B 6.s./ r ! p - $XLXvXs q ( [ J [ 6.2.8.2.x.2.2.2.J V N M D D B C ",
"q A  .<.X.A S C C s > aXbXd C [ J J [ J J J J 5.+.k.D.A.d.>.-.*.s.1.v.6.7.X.q W.qXn.d r r 7 7 ! *.r r r r ~ A 8 C /  .A r A *.~ W C / ! r ! p.d.~ ! W 8 , < C C ( o.~ q w (.(.&.;.A Q Q &.,.&.d $.h i 4 3 w h l $XQ.3 & 6 e 7 & 0 q q w e w 0 7 q Q ` m.:.' m.` ` $.h M.NXdXR.<.-.-.-.N.N.N.!.N.R.R.d -.-.@.#.<.f.c.d.l.a.7.+.+.I G G [ W .XCX$Xh >.-.X._ d.5.( ( 5.s.o.o.a.5.s.[ Q _.#X%.| X.;.o./ X.a.A -.k.k.X.X.A ~ _ ^ =.W W ! ' _ 1.v.{.{.[.v.u.3.v.7.....A 0 r ^ ! > - vXLXLXN., _ < q , & M [ D 6.v.v.x.v.j.7.o.o.A 8 0 ",
"o X X - = - = . o . v LXLXW.: C W ~ ( _ _ / W -.>.Z.D.c.[.{.}.D.s.w.J.L.L.a.| !.+X` 0 C < % C / 5.G o.S C ( [ G G G ( ( / A C C C G G ..F a.( ( 5.S C B S 5.[ Z M D S A -./.#.+.l.D.~.!.z.<.#.-.*.-.%.} %.Q p l >X`.-.( ( / A C q 0 , C ~ A C _ ( ' ' =.' ' Z.>.=.%.w z XXR.9 7.v.h.h.h.r.j.j.a.+.#.h.1.5.1.6.c.2.~ $.e w 7 3 $ X # : @ X E.LXbXa = i a > - i 0 0 0 h d 7 q 7 , , : _.>X0 : : 0 w p r r r s %.*.*.S.>.;.d.d.d.*.' Q Q ` X...h.j.s.s.c.D.D.Z.s.d.h i d h w > W.FXKXLX$Xo + + X # & , r | *.X.| *.} @.| Q Q , & # ",
"E.W..XoXoX<X<XC.c v cXDXKXNX$Xh = = @ = # # = 3 h $.N.p...j.T.v.i.H.H.f.w.6.~ @XxXn.p C M % A ..7.1.[ ( G S G J [ ( C < 8 C W C C A W _ _ S r C W ~ A o.o.l.l.a.B B S ! &.qXN.# 7 -.k.S.z.z.h.A.A.d.d.*.m.S.d w qX3X_ D ( ( S C C W C _ _ ( ( 6.6.' p.p.p.p.p.' =.=.n.E.BX6X#.t.'.T.T.L.v.L.v.6.j.j.t.u.4.u.v.v.p.l &.,.b z Q.W.W.g o > c aXHXDX1X=X2XzX,XV.c C.V.rXbXE.4 a h N.(._.vXBXM.- - a y y - = 0 - > > = : : , 0 0 s s 0 0 = = # X % & , C >.*.^ s q q u y a l $.4 a =XNXHXbXv l @X;XrXsX;Xg l $.&.&.j 3 d &.h V..X=X$X",
"LXLXLXLXLXLXLXLXZXMXzXlXlXNXaXvXMXMXMXbXzXvXGXHXnXqX;X3X}.}.j...f.L.w.f.f.( q nXLX+X0 q 0 =.=.C ( S C C ( o.( 5.( C C _ _ Z.~.).).F.=.=.d.d.-.Q q d.<._ _ Q d.=. .C C 1 3 rX<X0 = + W ^ A.;.;.#.;.;.o.d.m.m.` i @X6XQ [ ( ( ( p.p.p.' Z.=.=.;.a.p.( ( p.=.( ( >.=.` h M.BX_.} r.v.J.J.J.Y Y U 2.U I 3.3.6.v.t.i.[.wXpXBXSXBXBXmXMXMXZXnXwXCXCXdXsXZXFXGXLXLXLXGXJXJXLXAXfXZXZXZXZXZXCXsXsXvXMXJXvX,X.X$XOX@X%XwXwX;X;X@X(.N._.6X#X#XW.C.C._.qX8X@Xh w d h i p n.,XrXsX;XW.R.XX1XDXbXMXHXJXLXLXJXMXJXsXsXiXvXnXmXsXGXLXLXLXLXLXLX",
"LXLXMXnXCXwX(.#X_.R.M.W.Q.b 4 W.sXGXLXLXLXLXLXLXMX_._.#X).).*.q 8 C n 2 2 @ o 2XKXv O 4 > ` ` s ' W W 2 0 W Q Q s , p (.C.m.+X+X+X+XF.N.F.+X6X+X` =.S.m.&.s ` ! q q 2 > c cXoXV.M.n.` ` m.&.m.S.<.z.S.:.` &.i M.sX+X` s.Z.Z.d.p.p.` ` m.m.$.` &.N.S.k.!.~.!.S.N.m.0 = g xXXX& !  .J 2.9.2.w.[.[.+.h.}.).D.+.+.c.~.!.!.(.!.(.(.R.N.(.`.S.A s l l Q &.N.@X#X;XeX6X6X;X;XiX:X&X;XW.,.,.,.M.E.$X<XxXzX,XxXLXMXsXtXaXaX&X:X:XtX@X@X@X@XsXMXxXqX*X8X8XtXsXnXpX8XtX6XqXrX<X@X#X6XpXwXXX=XXX%XvXCXiX;XM.l W.=X.XW.M.E.XX=X=X<XrXzXbXHXLX",
"cXM.,.$.e & 9 ~.h.~.#.A } j w d h h l =XHXNXE.y w 7 w s w 3 = # X + # # = > u -XcXv 5 y y y i i i 1 i h i > > - - = - y y t y O O - > 4 > - g h 1 0 d l h a > > 4 i - = $XKX-XoX$X%X+XC.h i i & - 3 w h - . o XXCXsXd 0 0 e s s Q $.l a > a 5 4 i a d d d d d d h > 5 $XLXzXo = # $ & 8 ~ ;.3XpX).&.!.#X_.(.j.l.l.h.+.A q A A C ~ A B F I / p.=.a.l.l.+.X. .A A } #.<.R.,.j ,.&.e 3 : 0 w : 3 > i i c rX@Xw 0 a w a 3 z R.W.,.M.&.wXwXC.(.<.$.j } R._.} $.@.,.} h %.| ^ } } @.w a g > a j d j <.N.N.j 5 0 w w 4 a 4 > - > l v zX",
"=Xe #.F  .I 3.t...r.t.3.3.a.a.+.F 8 0 M.CXaXa q d ! *.~ 3 d c g y M.@X=XxXHXKXKXAXzXHXLXKXGXvXvXMXMXxXMXxXrXvXHXCXCXbXzXHXFXbX2XbXbXaX1X=X$X=X,X<XwXrX1XdXvXrXbXCXaX<X$XNXLXKXbX<Xc c x c OX=X;XaX=XW.M.E.XX1XXX-XvXxXR.    3 ,._.W.E.XX2XzXzXbXrX.Xl g 5 5 4 b E.W.rXLXLXHXvXrXM.l l 5 : a C.M.a l a y a k N.~.D.v.h.7...1.U G G ..4.4.9.x.x.p.s.s.2.1.6.1...r.r.}.}.!.(.<.#.<.;./ X.*.W } } ! s + y nX#X<.| s &.,.!.@.| | -.5X<.@XN.o r r.j.j.h.t.r.r.r.+.j.3.1.G 1.F 8 8 8 q , : : : 7 A o.j.v.+.A q Q s s r s , , 7 : 7 a ;X",
"a X + < Z J 2.J G G D U 2.f.w.1.9.K 6.X.W.qX0 / o./ ( s.5XxXLXLXAXLXLXLXLXLXLXJXvX;XsXLXLXLXLXLXLXGXbXCXLXLXLXLXLXLXLXLXLXLXLXHXFXLXLXLXNXcXLXLXLXLXLXLXLXJXLXLXLXLXLXHXbXFXLXLXrX.XrXxXnXmXMXLXLXJXCXwX<XvXuXQ.b <XLXsXw 5 W._.@XuXNXJXGXZXJXLXZXrX6X;XtXmXVXkXVXVXsX<XV.V.xXJXZXmXfXtX6XqXnXsXmXLXLXJXZXnX6X[.v.j.s.2.J J J 2.s.6.w.i.9.U e.f.f.6.2.w.f.6.7.h.+.+.h.z.~.l.h.j.j.c.s.( ( 3.G 7.=.r l jX5Xz.!.~.}.D.~.r./ C / C < M._.7 % V 0.L.L.H.0.T Y Y J.L.Y 0.L.w.J w.w...( C ! r A M N V m M F / X.A A A / / A q C < : d ",
"#XA N J J [ [ [ ( * < D 6.K.f.2.K L L < #XnX` & q C C P.#XaXDXLXbX;X#X@XE.k b W.d 0 , w 7 z Q._.R.l W.@XXX_.M.@XwX@XXXaX;X;XaX>XW.R.&X<X=XuXuXaXsX*XM.;X>X@X$X;X;XwXwX>X@X3 l N.F.+X;X;X6X6X(.@XW.W.;X+X&.4 3 4 l h l ,.,.l l a 4 XXNXwXS.S.<.S.X.-.-.-.<.S.A.!.k.;.<.@.s ! s !.!.!.!.!.!.S.N.!.#X@X#X#X`.(.~.D.v.x.x.8.H K 2.2.U 8.8.H.8.K { f.f.w.w.6.[ 5.j.~.T.I +.7.T.[.v.a.l.v.6.[ ( 6.I j.k.D.<.#X(.} D.c.f.( S G 5.( ( 5.A W.sX(.M V H Y J.J.Y m m H E K.J.E Y Y Y w.x.2.f.f.s...I U K Y K U J D V N D V G J D M V F A R.",
"mXA v.L.1.S 5.S < @ * < < N [ w.6.f.{ , ;XLXV.@ p W ( 5.d > b vX@Xq C 8 8 7 8 A W A / o.A 7 9 9 r q e 7 , 7 7 8 8 7 : 7 e 7 0 } @.| r w 4 W.*X3 & , , : ! r q q e -.#.#.;.d.X.d.~.).).}.`.~.~.~.}.D.a.p.>.,.&.} :.&.p d h w 0 > y ;XLX5Xo.U U 9.9.2.s.v.j.s.6.1.f.[ s.a.t.6.3.u.3.v.v.v.x.v.+. .S P S  .#.Y.}.}.'.v.v.x.u.v.[.6.2.u.w.f.x.s.s.f.6.D.a.A / _ -.z.l.T.k.-.z.z.*.| >.D.<.-.;.+.l.D./.S.$.(.,.-.' X.=.=.=.p.A.D.-.(.N. XJXZX/.t.8.J J U U L H L L L Y Y J.K.0.u.w.2.4.J 1.1.J U t.4.4.U V J U Y 8.U U G 4.2.J U h.ZX",
"jX-.7.u.1.o.o.A *.>.A.W q C C o.a.( M & &XLXrX1 ` ^ _ 5.>.` =XjXN.( q.6.1.F 6.f.c.D.D.u.x.v.u.G 6.c.[.D.v.7.6.v.f.6.( 5.F F ..s.F D C A q (.#X, q A A ( ( p.( ( B < < M V [ 1.G / o.( [ 2.J J J 2.w.w.8.s.A.<.-.-.N.m.N.,.&.h : > tXLX5XU Y Y 0.0.Y J J J 9.e.J 2.2.5.5.2.2.9.9.0.f.f.w.w.w.x.x.f.6.4.t.u.v.v.t.v.i.i.L.v.T.5.Q 7 , : + = 7 r 8 ! -.#.<.s s ,.,.M.,.&.j j M.W.M.M.M.h g l <.<.-.&.w y 2X1X- = > - = = 0 a i 5 a u v KXzXw j.[.j.....A C D ..U J 6.4.1.3.7.l.l.7.o...;.a. .7.7.B A F ..r.j.j.6.1.....t.v.v.v.`.mX",
"nX%.X.M 8 A 8 8 3 , d &.,.q $ , , %   5 LXLXbXi h h e [ Z.S.sXZXS.o.w.6.5.s.w.f.x.v.f.6.t.j.+.1.v.w.x.v.v...3.6.6.v.6.6.v.v.2.1.1.9.6.l.W #X9X! C Z Z D { f.2.D J N Z [ q.5.5.5.F ..[ [ 6.6.6.w.[ [ [ w.s.A.S.A.F.).A.S.S.-.%.d - $XLX}.U J.9.8.0.Y 4.x.L.L.J.u.1.f.c.5.1.2.9.i.i.8.w.e.L.u.e.J.L.f.J.L.w.1.2.2.4.w.i.L.x.l.N.l g c .XV.v 6X*X&.&.a e j j k k E.E.g l E.k u c v k y y g c ,.3 - o . 5 cXKX,X.X.XXX.Xv M.b v oXb E.dXLXAXz $ 0 q 0 d e ! s 0 7 : 7 q , & % % 7 q 7 q 0 p s Q ! q q , , 7 7 r C ^ -.} A A A q <.mX",
"tXQ * F X.-.S.<.OXE.W.W.M.c l ,.l _.OXaXFXuXaXn.M.@XN.A.F.Q W.nX).X.s.s.o.p.D.~.c.s.v.T.7.a.h.7.6.v.6.s.j.j.D.v.j.v.v.v.P.[.D.[.x.i.v.D.~.!.pX%.q Z [ q.q.6.[ J M D { 6.{ 6.s.s.o.o.p.[ [ [ 6.D.p.5.5.s.-.,.%.` Q :.>.Z.C.S.N.m.4 $XCXN. .6.w.2.[ 2.2.f.f.6.[ 4.T.v.1.5.7.t.u.v.L.[.[.'.[.'.w.f.u.2.6.f.6.5.s.s.4.u.v.f.f.D.sXMXtXwXLXLXLXsXwXsXxXsXkXfXfXnXnXJXLXLXLXLXLXZXnXnXnXvXMXZXJXfX;X$XwXrX1XbXLXLXLXLXLXLXJXvXsXCXLXdXXX:XuXvXfX`.#X*X8XZXLXZXqX$X;XOXW.N.j &.N.W._.#XN.l %XqX%X%X#X`.pXqX;X_.W.(.N.<.&.e &.7 % X w tX",
"N.s , h.}.VXVXjXvXsXrXtXrXaXnX;XN.W.%XOXa - ;XsX;XeXpX#XM.&.aXnX&.-.>.A.A.S.}.`.~.A.S.z.-.k.A.l.a.p.a.l.d.a.a.l.l.a.D.l.a.d.l.D.l.t.3.h.#.<.OX&.^ ( [ f.s.( F 1.s.D.D.c.D.Z.Z.s.=.=.=.X.;.;.S.F.m.-.A.N.&.l p 0 d N.` Q ` &.N.,.y ,XFXM.X + q C W a.s.a.o._ _ A A } X.~ | }  .+.I 7.j.F F  .A A o... .=.Z.m.S.Z.j.v.~.}.~.j.! %.0 a XXCXXXy i n.M.&.j e : 7 h d V.CXLXpX9X6X5X5X/.9XeX`.(.@XW.@XsXtXN.R.#X5X`.*X*X#X#X*X6XpXkXkXwX`.R.W.).3X6X#X*X=X1XeXtXsXCXLXmXwXOX@X;XqX;X%XN.l .X%XOXn.W._.eXLXLXLXLXnX6X#XW.!.(.!.<.} $.C.",
": q ^ ~ | 9XeX;XXX.XE.M.M.M.M.M.j e p 0 p : 1 a w g k - - =XLXaX- w h s $.!.*X`.(.(.(.R.R.S.&.` ` %.Q >.>.>.-.-.>.>.-.^ Q Q %.%.^ } } } : a OX$.- : , r | ~ 8 7 q ~ *.%.^ Q W q s p 3 0 w 0 0 i h h l g g n._.M.: 3 w p d 0 : : k FXLX2Xa : 0 q s s r q 0 3 > 3 : = = = = o # : X $ & & : : = : 0 0 0 0 1 > > 0 0 & % , 7 7 8 B A } Q.8X&.d m.&.` s 8 A A q q & > @X*XP A B B I +.T.j.A < 0 w 0 e s P D D F B 8 8 9 B A I I P A B A A *.=.a.*.} 0 : w <.&.M.=XJXmXM.l l 0 h i d d h l l h > i s $.l XXLXLXC.h $.} Q -.N.<.N.$.w ",
"^ *.=.X.7 } 8X*Xl l M.M.n.h w s ~ A o.d.W C C r q M..XOXtXGXLXLXCX@X;X6X@X@X(.R.M.N.#X*X_._.;XwXOXOXW._.S.(._.W._.#XR.M.&.d M.R.&.&.M.g XXvXCXaXV.h i a w 3 w <.(.,.l &.M.n.$.h &.v V..X.XE.V.x u a N.W.*XeXBXVX>X>XiX9XeX8X*XR.:XvXHXLXLXJXfXwX*XN.,.R.&X=X,X1XaXXX.XrX2X$X1XvXaX8X$X;X<X,X2X2X=X=X;X$X.XOX@XV.h l h c $Xn.7 7 ! 9 @.`.| >.' W ` W B S C Z ( 0 > b # 7 B U U K J U U V U l.).~.l.j.4.Y Y 9.U t.4.9.U U V U U D I G G ( ( 1...F A A A M A } z W.} 7 Q *.! %.%.N.-.<.N.$.d i p C 7 X O $X.Xi %.! X.! ! -.! -.| %.",
"a.=.=.W r %._.sX%X@X@X#X_.:.^ A ( 1.I I S p.d.o.X.*.h N.R.#X$XCXGXqXeXjXjX8X6XjXpX#X*X$X;XsXnXAXCXLXLXJX#X;XfXLXLXJXLXLXLXSXSXJXSXGXCXbXLXHXaXBXLXLXJXVXnXkXVXLXLXJXBXsX;XsXmXwXsX2XaXzX-XoX-X$X<XwX5X5X5X5X9XpXgXkX9X5X9XgXgX9X5X,.j #X9XpXpX8X*X*X*X*XiXuXcXHXFX2XxXxXGXHXGXMXZXsXrXxXxXzXHXLXFXMXMXnXsXnXnXtXsXCXnXMXLXMXh 0 w M P #.-.A.;.^ r 8 I 3.( D ( % c HXnX~ 6.J V J V U t.T Y v.[.L.J.Y U Y H.J.i.i.0.0.J.H.H.J.J.0.Y 4.J D M B 9.e.9.i.Y H V B 9 !.-.X.o.( ( _ _ *.;.k.h.X.;.N.d.( W 7 w @Xl 7 =.o.l.k.;.k.*.;.k.k.",
"5.5.[ p.k./.#XpXeX8X8X*X(.k.a.5.6.w.I G ..a.p.( 5.7.~ ! } w w w 0 w d Q ,.} #.#.<.<.&.&.w w z 5 =XLXSXsX_.,._.*X@X_.>X*X*XpX8X*XsXvXaXxXrX=XQ._.nXsXwXpX8X*X`._._.*X_.Q.&X*X#XR..XOXM.c l g - O a !.T.T.t.+.@.9 & 6 9 B B #.T././.}.z.#.Y././.Y.Y./.}.*X`.Q.1XzX$XC.n.$.l N.M.d s &.h h g g ,XvXnX;XN.`.*X9X9X8XpXJXZXZXJXnXeXjX*Xi.j.s.f.f.h.+. .7.I I G D Z > $XLXxX%.( ( [ [ 8.9.9.v.i.U w.8.Y K 0.0.8.J.i.i.0.Y 0.H.J.0.8.9.V n M V B B U J.H.E Y E Y M A 9XX.C ( [ [ o.o.a.p.s.a.;.a.d.a.6.5., 3 ;XW.: < C ( o.a.a.d.s.o./ ",
"C C S C B l.`.eXhX9X`.(.(./.k.=.=.p.>.~ / _ / 6.a.a.a.5.5.;.! | z.| | ^ ;.k.~.z.~ A } A 7 7 0 = g ,XR.e / h.@.#.@.} e e ! } ! ! ! } h e e s 9 9 7 7 7 s e 8 r A & 7 w 7 7 q 8 r 0 w e 0 e s e e } j.J.].'.0.U V U i.i.0.Y y.'.].i.u.'.].].'.T.'.i.t.t.A r R.BXqXw } r 8 ~ A B A F  .X.X.r p @X_._.#.A I -.a.+.h.Y.!.z.!./.).;.h.-.f.x.x.f.v.c.v.j.v.6.1.( / < > MXLXvX0 , 8 ( 1.U 1.f.v.1.J J D D B H [ { f.J.6.u.i.i.0.i.8.v.o.C M B F S M D 2.K Y Y R J.A !.nX} r _ C * ( p.l._ ( W C _ ( C S C & h ZXwX: q q A _ p.p.' p./ A ",
"! ^ W s 7 d d n._.6X_._.#X!.<.-.Z.3XeX(.! ! -.;.A.>.a.s.( s...D M * 8 C _ A C F j.v.A +.O.S C 1 l eX<.< Z V V D 1.M G D D [ G D 2.3.< M M V U 4.S S C M S S ( D M M C A _ B / ( / o.B B F .. . .5.4.Y Y J.H.8.Y Y Y T Y Y 9.L.J.0.0.Y 9.U U Y T 0.].K.U +.!.wX`.r / 2.w.U 4.9.i.u.v.u.6.o.A.6X<.A I t.4.U J V V D B B B * D u.1.( j.j.j.a.p.7.7.;.A.*.-.*.Q : y HXLXvX5 i 7 s q , * * , A q | -.| Q  .o.k.+.v.`.D.} / o.7.a.^ %.$.%.N.! Q %.7 8 / 5.7.9.t.&.tXJX@Xa w 1 q r -.A.! r ^ | ^ ^ *.^ 1 # c LX2XO i h ,.&.N.>._ Q ! *.",
"s m.h t i g x u 5 - o = - 3 : o 0 N.C.i 3 d $.a ` >.5.U J N V M * * M C ( S G v.j.B ..D M N Z , (.ZX(.* L H U K H J U 4.H H H H L 9.'.J H K Y H 8.w.e.K w.H H H V D D [ Z G 1.1.1.6.2.1.U 3.6.1.5.6.w.8.e.K.[.v.T u.i.t.9.9.9.i.x.w.w.9.U 4.U U t.K.].U I !.;Xw 0 p.K.e.T.u.e.4.t.t.9.w.[ *.6X).X.3.U H J Y 8.J.t.U I F D V J ( s.j.x.u.u.( ( C 7 # o = - y > k ,XKXDX2XHX<Xa : a l M.N.M.N.#Xn.n.M.N.w 5 4 w 5 a l d a d w l XXc c M.c V.OXa 4 > : q * & 3 &XNXXXu v V.c d w 0 0 d w j j d w =     .XLXLX,Xx y 4 3 & : : : : w ",
"LXLXMXrXxXzXDXDXzX,X=XOXM.M.l 4 h y g c OX;XwXiX&X(.D.2.w.x.4.D D G ( M 8 < C ..D.+. .B M M C , C.MXN.< K H U K J D I I M n M N J v.L.2.U 0.J N V K H K J V H L n * N 2.2.[ ( 5.f.f.6.1.[ e.K.K.9.0.u.v.w.9.0.i.i.i.a.j.v.L.0.u.j.j.s.a.5.p.s.v.v.].].U q _.JX#Xw *.( f.s.f.L.v.v.v.v.D.X.h eX6X~ F 1.7.2.J 2.x.s./ A C _ c.s./ W ....+.+.' p.S.#X%X6X6XqXnXMXGXHXNXCXaXJXLXnXeXnXsXsXnXnXMXnXwXrXMXBXdXuXdXaXaXiXdXvXGXrX=XCXHXFXCXCXGXGXLXLXFXvXbXnX;X;X&XXXXXzXNXCXxX=X*X*X;X#X*X#X(._.R.$.&.OXqXxXbXLXLXMXrX;X&X&X>XsXnXnXFX",
"nXnXsX%XOXOXzXLXLXLXLXJX>X&X&X;XqXC.W..XOX@X;XnXmXeX(.d.v.l.D.k.k.;.A 7 , : , , h d 7 0 , 2 1 = 2XLX$X: [ 6.7.[ 5.6.7...a.+.o.c.[.D.k.o.j.7.B ( ( ( 5.c.a.D.[.x.h.h.o. .v.D.p.s.D._  ...a.L.[.x.7.3.6.F ....I 1.U f. .Y.'.T.r.u.r.I +. .O.B ..v.T.{.t.A , @XLXCXa h Q *.=.=.=.0 & + 8 *.h 3 .X%X} X.;.A W q C A 7 s Q s ^ Q ^ ` s %.*.;.X.m.l n.A.D.D.-.s s } N..Xl g 4 w j &.&.&.&.N.(.`._.R.N.n.M.;XNXLXLXxX&X;X&XXXE.M.l l XX;X=X=X<X;XwXbXLXLXLXnXqX@X;X@XM.&X>X@X*X8X5X9XpXeX9XeXeX5X`.5X5X9X0X6X_.@X@X;XqXeXpXsXtXsXmXvXsX",
"- 4 h ` A./.@XbXKXGXwX#XW.N.M._.;X;XW.M.$.w 3 0 0 %.w a 0 , 3 0 : 0 i 4 5 = o o - - y a ; . . x KXLXJXl 1 # $ , , , , , 7 e q s Q a d 7 , & , : , 0 r q d &.,.q ! <.S.<.9 , 2 q 7 : $ 7 9 % + + & & + $ % % 7 q 7 A 9 9 9 8 6 6 * 9 r @.#X! 8  .j.I 7 e w &XLXGXg 5 w : # . . = a a & X o 5 2XsXl w e j d : : # - 4 - > i 0 > = > 4 y > 0 4 u 5 % * q A M < * , , : , * * * 6 6 7 < 8 8 8 * , 8 , & 0 V.LXbXc e } w 4 - w 0 = 4 a : & 0 3 : 5 M.wX&., p d s 7 ! w 7 7 9  .;.;.d.d.;.*.k.k.d.d.#.7.l.D.<.<.-.| X.;.!.N.&.%.h i i ",
"h s ^ 5.|.4XR.1XcXl + % 7 * , q e w w 7 ! | X.F n _ s N.&.l @XvXxXsXxXHXKXFXFXHXHXMXKXLXGXxXrXbXcXlXFXCXtXOXC.n.M.l h n..XW.W.OXn.$X<X=X<XtX;X;X@XOX(.M.c k k n.,.,.&.j w M.M.a M.=X*XN.W.l M.R.R.N._.W.C.N.@X3X#XjXjX7X5X7X9X7X7X3X`.ZXLXjX!.#.<.#.} &.N.;XdXzXJXAX;Xl g b =XAXLXnX@XC.$X2XzXvXrXwXsXfXsXvXZXGXLXbXE.XX@X;XaXbXbXzX,X<X<X.XM.W.).! 1 d r 0 7 < n C ( G B M D B M M D G S D G ..A 8 : y GXMXm.}  .9 7 : w h h h &.%.%.-.s , 7 d R.@.o.' ' =.W C 8 B P I D 5.( ( ( ( ( C C ( ( D V J U I ..5.7.s.c._ W >.3X7X6X6X",
"*.;._ 6.P.{.(.ZXLXS.* < A A F A A A A A ..1.3.2.[ ( w ;XeXwXxXHXLXLXLXLXLXLXLXLXLXLXLXJXmXkXwX=X:XuXuXXX=XZXLXLXLXLXLXLXLXLXJXGXGXLXLXLXLXZXLXJXnXnXGXLXLXKXFXJXSXfXfXBXZXLXLXrXrXnXjXnXZXnXkXBXnXkXVXnXkXkXjX7X#XeXkXgXgXgXhXkXhXhXhXhXgXjXeX8X5XgX9X`.`.#X@XW.sXLXJXkXnXLXLXLX1X@X;X#XC.M.1XBX>X&X8XiXiXwXvXHXHXbXbXBXfXrXSXGXGXZXMXZXJXSXVXmXpXhX7X(.d = = q [ [ 1.6.6.D C C Z Z ( [ ( D G S / S , d vXsX-.A / X.s s > i h h l ` :.:.` ` p a j (.D.[ 6.s.7.o.t.t.j.v.v.6.v.x.v.v.p.( p.s.s.s.6.J J 1.5.5.( ( [ ( ( o.X.X.>.A.",
"C ( 8 Z P.4X(.vXJX*.n U U U U 1.1.1.( J J J U H 8.D <.SXsX$.l l l l C.$XbXLXCX;X_.(.&.0 ,.<.<.<.j z k 5 5 C.%XrXFXHXLXHXaX<X$Xc OX<XsXsXW.4 l l h n.N.W.sXLXLXbX$X@X@X_.M.M.*XM.&.&.} &.&.} <.z.h.Y.!.!.<.z.k.;.=.*.~ ;.a. .F +.r.r.l.#.h.~.!.<.r } `.~.)./.&.d <.#X7X`.W.XX;Xz : w q 0 1 d R.(.R.R.,.<.j j M.M.b XX;X8X*X,.,.l l j d l #.<.#.-.-.+.~.5XeXrX<X*XD.l.5.c.f.f.6.o.( ( ( [ [ [ 5./ / C < &.aXE.r A / *.d ` h f n.C.c h p p ` C.` a M.:.p.f.v.6.+.+.6.s.6.6.v.4.v.4.4.U ( ( ( 5.5.( ( Z Z 5.a.a.5.[ 5.7.l.l. .-.p._ ",
"C W 2 M [ }.*XZXrXX @ D Y 0.0.i.i.2.5.6.J { K.J.J A ,.nXeX_ , # : # 0 a .XbXR.<.-.} 9 A T.v.j.T.O.#.&.-.| s 7 : u cXGXV.: = > : - . # : = : 7 7 q q , + & @XJX.X0 } j e 3 3 s  ...( A A A ..T.'.T.T.t.t.t.t.6.G 6.v.1.S 1.1.U 4.U U u.4.t.U I 7.F  .O.D G F B M 8 8 ~ A e ,.s r W ^ W Z W /  .A o.I F F ( W s s 3 7 #.S B  . ./.<.>.,.| A A B I I ( l.&.;XMXtXwX(.k.h.v.v.v.P.c.p.Z.p.[ ( ( p.5.5.D 0 V.GX=XQ ' ' ` h p c OX<X,X,X%X%X+X+X+Xp h sX+X' 6.( ( ( 5.p.f.D.D.D.t.r.I ..o.s.p.( _ *.~ p.5./ ;.+.X. ...B _ =.~ ~ ~ ( _ ",
"` p s < , % W.LXHXO . < M M D < 8 8 q q C ( Z D q : - CXpX=.C 8 0 , , : l @X: % 8 M 1.4.U D D 1.U I 6.6.5.7.1.( <._.xXn.q <.^ *.=.%.s | -.;.F D ..G V ( 8 r N.&.8 9 9 r }  .o.1.2.8.4.9.9.t.].].y.T 0.0.9.0.9.U 9.9.J.L.J.i.0.Y Y T Y U U Y H [ [ [ t.6.9.U I [ 5.G S S X.6X~.< ( C M Z { q.J w.2.8.8.L w.q.6.' ^ a.j.1.J 9.x.[.[.c.c.1...+.I I 6.v.#X(.=XrXg M.<.a.s.x.L.x.u.j.a._ s r q 0 ~ X.o.v.N.$XLX%Xp %.:.$.M.C.B. X.X$X-X$XOX.XC.h > l dXc i s ^ *.^ ^ _ _ W ! ~ r r Q Q -.%.s ` p s ! ^ C 0 , h $.! } | d s d Q s ` :.",
"= 4 - - > > OXLXLXzXl i } } n.w e 3 : = - - : 1 w M.aXLXkX<.( F < M C , : &.7 + n Z V K 8.[ [ M G 4.K.J.8.U Y L ( | qXN.8 A S C o.k.k.D.a./ F G 2.J J H D 8 D.=.A B A 8 C D Z J 4.w.i.J.Y Y Y Y T K.H.Y Y Y 9.Y Y Y 0.L.0.0.Y Y Y U U Y Y Y H H ( ..4.u.j.7.a.6.s.6.c.c.%.#X_.% @ < [ g.e.e.Y 8.L K 8.H.0.[ { ( } l.6.v.8.N U 9.i.i.w.1.D D D J 6.s.S.*.M.XX# , +.v.L.f.J.9.9.i.7.s.&.$.h d Q e 7 ! N.XX1X$Xw - g k u x v y y u u 5 t O O O y oXDXE.y a a a a l l 5 o # = 4 g V.g y a a - a a i 0 > n.l c V.E.N.M.V.n.g i i w 3 ",
"rXsXCXzX$XrXrXNXLXLXLXLXLXLXZXSXeXqXtXtX<X,X,X=X=XdXbXLX&Xw ~ D V V J F /.mXS.U w.2.[ 2.[ C @ @ < S K w.e.[ w.R n ,.ZX$X@ , C ( p.h.j.s.C C 5.6.J D D V M A D.p.A A A A A S D 6.j.u.v.L.L.4.4.w.8.K.P.[.t.t.v.u.9.9.9.w.x.e.w.w.J J 9.U U J.H.w.D C M M ( k.l.j.v.v.v.s.$.rXwX# * d.}.D.D.f.H.8.K 2.8.0.e.J Z < 7  .B 6.[ V H 9.9.x.L.f.[ [ [ 6.6.[ W 8 z ;X&.$ * U J.P.K.H.T Y Y x.).3X9XsX8XR.l l k E.oXzXW.v XX$X,X2XzXzXCXKXFXDXcXlXcXzXzXDXKXDXbXaXuXaX1XaXaX,XXX1X1X$X.XoXoX,X2XzXKXLXLX2X$XMXMXLXLXbXMXMXZXGXCXrXqXsX#X.X",
"sXLXLXLXGX%XM.M.W._.W._.*X*X(./.N.N.C.%XvXKXbX,X@X;XwXsX8X_.N...6.1.4.h.eXLXS...v.v.S ../ / C A q * < Z [ s.6.8., l LXbX1 1 ` =.*.3.5.s.5.( 5.[ C 8 8 7 7 q 0 0 C S ( Z Z M A X.-.X.h.+.6.7.~ D.D.Z._ ;.k.+.o.a.s.s.o.5.l.a.l.p.( ( s.s.c.v.f.f.s.a.7.5.d.k.k.j.v.7.v.j.&.nXCX> 1 +XN.Q :.=.s.6.5.c.c.v.s.f.Z.^ %.0X).C 6.6.Z [ ( p.f.D.f.5.p.d.a.o.a.a.n.xXsX!.U U L Y 0.8.m m H U  .I } @X*XwXaX1X$XE.u y u b .XXX$XXX$XsXCXCXbX=X;X%X%X%XW.W.,.,.N.&.l M.b M.M.M.XX$X=X=XzXrX.X,X-X.XcXLXcX4 a %XwX<X.Xg l l W.@X@XOXC.+X#X@X",
"N.xX2X4 : 7 * 8 A A r } @.#.#.T.T.~.~.).(.dXLX=Xd 7 9 9 } <.N...o.j.l.z.6XZX(.o.3.B o. .A q Q -.N.-.~ q q X.r & . Q.LXLX` h $.$.~ 5.6.9.w.w.K H / } j d 0 : n.M.Q ' Z.p.Z.A.%.- o o : o # & & o = 4 > = = 5 0 > = 0 0 : : 0 0 > > 0 s 7 7 q , q ! -.-.X.Q q 7 * * 8 A A d aXLX=Xc c h > O = % 7 q s q q ! %.N.C.C.ZX3X2 Q W 2 Q m.m.Z.~.d.%.=.N.N.Q ,.<.g CXLX`.u.i.U U 2.2.Y H K Y U D ~ &.,.M.XXoX,XcXM.z @X(.(.<.j } <.N.!.,.,.<.~.~.D.D.v.v.t.t.h.l.}.7X).).X.z.`.Q.k M.W.@X@XE.E._.&XLX$X+ & 0 } d 0 0 e , 7 q 7 7 8 8 r ` ",
", tX<X& $ 8 F D I 3.r.r.r.#.7.u.y.{.{.[.h.@XLXtXd , 8 8 q A s q 7 & $ , ;XLXC.q A 8 q r q a 0 3 d l a = : : : - 5 FXLXKXM.a n.l ! a.f.H.0.0.Y 6.a l z M.M..XLXHXM.d N.N.F.N.<X2X-X,XxXaX6X$X=X=XE.$X,XrXFXbX$X.X.X$X.XM.V..X.X$XrX%X.XW.$X@XW.N.h a a l @XeXpX6X#X#X`.$.a <XLXLXZX.X.XxX2X XW.=X;X6X;X$X$XM.c .XsXJXM.= # o # - i i h $.a - - y 4 5 u a k FXFXa 9 v.h.} A 8 M A / F S F ( *.%.g W.l HXNX$.q W C ~ Q s Q s , 8 S B I 1...7.h. .A } ! d Q k.*.~ a.j.+. .} #.<.} -.-.#.-.} <.CXOX8 A C 8 8 r 0 q A C M M F J D [ r ",
", tX=X, * S d.s.t.j.v.t.t.j.t.u.T ].].'.j.(.JXsX$.~ S K N Z / <.<.q : : W.qXN.: A ).}.eX6XsXsXsXtX;X<X<X<X_.;XtXsXaXk =XtXOXtXpXv.6.J.e.K V 4.v.#XaXGXLXLXLXLXLX1XyXAXBXiXwXzXHXHXHXCXGXnXsXvXxXrXbXHXLXLXLXDXDXFXLXLXLXHXLXLXLXLXJXbXvXvXbXSXLXLXSXvXfX<XaXBXZXJXCXmXBX*X,.W.$X;XqX<XrXDXLXFX,X1XaXvXBXvXCXvXAXLXLXaXE.$XMXHXCX%X.X@X@X;X2X%X=XXX2X-XoXuXJXLX;X7 , r j R.W.N.,.d w 7 , q ~ ! h V.N.JX$Xs l.s.{.D.D.D.s.[ 5.4.4.2.K U 4.w.u.v.T.'.'.[.[.{.P.v.v.v...d s 4.v.t.v.j.v.2.A .XLX%X< / ( A A C < < C 8 M V J J K [ C ",
"^ nX;X: , 1 s Q a.Z.D.D.~.).D.l.v.T.v.'.~._.ZXnX#XS.f.5.j.s.o.<.!.N.N.,.h d 0 q A ;.9XVXpXaX<X=XOX@XOX<X;XM.d h h i = i @XW.E.#Xv.6.0.e.8.8.e.f./.`._.;XW.M.M.M.M.,.z ,.R.N.M.M.C.N.,.R.,.j } &.,.M.W.C.B.v ,XlXbXbXCXiX@X:X:X@XW.b @X;X*XQ.W._.pXSX1XQ._.b z h l 4 4 a e : 3 3 0 $.$.h c JXHX.Xu k z E.Q._.W.W.=X&X@X@X@X;XsXGXZXZXnXnXSXJXnXsXCXLXAX1X:X;X:XsX9X6XqXiXCXLXLXnXrXvXsX6X#XN.;.^ V.#XLX<X~ S [ f.v.9.w.w.e.f.e.e.w.[ 2.0.J.J.J.J.J.].'.J.J.J.].K.J.0.s s 9.0.U 8.K L Y 8.@XLX%X, =.p._ ! ` W Q _ ( 2.x.f.w.e.[ o.",
"d rXsXM..XW.C.C.C.N.(.S.<.S.A.A.S.S.;.v.~._.fX>X,.B D M q q B B S A | ` d 1 q :.X.! &.qX8XE.M.M.c l c a d } ! Q ^ Q q * : , 0 d s.v.H.[ w.x.f.[ / ..0 w , % 7 e C C ( ( ( ^ ! ! A 8 , 8 q A C A A 8 * * o XXKX1XW.N.~ ! ! -.@.r r q ! A } @.! | h R.l 4 w : : d s d d 0 q q q A A C q 7 : @XMXXX4 w d w : 3 d w 0 w e s r : , s ,.<.<.<.<.<.S./.*X8X7X*X^.<.<.S.~.#X(.R.M.Q.%X;X;XdXLXJXqXN.` d h (.LXnXl.5.[.x.v.i.9.J.K.H.K.K.K.w.[ 9.0.i.0.9.Y 0.i.'.L.T T J.4.3.X. .1.J.H.e.0.H.8.8.!.nX@X- Q ' Q d 2 p p q ' [ ( 6.1.[ ( ^ ",
"  5 MXLXLXLXLXLXLXCXkXhX6X`.3X)./.`.(.,.~.`._.!.~ A z.(.#X_.!.~.< D D X.>.>.>.>._ r 0 W.rXW.M.M.E.E.h p s A A A +.( W =.X.^ | ` w , , & % # + , % : : 4 i D G G [ [ e.{ L [ 5.6.4.2.K V J U V N J V V D q sXCXj , n N K 8.J 2.2.1.6.D V U 1.5.Z W ` h q ^ o.D.D.~.Z.Z.D.!.A.D.2.L.L.v.k.Q N.qX$.s r C , r ~ a.A ! A C ~ / A ( ....I B B B B D V B B 8 B B A ( o.5.X.! 0 & 7 } } j E.aXkX&.w o.$.c l LXJX/.D.D.l.D.v.v.L.P.L.w.v.v.5.( a.a.7.( ~ A F  .j.j.u.u.L.'.J.f.2.J w.x.v.[.[...r $XGX=X> - i > > 1 = o = : 8 , < C 8 p = ",
"- : h W.@XXXrXGXLX6X<.j.h.;.D.l.l.v.k.-.<.;.} ;.v.[.7XkXnXLXnX9X0X7X4X!.k.s.5.o.=.` C._.tXtX6X6XqX$XF.*./ ( w.5. .} =.d._ / ! w &.C.OXqX<X<X<XxXGXHXHXJXZX^ V Y 8.x.L.2.K { e.e.8.L H H H H L L E ].E N 8 6XwX: M w.H.H.Y K L L Y Y K Y K 0.L.6.8 0XpXW ~.4X}.{.D.f.[.[.}.~.1.8.e.J.J.s.X.<.+Xn.q C < + 8 / 5.5.s.( B S 1.1.Y 0.J.t.u.u.t.9.Y K U 9.U U 4.1.( G D 1...G ....N D  .e ,.s 7 ^ Z.N.1XoXoXv 5 4 3 4 u 4 g h h ,.&.j d d M.C.M.v v v b v l l l ,.,.N.<.-.$.$.s w d M.l c v -XzXHXHX1X.Xn.l l M.k u n.0 # o # : X # 4 ",
"6XS.S 9 } s - g .X;./ J 2.6.w.x.L.[.x.v.6.1.1.x.'.u.h.$.o oX1X$.Y.}.}.3X}.x.9.w.U s.s.~./.}.).!.S.(.N.l.1.K J 6.l.!.<.N.N.<.(.pXvXMXGXFXGXLXLXLXLXLXLXLXCXW.U 9.9.e.w.H 2.{ K.{ J L G.H.H.Y Y E R Y Y V C nXLX(.D.w.9.0.H.J.J.H.J.L.x.i.9.Y J.v...0XhXS.~.[.p.Z.S.d.( t.T.t.x.J.H.f.w.[ ! #XKXOX0 r C 8 ( / 1.G D S ( / G w.0.0.J.L.L.i.0.e.H.J.J.J.0.Y D D D M m Y J.i.J.Y L U V 6 !.!./ ( o.!.<X1XwX;X@X$XqXaXaX-XuXzXaXvXaX:X=X2XMXMXsXMXMXsXrXrXsXaXHXDXbXLXJXCXvXaX>XQ.XX1XuXuXbXbXzXzXFXJXLXZXvX,X-XuXzXJXLXLXfX1X&X;X6XsX",
"%.D.v.[.~.l.%.;XsX( U K.L.L.].L.J.L.L.].J.].].|.'.J.t.s M.cXvXj r.t.l.}.}.~.8.Y Y i.4.t.7.j.v.v.I ).).'.9.w.w.6.7.!.R.M.#X8X#X&.l M.l n.n.g 2XLXnX_.N.<.N.!.i.0.0.0.Y J J [ e.[ [ 5.f.f.w.w.6.[ [ 6.6.W ` JXJXF.Z.f.w.K e.J.e.e.f.v.s.6.6.8.9.v.l.k.,.d &.S.F.F.Z.4X4X4Xj.B D 6.[ [ 6.W 1 wXLXrXi h 0 :.p.C ( ( _ ( p.=.J Y 8.{ J.J.9.e.Y 0.H.J.0.Y w.V < n N D B H J.H.Y E E E V 8 9X<.8 ( [ ~ s j h %.,.$.$.j a z 1X$X(.$.d &.j d a w d ,.h w > 3 0 a l .XXXQ.@XW.M.W.@XQ.E.E.b b v l g y y z _.@XE.-X,XDXLXqX6X&X@X&X&XQ._.N.",
"^ 7.I 2.w...%.nXZX[ H Y J.L.].P.K.L.L.].].].].].].].v.e =XLXJXw +.V V i.v.D U 0.Y Y 9.0.Y U 1.U B _.pXl.w.w.f.6.p.l.#.$.$.R._.&.! s s p 1 # W.nX(.r A C S 8.0.0.0.0.U 1.J 8.5._ i # # % & % % % % + + . $XLXCXi % q _ 5.5.5.p.s.p.=.=.s.a.5.5.=.0 : 5 - g a a b.` n.` %.^ 0 , , * % @ + . .XFXv   O = 1 p p p s C / W C A G 2.6.f.L.v.v.u.x.e.i.9.c.o.C A o./ A A D D J L 8.Y J...N.MX(.r | < % 8 A q 8 C A _ X.A e } %.X.X.X.X.~ | r r | -.&.-.<.A.-.-.s - o 3 w h Q ! -.,.<.&.h w q q q , 7 7 : = l GXKXLXGX: , ! } } <.A | ^ ",
"D.D.v.6.f.j.%.wXZX( V 8.K.].].L.L.[.J.L.].L.J.K.J.L.v.s @XLXCX: 8 f.J.0.Y 0.9.w.V H H w.Y U 1.j.8 _.SX}.v.v.s.p.5.;.X.X.^ ^ -.;.;.>.=.' Q q _.kX!.+.s.6.w.L 8.e.e.U w.w.0.i.D.M..XV.E.W.M.a 4 i 5 y g x oXHXvX.Xh d , 7 : , , % : d 0 : p q % : 3 MXLXaXE.W.v f y - - O o o . . : 4 g V..X,XNX,XXX$X XV.n.n.n.$.7 7 Q Q h ! A } ! } <.<.r q q A -.e $.$.h m.h d ,.0 : r A _ I F j *XLX<X5 3 0 d ! A ( o.s.s.( I D I  ...6.f.f.6.[ B  .+.7.j.o.a.D.D.l.f._ d h $.*.;.d.s.s.;.;.o.=.( 7.j.j.1.6.c.C : C.LXLXLX).< Z ' i E.pXS.6.s.",
"h.a.Z.o.d.*.M.CXLX_ F x.x.D.v.v.D.[.P.L.{.[.v.L.x.w.s.! n.HXLX5 X D.L.[.'.{.[.c.s.7.( s.v.S C d.q wXSX~.v.v.s.o.X._ C ^ X.! W C p.Z.Z.p.' Q R.;XD.s.f.q.e.w.f.P.f.6.w.x.L.i.v.#XGXLXLXLXLXLXLXLXLXLXLXHXNXcXcXJXZXsXsXsXtXsXtXrXnXsXwXtXZXZX8XwX@XaXFXbXzXMXAXFXbXcX,X=X=X=XW.wXsXxXHXLXLXLXLXzXCXLXLXLXLXLXLXGXaXM.R.N.$X;XM.a k z k k E.W.W.M.l W.2XXX.XOXXX$XwXXXc g 4 h e w 4 b aX,XI.XX=XC.+.( [ ( ( [ ( [ 1...A 5.f.e.w.K N n V 4.6.D D G 1.1.D J / &.jX#Xo.o.s.c.c.j.7...6.f.6.w.w.w.w.w.5., n.HXLX#Xq Z [ m.1 l eXS.=.s.",
">.>.>.:.h h =XLXCX$.! A C q 8 8 q A C B / +.j.D.D.v.c.^ @XLXLX1X: & S 5.o.a./ r q q r 7 , s ' m.p XXZX5X).~.o.;.,.&.m.+X+X+XZ.' ' W ' =.` d n.$Xk.o.p.6.q.s.a.s.p.d.( p.D.f.c.^ ,.1XuX2XzXbXHXHXHXGXCXNXCXBXvXdXaXrX<XfXJXCXdXLXLXSXCXCXAXLXiXaXaXuXfXJXLXJXLXLXLXLXdXvXLXLXLXLXLXLXJXNXbXbX;XW.W.tXvXBXAXJXMXaXCXvXdXwXsXmXCXDXFXCXvXdXvXvXGXsX=XdXCXGXJXGXLXGXLXLXLXLXLXLXnXwXsX=XQ.uXAXnXsX7XD.c.6.6.( [ 6.5.p.^ Q p.2.9.9.i.4.U V V Y Y U 2.2.2.8.[ o.N.mX8X;.a.h.3.I ..G D 5.5.5.[ ( 1.[ U 6.r .XLXAXs C ' m.m.p &.6XS.S.S.",
"qXtXjXGXLXLXLXCXHX#XN., % + .   # 0 , , + + X X + + $ . &.aX1XJXLXwXS.s q 7 : d W.&.M.N.h 0 - = = W.LX8X: 7 Q <.N.V. X<XrX<X@XOXC.C.n.C.OXV.V.,Xd : } *.Q Q ` p 1 0 p p p 1 p p e k k k a u a g g a w 4 3 3 5 z ,.d b E.W.k u l l M.b a k M.R.z z Q.@XW.W.R.R.E.M.M.M.XX,XHXaX,.h j a 3 w j q 7 7 7 & 3 j ,.&.d z M.d q 0 n.<XKXLXrXR.Q.R.M.a g a 5 l Q.M.l M.N.M.XXdXLXLX;X+XN.(.W.M.,.R.R.!.v.a._ _ =._ C q q p 1 C.F./ 1.1...7.w.w.v.v.v.x.v.w.[ 2.s.*.d g g 0 | ;.}  . .A 8 C ^ _ ' =._ _ M 8 # v LX1X: W h ` 0 > =XsX8X6XjX",
"_.;X;XeXMXxXC.a l ,.R.M.;XxX.Xc N.6XsX6X;X>X@X_.W.,.(.R.(.XX=X=XbXLXmXqXqXtXwXMXLXZXLXLXLXZXjXsXqXpXkXkXW.n.vXCXrX$Xc C.c h $.$.,.$.w 0 h a M.rXpX@XC.&.:.s ` ).N.-.(.OX).F.(.S.,.a a w a a 3 4 a ` n.N.l s } -.k.-.! &.h h ,.d 0 & : $.N.N.S.<.<.@.#.| r q } N.Q Q p = u aX#X! ( / A 8 B G p.o.a.v.s.A I A F / +.A 8 8 * : i NXHXM.e } e 0 = 0 w 3 3 w 0 : 7 0 : 3 a _.j & p W Q 7 q 8 * & : # # . .   . . o o   o <XwXh s q 1 s ! _ _ S S q ! ' =.' ' s a .X.X- - 3 > 0 0 : . # > h h p - t : > - XXLXbXO 4 4 O o g 1XbXZX6X_.",
"a w a a w 3 d ,.&.R.R.E.XXXX@X@XC.N.N.R.&XsX$XW.(._.(.!.N.&.l l a l N.N.N.N.(.N.R.N.(._.#X5X#X(.&.,.<.N.&.N.ZXLX>X>X6XeX6X#X7XhXhX3X3X#XN.j M.Q.;X;XW.$.(.#X9XVXVXkXpXeX9X7XeXhX#XC.X.! ~ } &.} j %.` m.S.-. .7.c.a.~ q ^ >.^ r -.>.-.k.;.a.k.l.k.k.h.+.-.+.l.D.D.D.d.=.;XnXS.( f.6.6.1.w.e.f.P.x.w.w.v.u.J 6.x.{.{.c.S M , = rXJX(.~ } ! 7 , 0 h h l ,.%.-.S.:.0 : w ,.!.Z.s.' p.o.B B B M.E..XW.W.c V.OX$X$XXXV.2XLXLX6X(.3XjXpX#X).-.r S %.<.S.(.m.:.N.;XLXLXAXxX<XrXrXrXwXV.C.$X%X$X@Xc n._.nXLXLXLXLX@Xl W.1XbXuXE.XXwX&.j ",
"#.$.,.j P } r e <.@X$XXXXX.X.XW.W.<.;.,._.pXR.%.<.S.-.<.S.N.7 %.&.&._ *.*.>.A.<.D.z.#. .X.-.k.D.-. .#.-.~ *.wXJXSXZX(.~.~.D.v.v.T.j.t.j.z.} e e <.,.m.-.>.<.#.#.Y.~.k.!.~.z.#.l.~.~.j.r.G ( X.,.,.$.&.<.!.N.=.o.a.a.k.Z.~.S.<.N.<.!.l.z.j.h.k.z.#.!.!.k.;.k.~.D.Z.D.Z.Z.;XZX3Xo.5.s.( 7.s.v.v.v.v.v.v.r.+...v.w.v.v.6.S S 8 w iXfXN.A A ;.Q ` i y h h h ` ` p ` m.` h w <.Z.[ f.s.7.1.( w ;XGXaXnXsXnXZXMX<X=XsXGXZXSXZXVXhXhXkXgX5X7X5X~.z.5X8X5X(.,.N._.Q.XXvXvXMXLXLXLXHXLXLXLXLXLXMXJXJXnXsXmXSXCXaX=X*XM.W.=X:XQ.b _._.&.R.",
"Y.z.!.<.z.h.z.#.!.*X*X@X$XXX@X$X<.X.l.<.!._.$.%.*.>.^ ;.l.D.~.~.!.Z.c.c.D.D.c.l.v.v.v.v.a.j.h.j.j.l.l.a.=.~ &.9XVXpX#.j.v.v.u.U U U t.u.t.t.v.+.+.h.l.7.o.I 3.I U 3.j.s.v.v.v.j.v.T.'.'.v.v.s.,.n.,.,.(.N.N.<.S.S.(.A.A.S.N.N.R.D.D.l.D.~.Z.k.z.<.N.A.d.d.d.A.-.S.(.S.h M.nX(.~ a.Z.p.=.D.~.c.7.j.v.+.+.l.j.j.v.v.v.1.G Z < a <XXXq W ( *.s p h h V..XV.$.n.` n.F.' 0 W.(.=.f.f.6.( [ Z &.BXtXN.S.j &.,.j w 0 d $.$.,.#.<.#.O.#.-.D.S.X.z.~.!.(.N.} e r e 3 5 l $.n.N.M.h a h l .X<X$Xl l a h s w d j &.&.-.&.$.a 4 3 s +XR.<.!.",
"z.Y.z.z.z.<.S.-.!.&X@X@X;X;X<X*X!.l.j.<.N.j l N.*.>.>.k.z.D.D.l.D.l.f.c.D.D.s.j.v.j.v.v.a.l.7. .A _ _ A / ;.^ <.S.#.o.j.f.x.U 0.i.i.U J.].'.[.{.v.u.u.v.v.w.v.w.x.v.f.s.6.w.[ G u.v.L.L.L.v.f.N.N.N.N.N.N.N.N.(.,.,.,.&.N.W.(.W.3X}.}.3X).).(.S.N.(.m.A.F.F.S.<.N.C.a g zXMXl ,.N.-.A.(.7X5X/.!.S.N.N.S.A.d.>.=.=.l.6.S G C l GXvX&.' ' ` ` $.c .X<X2X2XwXqX6X6X+X` 0 tX6X` ' ( ( ' [ A R.JXtX^ o.+. .+.+.+. .o.p.o.o.o.A W ( ( / o...5.s.a...o.X.A ^ ! *.} e s ;.d.*.| -.-.r r $.@XxX#X&.h w , * & * 8 ..+.>.:.,.<.=.p.~.N.<.Y.",
"z.Y.Y.#.N.N.n.h l XXW.@X&X;X>X@X<.#.z.S.R.&.$.C.S.S.A.S.S.;.;.S.D.D.f.a.5.5.p.a.X.o.;.W >.A.S.)./.F.S.N.N.S.:.` Q ^ ( a.s.5.6.j.u.i.'.L.L.L.x.x.v.x.u.u.x.x.{.[.x.x.D.D.s.D.c.v.s.s.c.[.'.{.D.>.(.R.M.M.M.M.M.M.M.E.M.a a k M.M.Q q Q ` d h h $.h a 1 p n.m.d a 5 o 5 1XLXGXl : h h d N.(.R.N.N.(.W.W.N.,.,.$.&.$.>.>./ l.!.W.MX1X0 q ` h l M.c c c v .Xv v c g t - i aXE.; 7 q Q s A 7 3 sX7X( Z Z A o.s.7.7.c.s._ *.&.&.p p p 2 p q s p p r r ^ ~ ` ` $.&.%.| -.>.=._ X. .I h.Q OXwXN.! X.X...( ( ( 8.9.L.v.s.;.o.{ q : d N.!.",
"&.$.} } h h i g c b z a a w a d a 0 e d g M.a i 0 ` N.m.,.&.N.N.&.` ` *.%.q , 0 %.h d d $.n.N.C.(.V.B.C.C.C.&.p $.N.=.~ X.;.>.^ ` -.4.u.7.j.D.[.j.c.D.~.~.D.~.}.}.~.D.D.>.S.~.D.D.D.D.s.../ 0 a l N.W.@X(.@X$X@XvXJXMXBXiX&X;X;XN.d l W.2XvXMXZXAXnXsXsXqXqXsXnXLXHXHXvXbXLXLXnXsXMXsXeX*X*X*XW.;X;X;X;XsXGXsXrXtXeXN.$ : d E.=X2XC.- g c c v oXv g v v x x u u u v -XKXzXW.E.M.M.b E.l =XLXkX<.o.z.<.-.<.X.^ >.>.-.,.N.M.M.M.$.a 0 = - > - - = > > , : - > 0 : , : , : 7 7 6 , w sX7Xj.T.v.t.u.w.u.x.].|.|.'.i.9.U _ p %X%X> : ",
";XR._.;X@X.XE.v v XXb z &X*X*X*XE.k l n.b aXrX$Xh a a a 4 i l g g a 4 > > w a l y > f f c V.V.v B.v v  Xv a f - > i > : w 0 - i l M.$.A s 7 + + + X + % $ & & & 7 q 7 1 : % % * * , , * $ 0 M.1XaXsX6X5X6XpX6X@X;X;X#XfXSXZXZXSXmXnXMXCXLXKX1X=XJXZXiXiX8XwXZXVXsXCXrX.XM.@X;XW.W.#X#X_.(.6X6X#X(.(.W.;XwX1XzXLXLXLXwX@X@XV.Q.XX2X;XW.,X=X1XuXcXCXLXLXLXHXLXLXvXnXmXnXDXlXvXzX1XuX1X=XdXAXLX&Xe A.<.R.N.N.`.*X_.(.W.M.&X=XXXXXXXE.c oX-X,X,X$X$X,X@XW.W.M.E.N.h d s s N.N.N.N.M.$XnX&.*  .r.+...u.T.v...C * * 8 M A 0 h nXLXGXZX",
"vXxXCXZXSXLXLXLXLXLXAXBXLXSXpXiXrXCXJXvX<XaXFXMXxXxXxXxXXXOX<X<X2X2XXXXXXXrXLXHXbXFXFXlX,X2X2X,X,X2XoX.X.XV.,XzX2X=X2X-X.Xv oX Xv  XV.v c l V.V.XXE.v b c x c y O > u c V.g y g g h h (.sXvXLXLXKXxXW.h #./.!.h w : : s N.N.N.N.M.M.XXNXcXk 5 - 3 w 3 : e $.,.} q 7 0 : 0 0 0 e s s %.| <.-.} s } j 3 : w O k bXfX#X#X=XuXuX=XrXLXZXsXsX8XpXZXVXZXLXsX;XW.sXsX@X@X;X@Xu u c v c k u a E.sXZX>X<.<.(.(.N.&.R.*X#XR.d a _.;XiXaXaXaXzXcXDXbXzXvXFXnX;XbXHXbXvXLXJXkXkX6XpXeXnXmXsXaXW.<.;.h.h.j.c.r.j.l.X.| !.S.S.! q ^.:XQ.uXCXKX",
"M.M.M.(.^.R.(.*X8XFXLX;X<.} <.<.<.*X#X@Xn.4 h C._._.(.;X@X:XfXaXwX9XeXjXpXsXZXLXLXLXLXLXJXnXjXsXsX6X;XiXZXBX;XiXiXvXLXLXLXLXLXLXFXMXMXMXaXrXzXbXbXLXLXLXLXLXMXxXxXrXrXCXLXJXFXHXLXLXxXGXLX=XE._.Q.;X@X,.*.l.h.X.! A 9 < , * q & # . O bXLXtX& 7 A B A 8 I F 8 8 B ..X.k. . .l.A ~ ~ ;.;.D.l.+.+.S } S q q 3 a ;XN.8 j E.uXk u 3 w s w 0 z <.(.-.e w 0 : 0 4 - 4 d h } h -.#.&.&.&.j w n.<.,.!./.k.S.Q d ` Q $.N.-.Q d $.,.l ,.b =XCXxX$XOXOX%X%XN.a bXKXXX4 N.N.%.} w w d d $.l d #.!.~.~.~.~.l.j.#.#.A./.3X(.S.<.<.!.R.z z z l ",
"h.h.+. .I I F A e ;XnXN. .v.l.h.#.Y.z.-.>.| Q q 7 r ! } w z W.,.#.t.j.~.~.Y.Y.<.<.<.<.#.z.h.#.h.!.<.@X_.(.R.<.,.l ,.@XsXkXkXjXpXkXpX6X#X5X;XOXM.l W.pXtX;X$XC.N.(.,.j M.@X$X;X1XvXvXl a h 0 0 : a $.m.m.d...( ( / F C n C A X.8 % + i GXLX7X8 ( D K H J J U V V J 1.S G U V * * 6 C ( S M G 7.3.F I +.S C < s eX`.C e E.zX&X: e A A A 8 P P 9 8 F  .+.k. .-.z.}  .^ ;.a.~.l.~ A e } e a 6 8 q C W _ < ' A.=.:._ Q ' W W W r s d OXaXl : : 7 < , * & 2XFXM.` _ _ =.=.:.>.*.s S S  .( 5...7.j.l.j.t.t.v.~.[.S.=.k.v.h.o. .+.l.#.#.",
"6.6.s.6.2.2.[ D M *XgXh.G i.T.j.j.T.v.+.+.+.+. .~ o.o.X.r l _.<.I U I I U I V I I I D D V U '.|.t.3 ,.R.} I  . .W B P P S S S A A A I j.Y.~./.-.@.<.!.#.@.#.z.z.k.l.#.@.$.} &.a E.<Xl d ^ =.*.! -.A.k.l.D.6.6.6.+...B S 6.o.A r s 1 i FXLX#X0 Z [ K [ [ 2.K Y w.e.K 2.H V N n M D B S C S 6.~.I ..D < n D , S.MX#Xq ~ C.$X(.q a.J 8.J J U 2.V N J 2.D 5.1.D < * M C ( S C G +.+.r  .+.e D 3./ A C C C _ _ C ( _ C C A S D ..X.s h g 7 8 C F D Z < &.ZXvXs o.[ x.D.s.c.s.5.s.w.w.w.2.2.u.u.v.'.[.'.{.{.[.[.[.[.[.'.J.9.U U t.3.j.",
"K K 8.e.J.8.{ [ D *XhX[.w.8.v.v.v.~.~.T.'.T.u.t...[ ( ( / (.6X;.V E E Y Y T T i.i.J.J.J.].|.].]./ d (.). .U Y w.9.Y H U r.4.4.U U y.'.|.{.'.h.l.7.j.v.T.j.T.T.~.[.[.T.t.+.+.+.&.W.qX&.*.p.p.p.=.p.=.p.a.5.6.u.9.6.1.[ S F C ! ! d = l LXLXsX: C C M C < M J J [ f.6.f.v.v.3...( / 8 8 < C F k.;./ A B C W 7 l CX@X, A l .XM.A [ w.8.2.2.2.8.Y i.e.K [ V V N n M D D ( D [ v.T.F X.h s d M < C l.k.r q C p.( C ( 5.C C D m V A ! a h ` ~ F V [ J 1.<.ZXJXD.B 5.w.v.9.8.9.H.H.e.K.e.e.[ 0.J.J.J.J.0.'.'.L.L.i.J.K.K.K.J.J.H.J.Y w.",
"J.L.J.i.e.e.8.w.S (.VX}.[ w.s.s.c.D.[.'.u.u.v.6.t.w.q.6.a.@XkX3Xi.J.E J.E Y E T J.J.K.].].J.Y Y ..-.;X6X( Y E E E E E 0.J.J.J.K.K.].].T Y U 7.7.t.3.I D +.+.j.v.t.v.'.w.4.f.6.%.(.eXm.' s.g.D.D.f.D.s.c.f.c.L.w.[ { 6.( o.W s q : 4 rXLXLXHXw # % + + # % 8 ~ =.;.a.d.;.<.<.-.*.s & # # # + - > - : # + = o 2XLXbX: 2 g v W., ' ( S S M S 6.J 6.f.6.w.v.r...( o.o.9 q 0 C ~ -.i t t i i 0 A D.}.hXhX9X4X0X7XD.4X0X}.7X0X|.{.[.`.;XZX+Xr ( [ J 1.( &.BXJX`./ [.c.v.v.u.i.J.H.K.K.f.f.[ w.u.w.w.6.4.U u.L.[.t.t.J.K.J.J.8.J Y 0.w.",
"{.{.[.v.j.v.x.a.9 iXJX#X>.Z.D.l.l.l.D.v.j.7.s.D.v.6.s.s.| XXBX#XI '.].K.J.J.'.'.'.J.].'.L.w.J 9.a.M.sXnX~.'.].K.E E E J.'.K.K.].K.J.K U v.j.+.o.+.+...+.r.+.z.l.a.a.v.6.6.6.6.=.+XtX*.( a.d.Z.Z.6.Z.D.~.D.s.s.s.6.s.a.o.p.Q a $.h 4 .XlXDXGX.X- a N.W.%X%Xl w $.d d d 0 : a i a $.M.V.c g d c c V.OXn.i 5 v DXKXLX;XN..X-X2X4 7 , % % # % q : : 0 q 0 0 e d w - O . . o o o o O O   o - w M.(.M.M.N.M.F.N.-.<.A.^ s m.4X).! -.d W.GXqXd _ q q q 1 o zXKX#X<.A._ -.+.h.s.f.x.6.v.c.a.o.d.k.;.d.;.I } ~ X.-.r.T.v.[.v.p.p.5.s.v.~.",
"& $ & 7 & & 8 7 R.FXbXM.h 0 r ! *.! 7 *.;.^ ` Q q A ~ s 3 b cXaX& * [.|.[.t.1.A ......G _ A 8 q r j 1XfX,.B '.|.|.'.'.'.[.'.'.'.L.v.s.l.).).A.m.;.;.z.D.<.N.<.<.S.>.;.o.X.*.>.` 6XwX,.p.k.>.>.d.d.d.>.d.=.X.=.=.p.d.X.$.M.$X=XC.l l XXcXHXFXHXCXSXLXLXJXLXbX2XtXsXnXkXpXrXLXLXLXJXLXLXLXLXLXLXLXLXLXLXGXMXbXcXuXNXCXsXaXuX-Xc 4 - 4 g E.v v I.v Q.E.k k k XXrX;X=X<X<XrX<X=X=XbX2XoXxXaXwX;X<X@Xl b k g n.&.R.N.Q d h &.S.(.0 o =XLXLX;XF.n.$.l a k zXlXl d &.> > - 0 : 1 p r e q e r w : d &.> 0 3 & X . & : & $ , 0 i q 0 7 7 ",
"j - = - 3 w 0 w >XJXCX@XM.l a 3 > 3 w w d d h h d a a g g &XcXvXw + + & % $ + X . X . X X .   X o 5 -XAX@X. M v.~.A 7 , , 7 , , * & % + % % @ 1 7 , 0 w 0 : & # # : : # & : # = =XrXn.Q q Q s , : q r ! ! ! w 0 1 : - 5 aXmX#X6XeXkX;X=X=X$XaXJXCXfX;XE.E.1X=X=XXXE.@X;X1XaXbXCXFXHXLXLXLXLXGXJXHXsX6X6X_.R.W.&XXXb N.W.&X>X6X;X;XqXtXaX=XuXzXdXsXiX>X;X;XsXsX6XsXsXqX$X$X;X;XbXFXsX;XXX;XsXLXLXLXLXLXKXLXJXVXSXZXZXJXVXVXSXpXwXSXCXnXMXGXGXZXsXjXvXbXFX<XW.tXmXMXnXvXaX<XXXz ,.,.&.$.n.W.@X@XM.R.W.W.W.W.(.R.M.W.W.W.V.N.N.,.l ",
"JXMXvXxXkXVXwX<XiX>X*XwXkXpXaXaXrX<X=X*XSXJXmXnXvXvXGXHXcXuXzXCXwX+XM.W.%XvXCXsX=X=XOX;XnXsX;XnXnX=XdXbXrXh % o - 4 w a l d a w a a 0 i i a n.rXaXOXN.&.d g W.;X;X;X$XW._.&X@XW.ZXLXGXwX%XqXwX$XW.V..X=X=X.X$X$XOXv .XNXLXJXr ~ @.#.$.a l a g M.l j &.&.,.&.a 4 w 4 w w a 4 y > h c =XHX2XN.,.$.7 & -.h.h.Y.A r d s A 9 e 0 q s e s s w 4 @X@XN.} 0 r e 0 7 7 q } s 7 0 0 7 e w j } s d e j j w M.$X1XCXAXR.<.;.<.D.~.<.r r ~ #.R.z h l E.@X(.N.(._.W.OX_.N.6X6X%X<XwXMXLXLXLXJXsXqXtXjXeX;X6X#X_.6XpXkXnXmXjXsXLXLXLXfXsXSXSXLX",
"@XW.OX%X8X*X`._.@X^.R.R.R.!.W.W.OX@XE.R._.*X6X`.Q.M.XX=X.Xl M.wX6XeXxXnXnXJXLXLXLXLXwX6XeX9X;XpXsX;X=XvXMXtXtXsXsXkXnXZXVXBXfXiXnXnXVXLXJXLXLXLXKXbX%X+X#X6XeXpXVXSXVXkXVXSXJXSXnXsXvXnXnXMXZXGXLXLXAXLXLXbXbXFXJXFXvXxXnXsXS.;.* 8 8 , & = # : 7 ~ a.~.!.&.0 w d d e d 0 : : : 1 i M.xXE.&.;. .A F t.t.2.4.1.+./.^ ( 5./ C C W _ _ +.I r } | o.j.a.s.7.o.X./ -.k.k.k.D.~.!.l.~ / ..1.f.6.( 8 7 : > - XX6Xs q S / o.A A C Z ( C q ~ s 0 e A } A q 9 } ! A } X.~ s 0 > 5 I.KXLXiXn.$.:.(./.!.(.!.@.R./.!.R.S.| <.M.AXLX>X,.!.^.;X",
"t.h.;.S.Y.~.~.h.r.r.3.t.v.v.l.+.;.;.;.I B B A I -.r & & , q , 9 A h.-.! 1 q w M.CXSX} V U I  .A q } w ,.(.S.S.N.Q *.-.N.N.N.N.,.N.R.(.;X#XwXHXLXKXMX` , A _ W 8 | -.} } } | ! @.@.s e h $.$.&.N.#X_.M._.6X@XW.;X#XC.c a 4 $.3Xj.J 1.1./ C q 7 q C M V N M M A | ~ r A ! ~ A q q 0 , w M.& . * n J w.1.J K w.a.-.eX^ < n * Z [ q.w.8.w.U 4.4.2.8.f.f.6.1.J G [ 7.7.....s.c.x.6.G [ 9.0.8.f.s.[ ( Q p n.ZXmXC Z K [ f.w.[ [ [ q.J D ( 5.F A I 3.I I  .A C ..1.6.5.5.( W & O aXSX/.o.a.k.k.D.D.~.l.z.k.;.j.v.t.u.f.} Q.LX6Xq D I U ",
"t.6.M % 8 3.v.v.w.4.6.e.e.e.i.u.w.2.t.i.x.w.4.i.v.D.z.;.X.I G D U U 3.1.( ..8 h JXnX!.J.].'.'.t.F 7.8 8 B G [ S ( ( ( ( o./ ~ ~ A A / D.!.&..XKXLXLXC.< B D [ ( 5.p.3.A A ..F I  .+.h.o.X.} X./ A 9 A A 8 8 * 8 8 8 C 0 q e A ..K u.2.1.s.s.o.F D V J H 1.1.1.1.( B S D F ( M M F D B M C * N D { a.6.6.s.x.d.,.wXn.+ * 5.P.P.f.e.Y Y Y 8.9.J.e.[ [ S  ...2.8.w.U V J 2.i.v.u.1.G J 2.8.f.D.P.6.' ' W mXJX( n N H K [ [ { { [ K K 8.w.v.1.[ [ [ 2.6.5.[ 6.[ [ 6.2.{ ( , d fXVXr.V w.v.L.D.x.v.v.6.S n V 0.J.J.8.F P ZXkXF i.0.J.",
"e.L.'.{.P.f.x.x.9.e.e.e.e.H.J.0.J.J.i.J.e.e.9.8.w.v.[.~.f.i.L.0.K.Y T 0.0.9.M N.LXsXl.8.R J.H.Y i.J.x.4.w.9.K H.{ w.w.f.[ Z G 1.1.[ [ 1.D q i vXLXFXS.[ w.8.e.w.w.x.9.4.9.w.v.4.4.4.4.D ..3.4.1.u.w.u.2.6.4.G U 1.3.u.v.L.v.w.x.e.2.2.1.U D G B B U U i.L.f.e.J.L.0.2.2.D 1.2.2.9.9.9.G ( ( w.f.D.D.v.v.t.v.o.M.GX$X# W D.S.Z.Z.f.J.w.8.f.e.i.w.[ C , r a.( { 6.J J w.6.x.P.D.f.6.2.2.6.6.w.q.f.d.>.%.p 1 < w.8.e.e.{ { 2.8.Y 9.9.e.6.j.x.6.6.[ [ [ [ [ { f.f.[ J [ W & N.ZX7Xr.e.e.u.e.e.8.w.9.i.w.x.L.Y Y H.H.6.X.8X7XU 0.E 0.",
"x.D.|.hXhX{.L.J.f.J.w.w.w.f.J.H.L.'.'.L.L.x.e.x.f.2.v.~.[.[.'.L.L.J.'.J.0.9.n R.LXsX0 Z L Y H.L.L.i.x.f.J.H.K.H.8.K { e.K.e.8.8.H H K K M < 0 =XLXGXN.( 9.2.x.v.v.v.9.9.9.e.f.2.1.w.x.v.v.'.u.8.9.i.w.9.9.u.8.e.w.9.i.x.J.L.L.L.J.f.6.1.J D =._.!.o.8.0.J.L.0.K.J.J.Y ..F ..v.s.e.8.f.l.D.a.a.;.~  .....+.v.+.R.JX2XO d +X$.i h ^ ( / o.a.5.5.a.D.F.m.#XVXD.C f.( ( =.( d.D.D.s.6.5.1.7./ [ 6.f.=.| e h +X~ D 2.5.p.[ [ 6.t.t.i.v.#.#X`.a.d.s.6.[ [ Z Z C ' p.( ( W W 1 @XvX@.9 2.2.6.w.L.L.{.{.{.{.[.[.9.w.w.{ C | 8X`.3.u.0.D.",
", , q ! o.o...j.v.7...F 3.v.p.s.~.~.~.[.v.j.t.j.6.+.!.`.~.D.s.1.s.6.j.v.f.v.A E.NX<X= 2 ( c.D.D.c.s.s.f.D.D.f.8.e.6.w.q.f.f.f.J.w.w.8.K U D S.;XHXLXC.~ t.7.j.7.7.7.6.f.s.6.D.[.D.D.[.{.{.|.0X|.x.x.x.w.w.[.L.L.L.x.x.v.x.'.L.i.x.x.w.t.v.G d bXLX_.2.9.0.K.H.H.0.H.J.6.;.A 7 , < 8 , 7 ! s } &.Q e 7 7 9 A 7 l CXLXvXW.g g y O o : d d h w e s h n.n.%XmX` 7 r - - p m.:.Z.A.~ C 0 7 7 0 Q :.m.N.n.l zXMXd 7 | ^ ` s Q ~ +.7./ ~ r 8X%Xw : & % # , 1 1 q , 7 Q ^ 1 1 > OXbX_.j 7 * < C / a.Z.D.~.).S.*.F | ! p : l sX_.~ l. .p ",
"> 4 > = } S.!.!.h.@.<.@.`.*Xh i ,.<.<.#.@.<.!.!.~.!.!._.!.%.N.S.>.;.~.D._ ! w =XLXKXv . . X + + : , w %.>.Z.7.( ( ( o.o.l.D.s.f.v.v.j.6.J.5.A.(.zXLXE.: #.!.!.S.D.~.}.D.*.*.Z.+X4X3X)./././.~.~.D.D.~.}.[.}.}.|.}.D.l.c.v.c.6.3.s.j.6.j.[.j.,.NXLX(.V J.J.J.J.J.0.0.w.6. .7.-.(.W.#XqX@XQ.W.@X8XZXZXVXnXnXjX_.W.aXLXLXsX<XrXJXDXzXzXvXxXCXCXBXiX;X@XvXLXJXl - 0 i h a i i d } N.<.N.n.l l l w = . . o zXLXg # > = . = - w w w 1 0 w 2X,XE.M.a g v V.V.V.M.w j ;XeX%XW.g oX,XNXLX;X$.n.$.i 3 = X . . o 4 a k XX1XzXDXMX$Xi h $.i ",
"LXLXLXGX_.<.N.N.`.jXZX_.R.*X.XV.V.a a $.z ,.,.$.<.R.,.W._.n.$.$.0 0 ,.(.m.h d aXLXLXLXvXM.g W.W.(.W.l l r , 7 7 7 w w w q q r A 8 q ~ A ( ( , 4 2XKXXX3 w h Q s ! Q &.i 1 1 = > h h i w w w w s s C ^ A.Z.*.! *.=.' =.A.D.D.~.).~.D.D.~.}.[.N.dXLX`.V L.L.J.J.L.i.J.J.v.v.z.!.`.*XvXSXLXLXBXaX;X:XwXaXsX=X<XwX&.w l ,._.%XOX$XxXLXuXI.Q.XX=X1XaXbXdXGXLXSXrX&XsXLXLXLXvXsXVXnXZXLXLXLXLXLXJXgX8X9XeXpXLXLXVXpX8X2XxXJXJXnXsXxXnXnXrXrXzXFXLXLXLXLXLXLXLXZXfXmXLXLXLXLXaXuXcXcXzXJXLXLXFXrX<X$XV..XoX2XGXLXLXLXJXHXlXrXsXW.OXMXLX",
"GXMXsX;XW.$.,.-.(.6X#X_.W.sXLXLXGX#X!.R._.#X6X6X*X8X&X>XwXsX6X6X#X(.h (.ZXGX%XR.OX2XHXGXaXvXJXfXnXZXtX7X5X!.<._.6X>XiXwX$X_.N.| q q ! ~ ~ 8 & w $X2XxXwXW.-.%.Q 0 2 0 n.;XrX<X<XrXqXW.l .X.X.X%X%XC.N.N.N.n.n.n.n.M.M.N.R.!.<.S.S.S.S.S.A.~ ,.fXJX*X8 F F A A 9 A S U 2.I o.k.<.#.,.N.;XfXM.z l 4 4 4 > = - : 0 : , 7 7 s d 4 V.HXbXv 5 g z b z l l z b l M.N.N.M.#XeXsXsXpX_.N.6X;X;X%X<XqX/.0X7XY./.eXgXgX5X8XbXLXaX<X@XV.V.C.M.W.=XqX$X;X;X@X=XaXaX@X_._.W.N.M.N.,.4 g v b b k k M.M.V.OX=X=X$X,XHXLXJXZXwX1X&XE._.;X%XqXsXxX",
"0 3 0 h h &.:.` %.n.h ,.l n.FXLX;X!.;.N.N.N.C.N.(.W.R._.l &.,.@.@.-.-.^ S.).N.@.w d i 4 l b R.N.,.R._.(.N.N.!.(.6X8X8X_.(.,.#X(.A./.}.}./.D.S.<.#.#.#.Y.`.~.s.s.( ( +.S.pXLXLXLXJXCX<XXXaXvX1XvXLXLXLXbXvXLXLXLXLXLXHXAXfXkX9X#X`.`./.).).,.N.8X6X#X-.9 X.N.W.W.,.!.q 8 A A 1.G F / ^ h &.a w 0 7 r -.>.-.%.Q ! Q _ I 3.S ~ e 0 %XrXn.i e r 7 : r Q q 0 q r ! 9 * 8 ! } ! q r ^ ^ Q 8 r 7 w ..I A 8 B r.T.y.Y.Y.bXLXl : w 0 > 0 ` l d s e r r j r r j j } q e s s 7 : 3 h l l l 4 - 5 4 w a a a c l $X1Xk 7 & w e & 7 e r s d w ",
"C ! _ _ ' m.' ' Z.A.*.:.w g E.@Xj +.v.#.#.#.;.h.a.a.;.;.-...7.o.7.j.s...o.+.r.a.=.X.! } -.} | ;.X.} ;.k.X.k.!.<.l.!.h.} ! r >.;.a.l.s.j.j.7.-.-. .A A  .7.7.1.7.5.6.v.+.,.fXFXCX<XE.&.R.W.M.M.W.R.M.W.,.z W.=X@X<XCXLXmX(.!.Y.#.D.D.l.D.D.#.<.<.| -.l.T.}.jXCXLXSXpX0X7X7X~.h.2.6.6.Z C ).` W Z.~.[.[.D.s.[.}./.D.c.w.L.L.P.a.| (.OXd r C < , W ( 5.A / A C ( G ( ( ( ( ( ~ W W C A ..5.o./ p.5.o.[ N N H m U B V.nXOXq %.*.N.S.N.R.<.| } ! ~ X.A 9 9 r q r } A | S.N.d j h d d d d } } s s Q s p h @X*X&.C A A A 8 q 0 , q ! A ",
"( [ 6.' ' p.p.' p.=.=.=.%.,.>X8X@.3.v.T.T.T.v.v.[.u.6.j.j.u.4.1.6.u.U U 3.t.3.7.v.v.6.7...3.1.5...+.o.( ( a.o.F U 4.u.u.v.j.v.6.6.2.2.9.w.w.u.t.v.s.6.s.5.U 4.u.v.i.9.4.} aXGXR.e ~ ~ } | %.r 7 7 7 7 7 e 9 r } 3 4 V.(.~ I J 6.6.v.v.[.L.v.j.3...6.v.L.t.S.: x aXR.<.}.}.}.}.~.v.'.J +.ZX6X=.4X}.{.D.s.s.v.T.}.v.9.0.H.J.f.s.! _.%Xh s C * % C ..6.6.7.( D G 1.J J G C M C C C C C C A / / W C W ~ [ Y E Y Y A g wX).=.D.s.=.k.S.<.<.<.<.;.d.a.o.X.! ! -.} } | *.S.S.&.N.$.h h Q s Q -.<.*.>.A.` 0 ;X9Xd.( ( ( S C C C q A _ ( ",
"=.a.p.( ( p.p.( ( =.=.' n.n.nXsX@.j.u.L.J.J.0.0.2.4.4.4.I 4.4.x.v.4.4.t.4.4.U t.'.v.u.i.t.u.4.6.x.u.6.[ 6.f.w.U H U Y 0.0.Y U K L Y H.J.0.0.J.0.i.x.f.w.w.U U 0.J.J.K.2.} CXLX(.C S V G ( ( ( S 5.j.j.l.r.~.[.~.%.N.xX!.G J.K.L.L.'.J.L.L.'.'.J.].].].J.v.| h -XFXW.} v.j.}.}.}.j.u.v.l.7X#X-.S.D.p.S.D.D.j.~.t.6.L.L.e.f.w.( ! MXLXn.1 0 q _ o.A ( C C S 5./ S [ ( ( C C C =.Z.=.d.>._ =.=.W Q q C d.w.L Y J * .XsX-._ p.s.' =.S.!.N.S.N.=.' ' p.>.*.m.N.%.^ %.:.m.m.%.$.h ` &.` Q ` >.>.' Z.F.' > M.qX' S ( [ ( ( ( p.=.=.' =.",
"%.-.A.S.;.k.D.k.a.N.m.p - y <XwX7 | h.9.9.0.Y K s.v.3.I T.l.j.7. .F P #.Y.3.I {.|.'.u.t.T.v.1.1.1.3.3.5.6.w.Y H.0.Y L L H Y 0.0.H.J.E E E J.Y Y 0.J.J.J.L.].J.J.J.J.H.8.X.;XMXS.B w.w.2.{ { w.w.8.2.1.t.3.1.w.6.~ +XJX}.N Y H.K.].].K.L.L.].].].].].].].'.} M.LXLXW.r 1.M 4.'.U V Y D.=.s 4 a N.N.F.F.F.4X3X}...8 C Z Z ( _ , > MXLXV.y h p m.` W =.' _ q W ' ' ' W 2 ` +XF.).4X6X7X3XF.S.).3X4XF.W m.N._ U B 7 zXJXh ! p.=.' m.n.h h h p p Z.m.` Q ` -.,.h h h p h h h > y h ` m.` :.:.^ ` S.m.&.h ;X6X:.s.s.p.p.p.Z.' Q m.C.-.",
"4 4 a h &.<.N.N.,.n.$.a - k cXbXO X : * 8 A o.j.}.0X5X<.`.7X#XS.!.#X9XpXgXS.} #.!.#.A q | -.*.X.~ -.| Q X.J 8.K.e.Y Y Y J.'.t.i.J.0.Y J.J.J.0.t.0.J.Y Y T K.P.K.K.H.8.1.! sXHX(.M [ [ f.6.[ { f.w.1.M M 6.6.w.j.>.(.GX}.M Y H.L.].'.L.[.L.J.].].J.L.L.L.v.X.$.DXLXM.% 6.0.J.Y Y Y 8.7 : N.E.5 u > > i i > 3 w , : % % @ X X o - 1XzX5 o O = > i i 1 : > 1 > : : = - O - i > > i - - > i i i g V.n.1 i $.n.* % 4 cXLXa 7 w h i n.n.c g o     - h h i > d M.h i i t y 4 y u y f g $.h p d s h i > . l nXxX$.r ^ <.-.Q ^ ` h h i i ",
"$X$X$Xc 4 5 o o o 4 g g b zXLXLX,X.Xl : 3 # # 7 $.W.h 4 5 y i l a l z z g . . X o o # o - h h d $.&.d 4 0 7 p.D.f.w.6.v.{.P.h.I 7.4.U 4.v.u.3.t.t.'.'.u.t.6.f.5.s.f.S % d GXLXqXq >.d.>.Z.s.p.l.l.l.A 8 l.l.a.k.&.=XLX3X8 w.x.v.P.x.v.[.[.v.[.[.v.v.x.w.6.o.p rXLX$X. _ L.].L.'.[.4.w V.LXLXaX1XrX$X Xv u y - - = . > l V.%XzXcXNXcX2XbXxXrX<X$X$X%X<X<XrX$XW.$X<X=X,X-X-X2X,X$X.X$XXX.XE.v c c V.n.V.W.W.W.=XvXLXLXoXO - g g l g f k x =X.Xa 4 h W.E.W.@X.X.X.X$X=X=X<X1X,X.Xk a 4 a d l l g u V.XX:XvXwX,.X   $ w N.M.b b V.$X",
"LXLXLXxXwXqX<XsXsXpXVXZXZXAXrX$XbXLXZXfXfX;X@X@XjXsX<XCXCXsXtXrX=XqXsXnXnXqX%X=XwXxXbXFXMX<X.XW.E.W.;X%XM.o + 0 *.! 7 % % X $ : & % $ & 7 7 9 9 * , % % & % # 7 7 & & d ;XJXCXXX4 h h h ` N.-.-.S.S.S.:.m.:.Q i n.GXLX@Xe  .B C A 8 A A ~ B  .7.j.D.[.v.c.k.%.FXLXFXa + M 5.7.s.7 h.9X1XuXzXbXbXAXLXLXLXHXuXzXNXvXsXJXZXLXLXLXLXLXSXrXGXLXLXLXLXLXLXLXMXGXLXLXLXLXLXLXLXLXLXLXLXFXLXLXLXFXcXcXLXLXLXLXLXLXLXLXAXlX1XGXZXmXbX8X8XsXCXFXKXLXnX;X;X;XqX8X>XiXZXLXmXnXSXZXvXGXLXLXLXKXfXwX6X@XE.<XAXAX:XI.=XLXVXw . j _.$X:XuXbXJXJX",
"#X6X(.N.N.N.N.#X#X}.`.~.!.,.d d $.`.8X#X#X#X#X`.#X#XqXsXsXpXeX7X#X#X6XsXsXnXmXMXMXMXFXHXrX<XrXjXjXmXJXLXLXaXl = > a j d l M.M.E.R.;X8X_.(.#X;X*X%X.Xl C.$X=X1XdXsX<XW.&XNXLXDXNXbXFXHXMXwXtXqX;X;XtXqXqXtXmXLXLXLXGXLXsXW.r $ + X   X , , , % + + + + + $ + : rX2XNXLXsX!.Q 7 q w &XCX:XuXvXZXZXSXLXHXHXbX1XbXLXLXAXBXnXsX1XXX=X;X&.g h N.M.&X1XrX$X_.:XrXsXaX:XbXCXdXvXHXCXAXJXvX=X>XvXNXaXzXNXAXJXvX;XBXiXR.u y b _.`./.M.#.} <._.;XLX&Xj <.S.S.N.#.#./._.(.,.w e j w h n.,XHXvX(.R.(.!.,.M.l k a l l .X_.M.l M.,.a Q.NXBX6X#X",
"7.7.1.1.a.c.c.j.o.3.6.6.a.h.7.7.I r.3.h.~.j.j.v.-.} } } } } O.h.~.~.~.D.;.| r s h l xXLX$Xn.(.(.N.R.R.;XvXZXsX%XqXsXVXmXkXnXjXtX6XjXkXpX6X;X*X@X;XrXxXHXLXLXLXLXLXSXrXOX@XM.k c .XMXLXLXLXLXLXLXsX;X_.;X;XeXCXFX<Xg h M.R.M.W.aX=Xl n.OXeX8X*X;X$XW.W.&.,.R.N.XXXX=XrXLXGXeX;X#XeX_.M.z ,.N.j s d d l a g g k -XCX_.w q 0 7 3 7 r q q r A , 7 e s r 0 w 7 : 3 : 0 e 3 : 0 w 0 e j j } s g a XX@Xa q : 3 0 $.d w q ( A D D I U U v.7.N.JX9X~ G s.D.v.7.t.T.T.+.B B  .+.;.Q : c vXN.& e o.d.-.&.h j d $.h i 0 h i 0 0 - c CX9X=.D ",
"9.9.J.Y J J H U x.J 4.[ [ a.4.2.4.t.9.x.x.v.x.e.v.v.3.1.F 4.t.v.'.v.~.~.v.l.j.f._ > <XLX$X0 %.-.^ ! -.$.} -./.5X}./.`.!.<.Y./.!.S.!.Y.~.(./././.;.-.V.aXHXvXtX;X;X#XOXN.N.-.@.&.m.$.l l M.W.E.E.R.l a a a a a 4 w &.&.N.R.E.XX=X$XOXOXN.!.(.W.pXwXW.(.#X(._.!.M.,.&.d l N.N.N.k.h.#.#.<.<.;.X.A ~ z.A.>.>.W 1 XXsX<.( 6.5.F B [ w.c.l.c.v.v.r.3.G [ s.v.o.h.a.a.s.5./ ~ X.F  .+.h. .S C r q #X_.% , q q C / o.( J Y U U Y Y L L Y 2.k.mX0X1.U J.L.w.U J t.u.U J.e.x.5.c.Z.W .XLXeX-.+.5.a._ *.N.<.-.:.m.m.:.&.` h 1 > OXLXhX1.H ",
"i.e.e.Y 2.9.i.J.K.u.U 6.c.s.1.2.9.e.i.8.8.8.i.w.e.J.L.f.x.L.w.2.8.U U 2.2.6.x.K.f.W MXLX%Xs a._ _ p.d.=.+.j.T.[.[.T.T.v.j.v.v.v.'.{.'.{.{.T.T.T.v.u.! 6XnX(.-.^ -.D.>.^ ^ ~ A / =.;.-.e q 7 3 j <.R.<.$.$.} r } j e } (.@X@XXXXX.XW.(.N.;.#.<.iX*X&.,.!.<.<.S.S.q e ,.} ^ ^ _ _ 7.6.z.#.D.l.;.-.k.~.D.D.d.=.S.nXjX;.5.f.{ 6.f.f.w.f.x.v.2.u.v.3.1.f.x.[.[.v.F 1.2.v.w.1.1.4.4.G 1.G 1.[ o.r 3X#Xr ( Z ( J { f.K Y Y Y T Y Y Y E L K l.pX).G w.x.L.L.x.D.t.y.L.i.9.w.v.l.=.Q %XLX8Xs >.;.Z.Z.A.Z.S.S.S.(.S.S.N.-.&.d > n.LXgXU J.",
"v.w.2.8.2.w.x.f.6.3.v.v.7.5.1.6.6.u.L.L.L.L.[.'.w.e.x.w.9.x.f.[ 6.6.4.w.w.w.8.{ [ r %XLX6X! ../ =.d.D.~.D.6.Y Y 0.J.J.w.6.3.9.J.i.J.J.J.J.K U t.E ].7.4X0XD.s.5.G J S G ( D D D M M v.3.G A <.`.R.Y.!.<.Y.z.h.h.h.#.<.@X;X$X@X@XXX;XR.-.h.z.N._.N.` *.-.*.| z.D.D.~.D.S.l.h.z.k.l.l.z.<.!.d.k.>.S.D.a.D.S.S.$.;XmX).( s.p.( p.c.v.x.v.v.v.r.h...1.w.v.6.j.j.j.v.v.v.v.v.v.P.[.x.D.v.v.v.~.A.#XeXs 2 n D 6.{ [ 8.0.J.J.'.y.y.'.H.N Z -.#XS./ 5.v.v.v.c.D.+.r.v.v.v.j.j.k.S.h c rX@Xn.m.-.-.-.>.-.=.>.*.m.m.N.F.S.N.-.i c JX#X/ 9.",
"_ o.( p.s.a.p.( _  .7.h.+.+.+.h.r.v.v.v.[.v.7.j.....6.1...=.d.d.Z.S.6.v.v.D.c.f.o.% W.LX;X| D.!.S.A.D.<.X.A.f.w.Y 0.J.8.w.w.U U 0.J.'.L.L.0.9.9.H T v.3X4XS [ x.e.8.9.2.V V H N H N H U e.p.S.(.<.Y.z.z.Y.Y.z.k.z.<.<.@X@X_.;X;X=X;X(.S.j.<.<.,.d -.=.=.d.>.z.D.l.~.l.}.~.~.}.}.D.D.N.<.S.A.Z.Z.A.>.-.(.).n.l 2XsX$.*.d.A.;.k.).~.l.a.l.k.-.k.l.l.s.6.s.l.j.s.l.j.s.7.v.s.s.s.c.D.j.u.3.D.S.(.6X&.^ =.^ Q ' ` _ F F S F I r.I 2.6.~ w W.,.r ~ a.~.S.<.S.<.} ;.D.).Y.z.<.,.h . u v y a ,.,.,.,.&.s p p &.-.' :.m.N.N.a b GXOX: * ",
"# , 0 ! ~ ! r w 0 7 & & 7 : # # # & + % , & & : : & 0 e q p d p p d | A r ! ^ 8 % : GXLXOX0 d d d w d $.N.N.c.D.c.2.8.2.1.a.l.h.l.t.7.v.v.[.v.7.I t.#.N.3Xa.U 4.4.U U 0.8.8.9.e.J.0.0.K { ( : i &.!.!.!.!.z.-.S.N.$.h W._._.&X;X;X;XR.#.z.S.!.M.l N.S.S.N.S.S.k.*.k.(.3X).3X).S.S.N.N.N.N.` m.(.F.-.&.d 4 - .XJX<X> ,.%.%.N.`.9X5X).(.R.N.!.S.:.*.:.*._ >.>.=.*.<.A.>.A.*.=.>.Z.N.>.O.O.-.: j C.0 7 : : d ` ` &.!.N.<.&.s r 8 q C 7 ,.mXN.# # + 7 0 3 : 0 0 7 7 0 e r 0 : W.bXLXvXu 4 l M.&.d l ,.l > i i q s q w w 5 1XLX2XO . ",
"wX;X#X,.&.j M.M.b E.XXV.g W..Xv M.$X.XN.,.M.W.M.V..XV.M.M.M.c l n.l 3 : = = a n.4 c LXLXzXv M.M.l C.@XV.a a Q *.*. .S 8 8 , : : 7 & & * , : : e 7 7 3 @XjX!.v.v.t.t.4.4.u.P.|.|.{.x.u.2.[ p n.qXh & r ,.} } l h a g l b b k a w g d d w e h d l c i i d N.N.<.-.-.m.d > # - 0 i c M.W.M.h h l N.N.l M.c k $XHXLXHXXXh N.N.,.W.R.,.,.R.@X@XW.N._.W.N.n.,.N.N.S.N.,.N.W.&.d 0 0 h j d j d a l <XsX#X5X6XeXpXpXeXpXkXZXZXmXjXeX6X#X>.%.qXJXZXjXeX9X6XE.W.W.;X#XN.$.`.9X(.z @XZXLXLXLXvX;X@XM.l ,._.pXnXW.l E.(.(.(.,.j ,.CXLXLXGXnX",
"BXpX8X*X_.&XiXdXNXFXHXzXzXvXHXGXGXJXLXZXxXvXMXMXHXLXGXMXCXmXnXvXnXiXwXsXsXsXJXLXxX<XvXFXzXrXfXfXnXZXLXGX;XW.N.@.e r %.N.N.M.v c M.h w 0 0 l &.,.l M.M.vX8X7 A h.r...7.v.~.j./ M < 8 A B A 0 =XLXAXMXsXW.M.@X_.W.M.b k Q.b k M._._.@X_.l a l l XXxX$Xc i a a w i h l V.c OX<XvXLXLXJXLXLXLXZXZXtXnXJXLXLXLXGX1XaXLXLXsXmXZXVXwX8XjX8X@X;X*XwXsXZXJXbXGXJXsX#X8XfXZXBXBXBXJXBXsXnXBXsXdXdX2XLXGX#X+X6XeX#X(.`.(.N.N._.W.N.N.R.N.S.>.-.S.(.(.#X6X9XeXaXLXLXZXVXpX5X9X9X9X8XkXjX@X@XsXmXjX7X`.5X9XeXkXVXVXSXSXhXhXVXVXpXeX_.b wXmXkX",
"*X`.!.`.7X8X>XXX:XbXzX$XOXW.OX=X;XE.N.R.N.C.V.c ,XbXMXaX$X*X6XeXpXwXeXZXGXmXJXZX;X;X#XE.E.M.`._._.6X@X6XjXmXkX9X#X`.eXrXuXHXFXvXLXLXnXmXqXeXsXsXZXxXdX;X,.#.*.;.a.h.h.#.z.;.! -.<.<.-.8 j 8XQ.1XNXLXHXvXCXGXZXLXLXLXLXLXLXvXLXLXkXsXiXvXJXCX2X2XFXFXxXxXsXxX;XW.;X;XpXtXxXbXFXDX,Xb M.pX*XW._._.;XsX*X_.#XM.h g l j d &.N.N.,.!.(._.(.M.M.l E.W.I.bXLXLXnX_.,.8XkXfXfXAXBXkXSXkXfXJXGXMXGXCX2X%.%.:.!.!.~./.!.;.;.^ ^ | ~ A 8 q A W _ ~ r r r 8 0 k zXsX,.S.D.}.~./.Y.P 9 B r e 9 A A j.T.T.r.I #.@.e 9 9 9 B #././././.#.-.h./.",
"T.T.u.T t.+.$.R.iXxXl h s , r 9 9 8 A A A s q > E.;X8X`.r -.#.!.~.).}.9X7X5X9X9XD.k.D.A r } } r r } @.!.~.).S.;.X.<.W.k -XLXzXk n._.,.,.d w d l l ,.j ,.R.~.).~.~.D.l.h.;.k.S.6X#X(.S.-.!.(.b k z l M.M.M.W._.(.(.;XiXNXLXnX(.&.#.<.<.#X6X;XC.a i C.W.@X@X6X;X=X;X<.w a 4 XXKXcXk 3 & 3 7 & & r r r A q 7 s e e ! @.} Q ^ -.;.!.#.r q } e & 3 3 o v 1XQ.$.#.<.R.,.$.$.e j } &.} } &.M.N.l &.l ;.l.!.D.D.D.~.l.6.5.[ 5.6.2.1.o.o.7.s.6.2.1.6.5.( ^ f $X@X7 I u.i.t.u.T.u.u.i.t.T.u.I U t.y.T.'.T.r.B B I T.t.U U T.'.'.v.T.'.'.T.",
"].].].].'.U I <.pXpXQ A ..1.I 6.4.u.t.u.v.6.o.X.#X(.A I +.3.I G V N B B B M 6 M 6.G D M D / [ s.5.I I 3.I U 1./ 8 8 < # b KX,Xh ` Q _ *.%.*.:.d q A A / ....+.j.l.j.r.j.r.~.~.~.>.=.l.j.+... .z.#.-.#.#.#. .O.O.B  .9 M.mX6X! h.l.l.#.z.Y.<.-.%.Q d 7 r s %.j w w w * . . g LXLX!.& ~ D G D D I F M < S 7._ l.I .. .8 A W ( / ....l.j.A +.A C q 0 M.wX} 8 V I B ..o.B A A / ../ / o.A * M 8 A D ..7.v.v.v.v.L.f.e.f.f.e.e.w.v.v.4.w.{ L K 2.w.6.0 - E.;X9 m Y 2.9.U x.v.x.9.9.9.9.e.e.4.U w.v.u.v.v.v.4.w.i.i.K.].].].Y J.].].].",
"U.].].J.J.Y U z.#X%.0 / f.H.v.u.e.9.t.i.9.e.6.( #X#XX.3.4.U J U Y 0.4.U I D B V J 1.J V V J 8.Y 9.2.V V U Y i.v.w.V < q ;XLXM.~ p.6.[.l.D.D.p.p.s.w.6.2.[ 6.u.v.v.[.'.[.{.{.[.{.[.[.'.L.u.4.U 6.4.6.v.6.f.6.4.2.[ [ M <.kX`.F w.v.v.j.l.T.#.+.+.+.X.A  .o.;.} 7 e r 8 : = W.LXLXA.q [ K K H K K 8.J 9.w.J D Z G M % * 8 C ( S D v.3.D I F D Z Z , (.mX;.* L H U H N J J 2.K J H J K 4.U V H H G 1.1.U K Y 8.8.9.e.i.0.Y Y 0.2.2.2.f.8.E L K Y [ , c HXJX!.N K U t.4.j.7.7.3.1.6.6.6.D.{.[.D.[.{.{.{.|.[.i.U.U.].].].].].].J.].].",
"y.].].].].T M <.nX%X0 _ 6.w.v.f.x.v.j.v.v.v.o.! +XeX| / D 1.1.K J e.v.( F M B s.6.5.J V V V K U J J K 9.i.0.Y 0.J.J.6.X.wXLX;XA D 6.f.w.4.8.e.K.e.e.e.e.{ 9.i.J.J.J.J.J.].L.L.J.J.].].K.J.J.H.J.9.8.8.K 8.w.J.e.8.{ J <.kX4Xu.Y x.v.v.v.[.u.'.T.v.t.3.1.[ 1.6.F | A ! Q - V.LXHX,., ( [ J [ [ 2.8.8.x.w.2.w.8.D V N D G B C n S 6.~. .I M < Z C , %XmX,.n K L Y { K J U U n m N N H L.[.Y K 9.w.6.w.w.J J 2.V D 1.U G G I 1.[ 5.5.s.1.U 4.2.G < p HXLXLX!.C J Y Y t.i.0.v.~.}.D.=.=.Z.~.{.[.'.|.|.'.{.].].].U.].].J.y.].].'.T.T.",
"U i.'.|.T.U 8 M.JXJXl $.^ o.s.s.D.d.! 8 A A.-.d W.tX%.X.a.....F S s._ W ^ ! *.p.p.;.( G S Z J U C % < B G U V H 8.f.6.! ;XLXiX+.s.P.s.v.u.e.J.H.H.K.K.f.6.2.w.u.w.w.9.U u.x.[.v.T 0.K.J.J.H.K Y 0.9.x.J.L.e.i.e.e.{ [ j kX9Xj.K f.s.f.D.[.'.T.4.v.6.u.w.f.f.6.~ Q ! s - - rXLXLX;X: _ < < , % * ( S ..c.v.c.v.l.h.7.=.A q 7 2 r A -.%.! A C C s ; 2XHXM.< { [ U [ [ 1.....o.F ( s.x.v.a.3.v.l.l.;.X.*.>.=.>.*.%.-.o.X.*.^ Q X._ C 8 q r r s s q i DXLXLX@X! o.B P h.h.t.~.}.).~.l.7.B  .+.l.~.~.[.{.{.{.'.].].].i.u.Y.I I r.h.I ",
"A r.T.T.A 9 7 M.JXLXv - a 0 1 % # X o o + # # o V.rXM.w q e q : $ # o - - - 4 1 w d q d p 0 d ~ Q q q 7 & , q C ( Z.Z.o E.LXdXN.D.=.;.;.h.l.c.x.f.f.c.s.o.+.l.a.a.a.X.P  .X.;.r.T.v.T.v.s.a.5.5.v.~.[.{.{.~.j.v.x.c.A Q.JXpX-.d.D.c.s.l.D.v.j.7.a.D.~.v.f.5.C h n.-.s 0 n.vXDXHXrXo . X X # : 7 7 s | ! r ! r r s q s 0 = o . X . O = - - X .   u LXLXaX> , < q C C S C r } &.| <.A.&.} r 9 , q q > 0 d 0 1 0 w 0 7 : - - - > 3 w 0 0 - 4 4 O .   y 2XFXXX- # X . . 4 w $ 1 h j } Q &.&.#.} } s q r 8 A P P I P B 9 9 A -.9 #.A ",
"s e P A & e ,.XXbXNXvX1XW.4 = = 5 XXCXnXW.i h .XzXCX>X_.*X;X;X;X>X<XrXrXc v .X.XE.a a l l a 4 : - - 4 a y 4 = o X : i - oXcX.Xa ,.0 - = : : : q ! A r r r s 0 0 ,.d 3 0 : # X # 7 7 & : w i p e q q 7 & & 7 7 & 8 7 j aXAX=Xh d s ! *.-.r ~ >.>.^ :.A A _ ^ ! y > y i 3 4 XXNXKXHX=XV.;XsXnXnXsXM.l M.N.W.N.a l W.C..X%XaX2X,X<X<X2X<XxXxX<X.XE.lXDXDXFXrXW.i 4 > > - - > a a a h 0 c M.&.M.M.#XeX7X6X(.%X+X+XOX+X#XC.W.OX=XxXxXGXGXZXtXnXnXwX.XN..XaXvXnXGXGXvXaXuXzX<XOX$XwXsX$Xl M.#X#X&.N.N.N.S.-.`.`.z.-.-.<.-.-.@.r 5XLXeX",
"jXpX7XgXpX`.!.@X;XXXbXLXLXjXaXGXLXLXHXiXtXtXqXOX=XNXdXwXpXfXfXfXCXLXLXKXzXaXaXrXAXLXLXLXLXLXAXjXqX<XvXFXHXxXrX$XC.$X$XrXNXCXvXR.%XmXnXvXsXrX<XXXM.j &.j h h M.W.@XN.,.E.E.E.V.N.N.&.M.M.V.M.M.M.,.j a - o o $ & 7 3 E.CXLX1Xn.h i 3 : : 3 w w a h h a w w g l W.W.V.M.W.&X=XcXcXxXHXLXLXLXJXdXAXbXvXsXsXsXnXnXCXLXLXLXLXLXLXLXLXLXLXLXLXLXLXZXvXaXuXuXcX1XsXFXHXJXHXFXHXLXLXJXZXGXMXLXJXJXLXLXmX~.d.a.X./ k.k.k.D.(.(.wXLXLXCXrXrXeXjXhXeX7X6X3XF.(.(.(.8XCXMXzXNXKXHXHXnXwXOX$X;X;X$X_.R.(.eXjXeXjX6XpXJXVXhXVXVXSXVXVXkXVXZXVX",
"/./.<.@.5X}.}.#X!.l M.*XpXeX;XiXCX>Xg a ` s 7 w W.8X_.R.R.R.R.M.W.@XXX=XaXkXkX@XW.#X#X`.*X6XeX7X#XqX<XrXLXLXLXLXLXLXsX@X@X@X;X(.#XeX6XwXrXvXLXLXLXLXmXwXtXjXjX8X6X;X@X*XpXkXnXVXVXsXSXLXLXMXsXVXSXLXLXZXvXsXsXVXsX;XiXyX:X8XkXjXrXrXrX<X=X@XfXJXmXnXvXxXMXHXNXvXZXZXVXVXpXW.XXXX.XrXvX1X@XM.g b XXM.E.b l M.W..XXX$X%X<XzXLXLXLXsXqXtX#X,.R.!.R.,.,.R.b 5 l =XxXHXLXLXLXLXHXGXtX%XxXHXJXGX=Xl l / 2.2.[ 1.1.....D P 7 3 :X1Xn.i w 0 r t.7.S ~ o.S C C ( ~ w 3 o v DXlXQ.l l 0 i d } $.<.<.&.<.&.*.Z.>.;.-.D.~.z.#.j.v.T.~.D.#./.",
"7.7.I A -.I ..+.A 8 9 } <.;.e d a 0 7 s ! C C C -.A X.+.} A A A s p w w <.#.P } r <.<.} A 8 P -.+.! p l $XMXaXC.W.N.} e j ! S S X.X.r d 4 4 k cXLXZXW.$.:.!._.!./.(.#.<.(./.R.!.-.<.,.wXLXnXE.R.`.;X;XOXOX%X8X8X*X#X&X_.(.R.!.!.W.W.OX$XW.R._.8X8X6XXXQ.XX,X=XE.,.o.+.I ~ 0 3 w - 5 w w s <.!.R.&.3 0 w w 0 w 0 - - = h g ,XbXE.,.@.r 7 9 ~.j.T.Y.P O.$.s d d d i E.DXDX.X3 : > # - o 4 i = # : ( 8.w.w.u.2.1.3.G G 9 0 k l : , S S D U J I 7.6.s.w.6.2.6.A ,   x LXLXW.7 A q r X.} A F ..7.7...3.1.5.j.o.S ( 1.D 3.U U t.t.t.7.",
"J 8.2.[ 7.4.2.1.G G ( B M M ! /.3XC [ ( C Z [ [ [ J 6.[ 8.K w.q.' ' ! q a.1.V 4.v.~.{.v.6.6.I r.r...X.s 4 W._.-.' A A A A C S 1.5.5.5.( Q 7 o E.LXpX;.=.>.k.D.!.~.D.h.z.k.k.j.j.t.v.+.j CXJX} A I U t.h.;.S.!.!.~.j.r.r.r.3.v.v.v.;.+.;.;.O.B 8 A D  .} 7 & : e 7 M V J B A 0 , , : 7 S ..3.j.+.A q } ! s r ! 7 , 7 , , 0 W.>Xw A B F ..1.1.U U t.U 3.a.a.7...C C &.iXvXh q Q Q %.Q e 7 e ! %.A A J 2.w.6.3.[ 6.[ G A Q C.=XX.F D U Y 0.K 2.6.1.4.9.Y Y Y H Z + c LXLXN.A v... .7.t.3.w.9.w.e.9.w.J 2.w.f.x.x.i.Y U Y Y T U J Y ",
"H H J 5.6.v.v.7.7.5.s.5.s.c.*.(.6X, * * M [ { q.L 0.8.K 8.0.8.8.q.6.~ D.v.x.w.H U u.v.u.x.v.1.D U 4.6.-.,.(.S._ ( { [ 6.6.[ 6.6.[ 6.6.{ [ C : &XSX|.D 2.v.v.P.v.v.x.6.1.M M 8.i.J.H.2.8 ;XLXl.U J.0.0.t.G * * F v.v.w.4.6.w.x.e.x.u.w.1.6.w.v.9.2.9.v.D.z.;.X./ 1.2.8.0.x.1.o.( _ A S M N H m M D (  .A A A ~  .S 8 C q : 0 j + + < N D 2.8.G [ D I 2.K.x.U 4.Y [ =.,.qXh C o./ A a.>.;.D.a.o.F G U J J D 1.1.[ ..1.C q N.@X8 C J 8.Y e.8.x.f.w.2.8.0.J.J.Y { < m.LXLXS.V 0.Y K H K 9.K.H.Y Y Y Y Y Y U 0.L.0.0.9.Y 0.Y U U U Y ",
"0.8.[ C M M ( 7.k.s.v.v.v.x.^ OXsX> + ( [.{.P.f.0.Y K K 8.0.e.2.D Z 8 } B f.w.V V 2.9.i.v.x.w.U U Y u...z.7XD.S Z J [ [ { [ { 6.f.{ J [ [ 2 0 nXkXY.U i.w.i.i.w.w.w.w.u.w.L.J.Y H.H.e.F (.hXj.9.J.J.0.i.x.[.P.6.w.x.e.9.e.w.e.e.K.H.0.J.0.x.J.e.e.8.8.w.[.}.D.v.L.x.Y 8.x.2.w.w.6.1.J U U Y U U J J D V J V D G G N V G A !.qX-.D [ J [ [ [ S * * C 1.e.e.w.K L L < R.MXC.% 2 C S s.v.v.f.C C 5.2.J J U G F I 6.5.[ 2 , N.jX-.r ( J w.9.J w.f.f.w.w.8.2.2.0.e.C N.LXZX;.V H H H K Y Y H.K.L.t.U L.L.9.U U i.J.i.9.9.U J U U J Y ",
"x.q.5._ F B o.D.D.v.v.v.t.v.! ;XLXg : S.F.' m.p.v.f.6.f.f.x.v.s.p.C 7 !.D.( [ 6.D [ [ 6.c.P.f.6.9.Y L.3.Y.6X-. .s.[ { [ ( Z Z ( p.( W W W 2 ` xX&Xe I 8.2.w.x.L.[.{.{.[.[.[.J.9.w.{ [ C `.9X+.i.0.L.D.D.{.0XhX7XP.L.J.x.x.w.e.e.K.H.J.'.'.L.L.x.x.e.L.w.s.~.[.[.[.'.J.v.u.4.4.J [ 6.J U u.4.3.2.J J 4.U 9.U 2.D 4.4.J U r.kXLXX.6.L.w.D 5.( C * < < * M J 6.6.f.8.< R.LX<X@ 2 Q =.5.3.1.6.( ( p.[ M M 9 8 8 ~ _ ! C q 1 l vXv - 0 ^ A  .A 8 < < q ( ( C +.j.( , N.JXsX%.A G ..6...v.~.D.f.D.~.j.7.6.j.v.6.[ c.f.s.s.5.[ s.f.v.[.",
"C _ p.k.D.k.-.r 7 8 8 A ..h.j ;XLX.X- M.C.i - 4 2 C C ~ ~ A ~ >.).).N.mXkXW W p.W Q =.=.s.~.D.p.j...o.9 (.wX$., , & @ : 1 2 q 0 , s ^ s 1 > l vX:Xz 8 < < C S a.D.D.~.}.).A.o.X.Q W 1 > ;XeXQ h.r.^ q , 0 ! +.+...7.v.v...I D v.s.5.D.~.~.[.T.j.t.t.t.1.h.`.).~.c.I I o.a.+. . .X.=./ ..7.B B A F 7.h.j.6.1.7.+.7.j.v.v.~.eXZXN.+.6...7.o.A ^ >.A.*.! A C W a./ C # Q.LXFXp h ` *.;.o.( 6.s.=.>.X.A ! } e w : d h Q : # O oXHX2Xc c l ,.R.,.l l 4 = # : ,.&.% X _.LXsX: $ : 0 : : : : i > # : : 7 q 1 p d q q p Q r , 2 ! W r ! ",
"d q 0 7 w w ,._.@XN.@.&.#.r 3 _.LXLXJXV.c .X Xf 4 M.C.W.N.$.M.l a n.W.nX%X: : # X # p ` Q -.! 7 0 , , : W.aXW.c i 4 u c c v M.d 0 N.6X#XW.g c ,XaXLXkX$.d ` i 1 - + o . . - w a v OX2XcXCXrXh s $.a > - - # 7 <.!.!.l.-.#.#.z.7XN.i ,.<.S.z.#.#.!.!.~.!.R._._.<.7 % + # , q 7 7 w d d $.$.e e 0 : : : q q ! | } 9 8 8 7 ! sXJX-.~ B * A q q 3 : 0 j &.w # % : % . O HXLXKXh h l d d r q C ! 0 3 : , d a g 4 M.GXrXd l .X=X=XLXLXLXGXZXBXkX;XXXzXzXrXGXLXLXLXsX*X&XBXZXW.,.E.E.XXOXv a v .X.X=X<X.Xn.g l l a a l l l C.C.n.l n.M.",
"CXJXVXsX>XiX>XsXSXSXJXSXZXZX*X_.1XbXsXrXrXbXJXLXHXvXdXbXSXJXCXvXaXaXLXLXvXl l @X<X<XV.h M.N.#XrXxXxXvXwXrXrXbXLXLXLXLXLXLXLXHXfXsXSXLXLXLXCX1XcXzXcXCXLXLXLXxX=X$XC.V. XoXxXHXKXLXKXKXNX2XxX@XM.wXHXLXLXLXJX6XN.N.N.(.5XSX8XN.(.XXv M.d w j j z ,.z ,.R.,.R.(.N.M.M.@X#X+X6X_.l $XqXqX%X%X*XsXnXsXwX;X;X(.N.N.r -.! & + : %XtXn.& A l.z.`.!.=X;X;X;XW.W.C.W.M.#XqXrXNX-XaXOXC.;X*X,.&.$.` $.l M.E.%XsXvXGXHXLXLXLX=X;X<X=XXX=XE.@X#X6X(.N.n.u =XbXbXHXnXaX1XtXeX&X_.*X;X@X;XsXLXLXxXdXdXbXHXLXLXDXcXbXHXKXHXbXCXHXLXLXLXvXaXdXvX",
">XwXCXLXSX>X:XQ.Q.W.OXC.l W.N.3 5 4 d N.C.M.V.FXKXoXk z M.Q.&X1X<X1XvXbXrX;X;XnXJXLXLXGXJXJXsXOX.XOXC.E.=XqX;X;XwX;X=XsXvX1X@X_.@XW.W.W.W.k u b b b b c V.V.V..X=X=X=X=XbXLXLXLXvXwXyXQ.W.;X6X6XsXnXGXGXMXsX#Xn.&.,.S.#XeX#XW.;XLXLXLXtX(.N.W.@X6X6X*X8X*X;XtXjX;XOX@X%X@XOXN.h V.OXOXc M.!.#XZXLXLXLXGX+X#XW.!.!.(.N.&.$.n.&.d ,  .~.hXZXVXvXsXrX<XwX2XvXwXM.M.(.C.g = C.tX;X8XpX&X<XwX@X=XLXLXLXJXmXvXMXsX<X<X=XQ.&.&.a w | 8 7 * , , & + - cXFX%X> # 3 - : : 0 7 7 e } ,.M.M.M.M.W.&XrXtXxX2XlXDXNXNXLXLXdXvXCXbXvX<XrXsXiX1X",
"d $.$._._.4 a 4 & 0 0 > 3 - : w 7 0 8 8 0 7 : .XGX2Xu 5 d j w 4 a w w a w j } 0 0 &.(.`.(.N.w 0 3 > h l j s s s e j e e j } } s w e ! 0 : : a l h l g 3 - 4 4 a g a l l V.rXQ.3 7 7 j & 3 e s h d a a 4 3 d h $.&.` ^ m.h ` &.l uXLXvX#X<.N.N.N.W.W.(.(.R._.N.$.,.h 7 h i a h h $.h h > > r h a l bXLX.Xi h Q s } N.&.N.$.q : 1 ` X.! (.&X_._.W.E.b b b l &.$.s s q s 1 : 0 0 w d j k a y 5 cXLXwXd d h d 0 : w e ! X.<.-.~ M S ( 1.1...6.W h LXJX#X<.o.X.| -.W 8 q A B B 8 7 * 7 A A 9 7 : X y zXuX;X;X!.&.} ,.<.j w : e $.@.&.",
"5.C W s d w s q ^ d.S.S.A.d.N.%.Z.5.u.x.6.a.s h qXW.h s r 7 7 r *.^ q r r A / C 8 A / / C r ~ *.<.S.N.N.N.-.} ~ A | } 9 9 r 9 9 } ! ! <.N.s d h s d d d j } s e s s d a M.;XN.q B A A 8 7 q 8 8 s ! C C W _ ' =.m.' p.S.*.>.d w b =XM.} j.#.-.#.#.#.h.a.;.<.;. .3.=.Q Q %.-.N.-.S.&.Q d d C 8 $ o E..Xi *._ X.| r -.! | ^ *.X.X.=.k.#.} } d &.N.>.*.,.h w s ~ A / d.( W _ ! ! Q %.,.M._.$X<XLXLX+X& C 1.s.o.A F I J U I D N Z D ( s.5.U 6.W h CX;Xr M M J J [ J D 5.1.2.8.U D 2.D V J V M Z < @XLX;Xe 8 M D 1.1...( 5.7.I V I ..",
"J.w.n Z.9XW d.{.{.}.P.c.D.{.}.).l.6.i.J.L.v.X.<.OXC.1 r 8 % 8 / 5.[ ( ( C S ..G V M h.~./ / _ =.=.k.N.<.,.<.<.;.d.p.o._ ^ ! | } ! } | <.(.-.<.,.j h h Q ! | #.-.*.Z.m.w M.sX!.o.( ( S C C q q q ^ ( ( ( 6.6.' p.p.' p.d.' p.*.l W.sXR.O.u.'.T.T.v.v.[.v.6.j.v.v.9.s.=.=._ X.;.k.h.+.;.<.A.5.( r 3 W.M., ( ( s.l.o.k.=.X.>.a.h.D.;.h.l.a.=.^ ;.D.;.a.k.m.%.W ( 6.I I F p.d.o.( ;.X.~ d s p n.2XLX6XM w.2.L Y L Y L L J U 8.H [ Z J q.2.9.e.C 7 sX6XC N K L H H H N H K Y L H H H L L L J.T H M (.pX0 % [ 8.H.H.K L L K 8.H H K 8.",
"J.L.D |.ZX).~.4XP.D.Z.d.o.1.T.T.u.i.H.J.f.w.o.&.xX+Xi ! C * 8 / 5.3.[ ( G D G J J 8 5X/.8 / 5.*.=.=.A.(.!.S.S.=.=.' =.=.*.*.A.-.^ %.:.m.N.:.%.$.h ` &.Q Q >.>.*.:.S.S.i a 6X).C ( ( ( ( ( ' =.' :.' =.p.p.( ( p.p.=.o.=.=.=.:.n.=XSXR.h.4.L.J.J.J.0.9.2.4.t.3.4.4.u.h.h.+.o.o.p.a.o.p.d.p.[ 5.8 : $X;X: , M F o.=.s.v.j.h.<.5X_.Y.l.l.Y.l.l.k.D.~.~.~.F.;.7.s.6.I D ..a.a.( 5.a./ S _ =.` . . wX6XZ Z V m H H H 8.8.H.8.L Y K H H K K 9.8.Z 8 wXkX>.D 8.H { K K K K H L L R H.R L E E H.E H M #XLX#XX.6.U 0.H.H.H.0.e.i.w.i.9.Y ",
"0.w.j.~.`.&.%.A.S.S.Z.}.}.}.~...1.x.e.q.f.' 0 (.LXFXi p 0 W d.W W ( S C / p./ 5.1.&.nX_.e X.r } ' m.m.h i l h p m.Z.' W Q %.m.` h ` p p h $.i 4 i ` n.%.` >.*.Q m.S.m.h C.qX(.=.s.p.p.p.s.p._ ` C.m.*.:.A.S.d.d.l.l.h.m.m.` 1 > E.vXj r h.u.9.e.8.L 2.v.t.F t.v.j.j.a.7.=.Z.( C W 2 C _ C C C % 0 nXnX- 0 q A / =.s.v.~. .N.VX*XR./.!.~.~.~.D.z.~././.Y.h.h.D.p.A.*.~ _ / 6.( A C A | <.N.w 4 #X4X( D M C 6.f.6.f.f.f.w.6.1.K w.2.J J U D 5.#.8X@X0 q 5.f.s.f.5.V V J [ e.J.e.e.8.{ K 8.f.[ s rXLX%XF.D.f.K Y J.H.e.e.L.v.6.w.9.",
"f.c.=., : - h n.$.C.m.F.(.(.A.A < C C < 2 , X h KX2XO - > i ` p Q Q W q 1 s Q X.} @XJXaXa 4 1 3 i b.C.n.c -     o d $.h 0 a n.l i i i y y y y y y g l $.d d d d h i = - <XMX@Xq ~ <.N.| ^ ^ ` h f i i > i h ,.<.N.N.N.N.n.` - 5 $XGXb . : * * A ..s.D.7X9XS.!.7X5X(.<.>.*.-.! q ! *.| ^ _ Q , X y FXFXO 4 d $.%.-.*.A./.r N.ZX;XM._._.(.R._.(.(.`.`.`.^.^./._.#XeX(.s s *.-.-.).(.(.R.:.,.l a $.$.h p q q 7 , , 0 7 , , 0 r q A 8 7 q 8 C & = E.iXW.# + # % % , 7 , 0 0 , 8 < 8 < < 8 < , # g LXLXC.1 C [ [ 6.s.6.f.s.s.a.l.s.6.",
"& : % N.bX,Xk g y > t - = - = # + X # # = ; y v bX,Xu y y i i a i i i h h i 7 3 3 z dX1Xk b .XM.h h g y u u b .Xl > i n.M.M._.W.V.W..X$XXX$X=X,X.Xc a 4 w w l l g y a E.=XsXxXE.3   . 0 $.,.M.c c .XXXV..XB.i 5 = o o - 4 a a =XLXLXzXE.v - : # # : h W.N.a 3 4 g h $.n.d 0 0 d 0 w e s q : +   v LXLXbXE.f 4 3 = > w 3 = l 2XXXb b l z 4 a 4 a M.,.M.,.,.@.,.M.n.i 3 d &.j j _.W.M.a > : : i a f x k h a 3 - = o . o o . o : 3 : 3 a w Q h E.aXLXLXsX%XW.E.M.l z u 4 > 3 0 0 # X o X o O > v LXHX.X- 1 , 0 < , 0 0 , q 7 , q r ",
"(.W.M.rXLXHXaXbXbXzX2X=X.Xb c v c M.@X$XaXFXLXKXJXbXvXLXLXHXCXMXMXMXvXMXHXJXjX6XiX&XXX1XCXCXvXwX;X6XsXnXAXHXLXJXwX*X;XwXpX8XyXnXLXGXnXSXLXCXCXLXLXLXKXbX8X6X*XE.@XvXJXdXQ.Q.ZXLX_.. - R.@X;X1XaXAXJXLXLXLXFXwX<X=XwXtXiXsXZXZXSXCX,XrXLXJXsXfXwX@XW.qXsX;XaXAXaXrXwX<X<XqXqX6X6X6X`.N._.qXbXMXwXsXaXHXLXFXnXtXwX8XwX;X;XwXMXCXvXdXrX=XiXfXrXC.l a a a - 3 e a j f M.OX6XeXfXiX@Xv W.wX6X6XeX6XrX2XrXJXLXJXJXLXGXnXrX,X=XrXvXGXGXJXGXZXnXwX;XaXNXvXGXLXLXLXLXLXGXCXNXbXCXHXJXLXCXMXvXsXbXMXvX,XuXuXvXxXwX@X%X_._.@XC.OX;X@XE.;XeX",
"fXfXvX1XdXCXJXAXLXLXLXLXDXvXMXZXBXJXLXLXLXLXKXKXCX1X;XCXLXLXLXLXLXJXCXNXJXxX6XW.@X@XM.E.@X_.(.*X#X#.&.`.@XJXAXl <.N.(.N.<.@.R.`._.R.j w ,.a d n.=XFXHX8X^.(.`.N.M.M.b k z l W.;X_.b M.M.l b uXSXsX6X#X6X6X(.S.N.N.#X6X6X3X}./.R.l g l (.eX6X6X#X*X#X#X#XqXjXkXjXkXpX6X;X5X7X7X5X5X4X5XZXFXKXDX<X#XR.E.E._.#X3X*X;XpXsXsXwXW.M.qXsXsXiX8XpXjX6XF.N.(.#X#X5X7X9X#XW.W.W.W._.8XsXwX$X;XkXkXhXhXmXkX8X;XwX*X=XwXwX<X=X<X2XFXFXvX;X=X;X$XW.C.n.i a c b b g c .X<XAXLXKXNXbXNXCXGXHXLXLXLXLXLXLXLXLXLXJXAXCXnXvXCXLXLXCXLXLXLXAXJXLXLX",
"@XE.Q.XX>XtXpXiXsXdXaXuX&XW.C.(.(.@X#X#XW.z k E.&.0 0 0 0 w ,.Q.W.&.M._.@.e 0 p Q 7 q e 7 6 7 A +.U 3.v.~ fXVX#.A 6.s.D.j.r.T.~.j.A C A X.+.*., - 1X;X3 7 A d.;.-.h d w j $.p 0 a h 0 0 > 4 1XBX!./ 3.3.3.G 5.l.l.l.7...7.6.5.k.+.h. . .t.+.~.v.j.v.h.| | | } } O.#.z.Y.Y.X._ X./ +.+.n.$XLXMXn.h.#.-.-.X.X.o.o.k.#.R.*X!.,.$.Q &.`.8X,.,.<.S.S.m.>.A.).~.3X3X~.(.&.l w 3 7 , Q $.#.<.<.<.N.S.-.8 8 e 7 w h h d d > v bX=X$.w 0 w 0 0 i h a > h &.d w h a 4 a Q.zX,Xb l l l k g b E.V.M.j a a j a z R.,.l M.@XW.l E.&X=X@XE.b &X",
"N.N.&.j ,.$.d 0 w &.g w r 7 7 M 8 9 A A q 7 8 C ~ A _ o.o.8 9 9 r r e e r ! =.' =.o.C 8 B I 3.I U L Y 8.1.6XVXD.J e.P.f.2.J U i.9.i.J.u.6.s.c.p.Q GXLXS.X.o.6.=.*.>.N.-.-.>.m.:.&.` ` q > h JXLX~.J Y Y J.0.U U J J w.2.2.2.[ 6.6.2.4.t.t.u.v.x.x.x.v.v.6.......t.v.'.t.7.( ( 3.u.v.p.0 c LXMXi Q +.F ....a.j.a.a.a.*.k.F.S.S.S.<.<.S.#.<.;.a.D.v.j.h.D.a./ / o.D.a.;.X.-...C / +.t.v.j.h.a.o.I B B ..o.( o.o.( ( ` R.VX@X` A A X.o.X.d p s 0 s ! 0 q Q s w - W.nXa w j d d d a 3 3 4 h &.M.j w e } -.} } N.N.j l a 3 3 : w &.&.",
"D.k.D.z.h.#.-.X.;.;./ A [ ....G 5...;.f.6...1.e.v.D.D.x.6.v.v.1.[ f.~.[.~.l.5.6.s.a.X.h.7.t.x.i.Y R R L 6.5X0Xo.2.f.L.'.x.v.v.t.L.L.9.9.u.v.k.Q &.JXJX$.*.;.d.Z.Z.Z.S.S.S.!.S.S.S.N.-.h 0 0 nXJXT.9.J.0.0.0.U 2.w.J.L.x.4.1.c.l.5.1.4.u.i.e.w.w.w.u.e.x.L.L.x.L.x.9.9.4.4.x.f.w.x.K.P._ OXLXGXd o.+.X.o.k.l.l.( o.l.D.Z.Z.Z.A.~.d._ ;.Z.d.l.j.v.v.v.v.l.l.~.D.j.7.j.l.l.c.u.v.f.q.f.[ 6.v.f.w.[ Z n Z [ [ [ [ [ w.d.S.pXN.C D 5.f.6.5.*.-.^ _ ( ( ( W ^ ~ q : l aXM.r <.-.! r e } s s ` ` n.N.:.X.3.v.D.~ 7 0 ^ :.s ! ~ r ;.<.A.",
"k.z.k.=.o.j.t.U U U 4.4.[ J D G 7.k.a.s.( s.v.w.v.v.i.i.i.v.v.6.v.v.v.v.~.j.7.j.x.6.6.v.i.J.y.T J.K.L N  .!.`./ 1.w.v.c.v.D.l.#.v.x.v.v.v.l.S.m.a <XaXM.N.-.>.>.N.<.>.Z.>.A.A.N.S.S.N.<.&.> xXkX#.6.i.w.9.w.8.w.x.L.f.6.v.v.v.7.1.6.t.u.v.L.L.L.[.[.v.e.L.x.w.v.D.6.6.s.w.i.x.v.f.e.2.( N.LXGX%...S / d.l.D.D.d.W o.p.=.=.d.D.D.D.l.l.D.s.s.7.j.x.D.D.Z.Z.}.~.~.D.a.D.~.~.i.f.P.P.P.x.f.q.q.[ J H N J [ H J H J J C N.pX-.C [ 6.[ ( Z.N.>.d.Z.6.A ( =.' W q , d .XM.,.R.N.%.| &.N.,.,.&.%.-.(.(.;...5.p.d.Z.F.).>.-.<.!.!.z.l.h.",
"D.!.h.[ / 3.K Y t.t.i.0.8.w.6.w.x.D.%.(.pXh.6.i.v.u.J.i.i.L.v.v.x.w.f.j.l.l.D.D.D.o.....F I +.r.+.2.[ ( q l (.s ~ a.D.~.S.S.!.@.-.Z.).).z.<.<.&.- O v g 0 &.-.-.<.,.` ! s ^ N.:.>.m.S.S.$.y xXxXl , S 5.( 5.s.s.s.p.=.o.r.l.k.a.h.l.l.v.T.v.{.[.j.v.j.5.s.j.7.a.Z.Z.Z.D.l.v.T.[.D.v.f.< 0 CXmX%.k.a.=.>.d.A.S.A.! ^ A.)./.~.D.D.A.k.k.D.l.D.~.~.F.F.F.F.F.S.A.).+Xm.` =.F.v.[ ' p.6.6.5.' 6.5...5.[ 6.{ [ 1.( 5.p.s Q.;X} =.o.o.;.>.*.N.S.^ W p. .=.d.m.' C p <XCXE.b ,.M.N.h $.N.,.m.N.&.R.!.<.<.<.S.!.S.A.S.S.N.(.N.z.z.l.D.l.",
").(.N.( C 2.w.0.0.t.Y J.K.K.x.e.f.s.h wXLX<.( s.v.s.6.w.9.v.v.x.x.f.e.8.f.k.d.l.D.N.#.<.&.| s 9 9 8 C q 0 wXwX# % + , e w 3 w w w q e e } e : d <XFXLXM.> a M.N.&.l ,.,.w q Q q ! s s s 0 E.FXFXg   X : 7 ! | | Q d p e 3 : 0 7 : : & : : % 7 7 : 7 7 : 0 s s d ` ` h ` -.-.| %.>.^ 7 # @XLXCXi s Q h h a a 0 - o - i h j } d h d d h d w w 0 i ` ` d l &.&.h d n.&.> # 0 e 8 Q ` ! ! Q :.=.=.N.S.F.S.A.d.D.F.S.' a ;XaXn.N.N.$.} ,.-.(.W.&.! ~ -.-.%.Q ` ^ w tXLX-Xb ,.&.$.h Q &.N.N.N.M.N.N.N.N.(.N.N.S.N.R.W.W.W.`.4X).}.3X).",
"M.M.M.$.! *.h.j.r.#...5.c.s.a.s.D.s y bXJXW.;.Z.Z.l.D.~.).Z.Z.D.p.s.D.s.s.).m.N.A.7XgXmXVXVXjXeX5X`.A.s (.ZXZXjX6X6X3XW.V.E.@X$X_.$.N.6X*X$.,.eXLXLXLXZX;X@XR.&.$.R.6XkX8X&.M.(./.(.<.} e iXLXLXLXmXpX*X*X(.,.$.,.E.V.E..XXXk M.XXE.v .XOXM.M.c E.V.b .X.XV.E.M.M.c n.c a 3 : - i n.a 4 zXLXHXE.&.(.<XvX<XV..X$X$X Xb v v k g M.$X$X.X%X$X<X$XV.i l g j ,.,.z a h W.$X<Xl = - w a w w 4 > > 0 a 4 4 4 > q 0 - @ - M.HXLX.Xy a y 5 - - = : d } } #.@.&.h Q q : W.LXdXk 5 4 a N.-.-.S.).(._.R.R.R.M.M.n.&.n.g k b E.W.N.A.S.(.N.n."
};
