/* XPM */
static char *_4multia[] = {
/* columns rows colors chars-per-pixel */
"256 256 256 2 ",
"   c #3B3A27",
".  c #31321C",
"X  c #433D28",
"o  c #655B1B",
"O  c #726A1A",
"+  c #4B4A37",
"@  c #57573A",
"#  c #4E4D2F",
"$  c #645B2C",
"%  c #6B6528",
"&  c #756B28",
"*  c #7B732C",
"=  c #7B7326",
"-  c #6A6738",
";  c #756C36",
":  c #7C7434",
">  c #7B743B",
",  c #7B7738",
"<  c #6E7137",
"1  c #555324",
"2  c #5C5B44",
"3  c #5C5C4B",
"4  c #565544",
"5  c #5D5D52",
"6  c #504E42",
"7  c #625D49",
"8  c #635D53",
"9  c #5E6149",
"0  c #5F6152",
"q  c #646344",
"w  c #64634C",
"e  c #6C6B4C",
"r  c #696748",
"t  c #736D48",
"y  c #7C7544",
"u  c #7B754C",
"i  c #797749",
"p  c #646453",
"a  c #6A6554",
"s  c #6C6B54",
"d  c #6A665A",
"f  c #6C6C5B",
"g  c #666658",
"h  c #726D54",
"j  c #726D5C",
"k  c #766959",
"l  c #6E7158",
"z  c #747354",
"x  c #7B7554",
"c  c #7C7A54",
"v  c #74735C",
"b  c #7A755C",
"n  c #7C7B5C",
"m  c #767959",
"M  c #6E724B",
"N  c #6D6C62",
"B  c #6C6A65",
"V  c #736E62",
"C  c #786D66",
"Z  c #747363",
"A  c #7A7564",
"S  c #7C7B64",
"D  c #75746A",
"F  c #7A766A",
"G  c #7C7B6B",
"H  c #777966",
"J  c #7D7C72",
"K  c #7A7874",
"L  c #6F7163",
"P  c #3E4221",
"I  c #847A2B",
"U  c #837B33",
"Y  c #847C3B",
"T  c #867A37",
"R  c #907E3D",
"E  c #827D1E",
"W  c #847C43",
"Q  c #837C4C",
"!  c #877B47",
"~  c #837D54",
"^  c #827D5C",
"/  c #867B57",
"(  c #827D64",
")  c #827D6C",
"_  c #867967",
"`  c #827E73",
"'  c #857E78",
"]  c #917F67",
"[  c #7E8158",
"{  c #7E816C",
"}  c #7E8164",
"|  c #7F8073",
" . c #7F813C",
".. c #8B8334",
"X. c #8C833C",
"o. c #88833A",
"O. c #938B3C",
"+. c #938739",
"@. c #908831",
"#. c #A2963F",
"$. c #8C8344",
"%. c #85824C",
"&. c #8C844C",
"*. c #8A8748",
"=. c #948B44",
"-. c #938B4C",
";. c #958A48",
":. c #9B924C",
">. c #9A9247",
",. c #858254",
"<. c #8B8454",
"1. c #8D8A54",
"2. c #84825C",
"3. c #8B855C",
"4. c #8D8A5C",
"5. c #86895B",
"6. c #938C53",
"7. c #938C5B",
"8. c #948956",
"9. c #9B9354",
"0. c #95925C",
"q. c #9B935C",
"w. c #989457",
"e. c #8E925B",
"r. c #A3984A",
"t. c #A39958",
"y. c #ADA45A",
"u. c #848364",
"i. c #8A8564",
"p. c #8C8A64",
"a. c #84836C",
"s. c #8A856C",
"d. c #8C8A6C",
"f. c #868968",
"g. c #928C64",
"h. c #928D6C",
"j. c #94886A",
"k. c #8D916A",
"l. c #949264",
"z. c #9B9464",
"x. c #94926C",
"c. c #9A946B",
"v. c #9C9A6C",
"b. c #9B9966",
"n. c #848373",
"m. c #8A8573",
"M. c #868973",
"N. c #8C8A74",
"B. c #85847A",
"V. c #8A857B",
"C. c #8C8B7B",
"Z. c #87887A",
"A. c #928D74",
"S. c #928D7B",
"D. c #968B77",
"F. c #8E917B",
"G. c #8E9174",
"H. c #949274",
"J. c #9A9574",
"K. c #9C9A74",
"L. c #94927C",
"P. c #9A957C",
"I. c #9C9A7C",
"U. c #969978",
"Y. c #A39C6B",
"T. c #A49B65",
"R. c #A29C74",
"E. c #A29C7C",
"W. c #A59977",
"Q. c #9DA17A",
"!. c #9FA16C",
"~. c #A9A369",
"^. c #A4A27C",
"/. c #AAA47C",
"(. c #A8A476",
"). c #B3AB79",
"_. c #B4AB6F",
"`. c #C5BA76",
"'. c #8D8C82",
"]. c #8A8884",
"[. c #928D83",
"{. c #928E8A",
"}. c #968C85",
"|. c #8F9083",
" X c #949384",
".X c #9A9584",
"XX c #969983",
"oX c #9C9A84",
"OX c #95948A",
"+X c #9A958B",
"@X c #9C9B8C",
"#X c #97988B",
"$X c #959492",
"%X c #9A9692",
"&X c #9D9C93",
"*X c #9D9C9A",
"=X c #979795",
"-X c #918E92",
";X c #A29D84",
":X c #A29D8C",
">X c #A49987",
",X c #A29D93",
"<X c #A29E9A",
"1X c #A79C93",
"2X c #B09F84",
"3X c #9EA189",
"4X c #9FA094",
"5X c #A4A284",
"6X c #AAA484",
"7X c #A4A28C",
"8X c #AAA48C",
"9X c #ACAA8C",
"0X c #AAAA85",
"qX c #B2AB89",
"wX c #B5B389",
"eX c #A4A394",
"rX c #AAA593",
"tX c #ACAA94",
"yX c #A4A39B",
"uX c #AAA69B",
"iX c #ACAB9C",
"pX c #A6A997",
"aX c #B2AC93",
"sX c #B2AD9C",
"dX c #B6AA96",
"fX c #B4B29C",
"gX c #B8B597",
"hX c #AEB194",
"jX c #A5A4A2",
"kX c #ACABA3",
"lX c #AAA9A7",
"zX c #B2ADA3",
"xX c #B2AEA9",
"cX c #AFB1A5",
"vX c #B4B2A4",
"bX c #B4B3AB",
"nX c #BCBBAC",
"mX c #BAB7A6",
"MX c #BBBBB3",
"NX c #B7B7B5",
"BX c #AEADB2",
"VX c #9F9EA3",
"CX c #C2BCA9",
"ZX c #C2BEB5",
"AX c #C3BA95",
"SX c #BEC1B2",
"DX c #BDC097",
"FX c #C5C3AA",
"GX c #C6C5B8",
"HX c #D3CDB8",
"JX c #C7C29B",
"KX c #C9C9C4",
"LX c #D7D4C8",
"PX c #E7E2D4",
"IX c #BEC2C3",
"UX c #857E84",
/* pixels */
"1 @ e w b # @ # - - d.f.@ w m l @ s H.q S G L n.s 4 3 f 4 + 4 4 z G XX'.Z.n.J J n.N.G a.a.H.N.Z.@XeX'.&XvXiX&X#X|.C.@Xn.H.S G p Z 4 s G p p s 4 n.Z H B.{.lXMXyX) S a.z S H  Xl s w 2 z 3 B.IXKXBXVXVXVXlXIXBXUX=X[.] _ 8 ` ,X<X<X{.) _ ] ] ^ ] ] j.j.D.] D.D.] / g.^ H.oX} p.(.9.....I ..E = ..+.+.+.>...* t.~.~.qXQ t.T R r...>.y.....I +.#.I I = = $.! W U = t.t.>.U -.&.-.: & q.! q.(.1.8.T.q.v.l.wX0X^.5X5Xk.v.U.K.0X9XfXgXfXgX(.!.wX^.Q.0XDXgXwX4.1 o $.! 1.qXfXFXaXfX8X@XI.H.oXyXyX&XmXyXfX6XI.K.l.l.1.%.4.u r r r c q c ",
"y <.3.^ E.x r - r 1 @ z S N.z 9 + w } S a.G S H l z 3XH f 3 # @ w n.H n.4XC.| #XZ.C.3 s w H.C.#XC. XB.&Xn.G @X X X|.@Xn.n.Z H f Z s 9 G | p w w 5 n.C.#X'.B.6 Z Z a.n.) Z.s l n.Z a.p + g B =XVX=XBXVXVXBXIXBXUX' C _ k d +X' B +X+X' D.D.] ] ( _ ] ] s.D.] A.A.p.j.A.N.oXd.i.,.=.I ..+...>.:.R T +.! t.+.= & ! ).qX<.& % T.t...+.+.....I I I I +.X.:.-.-.T +.>.>.>.=.T ! ! t.;.R Y -.8.1.,.Q l.t 3.K.K.^.k.K.K.0XK.p.f.Q.[ U.Q.5XhXv.[ 2.f.0XQ.hXwXE.l.; o ; T.Y.i.gXGXFXrXuXiX6Xx.H.@XkX&XmXeX8XoXI.0Xx.v.3.Q z.Q Q <.u 3.- u ",
"~._.Y.W.z.R.z.<.u K.r w w { XXZ s { N.h w n.S z a.} f C.n.s @ e z H C. Xn.f Z J S  XG p ) Z  XJ G p  XzXp z G H.Z H Z.| J C.J | G H 2 f oXZ 3 3 J 4 + f g p Z @ a.f f z F.9 + G G 3 f w + 4 5 D J ].NXBXlXlXBXlX` C a a V.xX{.].+X].+XD.D.D.s.s.A M.M.) ] S.S.rXsX;XM.oXoXd.~ <.9.* * T & $.-.$.=.! o Y ....* ; ! , , -.9.7.8.: T I =.* r.>.= ..I & $.Y : X.T +.+.I +.t.! W ! $.* X.T Y 0.v.Q.K.H.H.7XP.0Xv.0XK.U.0XU.Q.^.Q.hX!.Q.f.k.f.k.f.[ v.l.x.r 3.y , - j.z.x.rXiXMXkXZXyX9Xx.d.9XiXeX@X@X@X@X.XrXE.6XE.R.Y.! o W 1.! z.c.",
"! T.Y.T.z./ q.(.7.3.p.d.s s p S q d.n m d.z iXN.# z S A 4 A.h r w 2 S a.G p G |.{ V.C.3 N.Z n.@Xs G mXiXN.a.w S  XG eXZ C.@Xf 3 n. X+ 4 j s f 3 g n.g f J n.eXN.G @Xn.f G @Xz Z f G ) S.a.H H H G N H xXNXjXVXlX].' ) V V.+XjXlX'.+X,X}.M.D.s.) A M.` :XV.n. XeXuX+X) a.P.5XQ ! q.- y Y & Y ; : 8.y > , X...X.o o & * = X.-.! *.O.I +.R t.>.I @...o * ;.= I I & I = O t.~.< q.9.T & * & 8.t Q.3XG.H.rXP.f.7X^.K.v.U.5Xd.G.5X0XU.k.f.k.d.5XU.5.5.gX(.p.gXR.R.j.E.E.9XmXSXjXxXjX#X8XaXgX9XfXiX[.V.yXmXvXiXnXgXaXJ.qXqX! q.9.! T.W.",
"W.wX/.W.T.W.q.q.Y.<.3.i.n f.S I.2.2.4.x.I.S z rX@ z N.@ w H.e @ 2 e @ z { eXC.H .Xn. XJ f s w .XZ s  XH.z z 2 9 @XZ Z s C.8X| { z G H.n.Z 4 3 G Z f n.L '.J '.'.G G p f G M.@Xf g Z p G  Xa.N.a.) C.f B =XxXxXyX=X[.F G &X&XyX{.jXuXV.M.) M.D.S.M.}.) ) :X) ` [.` @X.Xs.d.j.7.q.4.~ 4.q.&.Q 1., - - ! ! t.$.:.>.* X.T *.*.0.4.> ..+.+.O T ..= E @.+.I O I = I U I ..I * 7.,.c.v.T.$.~.9.< 4.4.p.f.[ G.pX3XG.DXU.Q.Q.FXfXI.f.x.Q.[ !.0X9X^.v.).).v.0X0X0X5X6XfXCXrXfXFXMX*X<X&XB.8XrX8XH.eXFX&X#XV.uXFXmXiXsXrX;XD././.q.T._.T./.",
"gX8XE.E.J./.Y.7.q.Y.R.j.p.x i.p.~ u 4.g.I.A.A.^ @ z s e @ q z s @ z s @ 9 w f s A #XC.J p f S A S z C.N.@ 2 n w a.s.S C.H  Xa.F.Z G mX8XS Z f n.A 4 Z J #XxX{.' J @XG + Z Z Z '.n.#XG V A s S N. XM.G H B B K &X<XyX[.eX&X'.yXjX[.{.+XF V V.A ' ' ) M.b ) A d d +X+Xa.a.A.J.Y.z.! 7.7.<.t ~ ~ x @ 1 ! : ! &.-.+.9.8.%.%.4.J.^.b.: * O I >.= I = +.O.I O O = * & U I O o > U.K.g.wXz.; T.7.7.v.4.(.v.p.G.H.P.P.d.Q.0XK.0XgX9X5Xk.0X!.Q.2.p.(.3.0XQ.f.5.f.rXFXfXGXFXiXcXkX=X=XpXC.eXoXN.oX X&XkXjX{.&XB.yX'.@XaX8XqX;XAXR.AXqXt qX",
"6X6XI.J.0XJ.^.u ~ 7.K.2.p.H.d.K.,.<.7.z.c.j.g.3.z w n e # # e r @ # @ r s z S eXz F  X#XJ z 3 A d.2 a.oXS e z S S S H.H.@Xn.Z Z Z f n.s z Z s + Z n.G Z '.{.*XB.B.V p 2 s Z G #XxX=X&X{.=XF 3  X&X'.B.#XB.K K {.'.'.V.[.&X#X{.<X].` [.F ) .XS.C D.:X) a A V..X8 V .XrXrXaX9XE.3.y <.<.4.Q / u p.t t Q ! > ! t.>.9.Y.v.4.g.5Xp.1.q.o...= I = * :.& O = I I I U +.= = T ! 2.G.fXd.g.4.l.,.(.e.%.! -.*.,.d.k.s.k.f.5.K.(.v.x.^.^.I.Q.U.U.I.k.wXx.U.DXwXQ.f.f.Z.eXeXmXcXSXnXMX=X'.|.Z.oXoXeXpXkXkX@XV.+X#X#XiX@X:X8XgXCXaXgXgXj.- JX",
"^.E.^.K.x.p.K.~ y ~ ^.6XU.d.z r x u u 7.g.c.1.z.f.e n e @ r r @ r r @ @ r H.z S 3 + n.&X@X@Xz j 7 d.rXw N.a.a.z XXN. X)  X,X@X[.#XG w C.S z mXZ .X3 4 G #XH V.V V.` M.a.w  XB.*X*X].jX*X*X' 4 '.yX=X].{.' ].].{.J K ` +X<XjX#X&X<X[.#X,XF F M.C j S.M.j j M.V.+X+XS.M.) :XP.A.g.i.g.Q 3.g.7.z.g.~ ~ ~ 3.&.X.=.X.$.~.g.4.K.x.,.-.8.*.I I = :.: : & * I I I >.>.U O +.=.%.K.H.pX{ [ p.p.2.f.l.0.%.*.1.l.Q.^.U.v.4.l.(.0.; %.).gXI.k.G.gX3XwXv.5X9XI.K.x.k.G.fXfX3XcXvXF.Z.xXKX'.#X| XX@XZ.#XkXeX@X[.@XeXpX&XC.n.rX>X>XaXdX6X/ $ - ",
"gX5X;Xn r g.K.J.g.i.H.H.j.H.M @ c i.c 3.u 7.&.W c.K.@ r 9 r f.e h m f.@ z m z  XiXC.oXn.s N.H.A.9Xt z s N.N.H. X8X XC.C.n. XeX@XH #XV.@XF A f j a.f f ) ` N B.` F F d 3 p n.&X*X<X=X*X=XjX[.) C {.].B.+X,Xn.H 8 '.` V.[.V.&X=X*X=X<X=X+XV.M.` K d F V.` a V V K  XV.) F  X8XP.R.E.x.g.g.p.j.~ x ^ j.p.<.y ! &.-.! b.7.,.l.8.~.t.R U +.+.I : o 9.~.: X.= o * U * U R ! y 2.P.7XXX7XH.a.P.Q.k.x.l.e.e.!.f.p.!.(.(.(.wXl.e.4.5.7X3X3XI.k.G.Q.U.f.k.2.(.!.!.H.3XcXFXnXpXH l #XxX&X@XnX|.4XeXn.iX,X,X.X:X[.<XBXyX8X6X;Xs.rXgXaX1.W.Q ",
"aX9XH.f.c 3.x.p.J.E.i.j.d.f.z M @ n j.g.~ 4.<.<.~ x.2.- @ - c e @ z M p.n n a.G n.S.8X8XoXa.H.P.J.z @ f.( s S n.n.C.H H B.G :X@Xf 3 N ,X` p j a.# 2 N.C. X'.J H d f G p 4 B.*X=X=XyX*XjX,X[.V.V.V.#X[.V.Z G B.' J ' ` V.+XuXjX*X{.=X,XV.) M.` ].V F d F C.H GXMX` V +XiX X XaX2.t E.d.H.H.f.f.^ j.~ g.g.- Q %.&.q.8.q.7.Q &.-.Y =...+.....X.: Y Y Y & % ;.& * ;.= R t.~ - d.3XG.Q.8XoXXXG.G.0Xf.l.v.U.v.e.1.e.0.e.(.gXQ.JXK.G.XXH.7X7XP.5X0XK.wXv.K.Q.gX3X3Xa. XpXHXmX@XmXKXmX|.eXkXiXsXS..X.X:XH.S.,XmXxXiX;XJ.i.9X8X8X/.T.(.wX",
"E.E.P.N.A.i.t r d.aXaX9X9Xf.r c z c I.6X^.i.c./.6XI.x.c y - ~ n q z e e z z d.H.d.S N.8XC. XH.f.n z @ @ e z z z Z '.'.'.Z # G  XuXV F [.` ) oX Xj G z z a.V g N p '.C.Z V.#X=XjX=X*X=X].` ' [.:X` n.+Xn.V  XzXmX#X{.=XK F ,XkXjXxX=X{.}.M.M.n.` M.M.[.@X[.=XyXkX=XzXuXGXeXn.8XJ.f.5XP.s.H.P.i.2.p.g.J.E.l.7.7.7.&.&.1.<.1.8.-.=...X.T X.I >.X.& O o * o : Y o * >.;.&.Q u y l.K.2.5XfXpX3XG.N.3Xk.[ f.!.l.%.1.1.v.f.mXvXrX5X3XH.oXz N.f.k.U.x.^.x.0XhXfXSX8X XZ.C.eXGXGX&XkXmX XC. XvXfX;X.XM.S..X[.[.ZXmXeXrXfX~ ^.mXaXwXW.4.Y.",
"3.^.P.( z p.^ n d.d.P.aX8Xf.2.2.x.^ x.P.6XI.H.I.oX5Xx.7.b.l.p.H.H.I.rXw 2 w S n f.N.a. X@XH.a.e q z z @ @ @ q w z eX Xn.N.N.n.A eXC.[.,X[.p  XG B.Z + # H.@XH B.B.H G n.B.].'.lXjX{.=X=X{.=X{.].C.B.&X,X'.kXmX].<X=X=X' 4 +XuX=X'.kX=X[.) ) a 7 V ` V.+X=X{.=XkXmXjX#X:X@XC.A.i.P.H.P.M.N.s.2.j.x i.j.j.j.l.g.Y.7.z.&.&.~.q.&.-.T $.! * = I ..X.U U X.* o % & * = U : &., : ! ! y p.G.F.3X3XXXpXk.k.U.t ,.%.%.z.wXK.N.H.H.U.hX3XnXoXa.G.H.x.(.l.0XI.I.H.8XfXGXFXkXpXnXGXcXyXiXeXfXiXH.rX:XsXuX.X+X,XV.K kX4X8X;XE.H.rXCXFXAXW.T.",
"c.qX9X8XP.j.f.H.I.H.I.rX8XI.^.p.p.c j.E.A.6XH.I.hXH.j.~ Q 3.~ n N.a.mXC.Z a.z n q n N.H.iXS.w w z z z t e @ 9 z G  XG S S n.G G ) n.C.Z H f n.f p Z 9 z a.n.C.yXyXB.H J {.jX=X#XjX*X].{.=X+X#X{.#X=X].{.#X=X=X].jX*XjX].d ` &X+X].=X,X[.) ) 3 4 ` :X[.,X#X=XjXMXxX&XuX.X+X X( b ( b A.f.H.p.2.x.x i.J.5Xp.c.x.~ 7.Y.).~.b.8.8.> 9.$.$ % X.+.* T R X.T R U R 9.$.T I Y Y =.=.=.=.%.t I.3X X XXXpX} } 0XQ.[ 0X(.wX0Xx.n f.Q.hX9XoXN.3XXX3XgXp.<.v.0Xd.I.7XoXP.H.rXeXnXKXnXmXGXeXn.H.SXfXfXsXnXzXyX#X+XrX` yXiXeXoXaXI.rXCXaXj.aXqX",
"/.E.aXgX6Xp.2.9X9XoX:XfXrX5Xd.i.i.J.H.gX;X;X9Xd.G.9XI.^ 2.p.H.f.d.N.N.N. XoXoXH.r q a.N.N.s z S } n a.z f.d.S n w w a.a.w N. XG Z Z G Z N n. XG 3 l w l H.a.f '.kX#XZ N <XBXjX'.B.'.H [.'.{.=X<X*X{.=X=X*X*XVXVX=XyXjX{.].F [.[.'.kX=X+X Xf p 8 V +X'.&XB.'.zXMXZX+XS.) ) S.S.( z f.H.d.f.p.p.2.i.s.I.I.f.i.J.j.c././.).(.z.8.q.q.1.7.W % -.-.=.R * X.I I >.1.-.X.T & : T X.= * o u K.5XhXP.G.f.z k.k.hX7X3XgXv.x.gX9Xk.U.k.P.vXXXH.F.3XrX5X^./.H.H.d.a.{ oXH.a.H. XyXyX XpXvX4XoXmXFXFXvXMXNXjXyX=X,X+XB.eXkXiXaXaXoXH.aX8XgXaX",
"E.E.;XI.E.2.i.I.8Xs.@XeXiXfX;XH.J.8XaXaXaXa.f.5XoXoXN.oXI.p.n f. XC.Z.a.8XoXn.N.N.z N.S z z f.s.z S eXF.n.a.n s H.s.S f.9 s.eX@X+X` + | #Xf f G Z f Z 4 Z.C.| '.lXjXJ =XjXVXjXG N V.H V.J D ].<XxXjXNXVX*XjX{.jX&X&X{.].V.+XV.+X=XK 5 F ` ` f 8 Z F +X+XB.V.V.V.&X+XP.fX8X8X:XA h s.A.J.t i.z i.j.( d.N.P.H.J.x.K.aXE.p.6X).R.Y.7.q.&.Q i - 8.: & T R o ! 9.; ; * o % : % ;.:.T * Y l.0Xk.1 y u i [ f.8X@X3Xf.p.2.S FXiXXXmXpXn.iXeXiXiXiXmX9XDXFXH.N.rXN.C.s oXoXcXiXFX@X XpXnXfXrX8XoXCXsXvXzXjX<X].+XzXjX+X>Xa.rXH.8X;XA.:XrX",
"qX;XP.I.aX/.E.z A.8XrXrXfXrX8XH.aXoX8X:XCXs.S S M.oXZ H.hXH.a.a.S w l w N.oXn.A N.A a.z S S S a.} z n.|.@X Xs w d.z f.H.z S C.#Xn.G |.J &XyXeXeXH w n.C.| | f B.BX*XkXNXBXVX'.J n.B.F f V J ].=XxXNXNX=X=XkX<X{.#X'.J ].{.+X` F ,X=X'.].J V.` V.[.[.uX+X[.vX X+X'.M.gXCXs.S.M.M.) A f.H.d.f.f.S.A.H.N.a.a.f.E.^.H.6X8X5X6X0Xx.v.(.T.8.y Q Q 7.$.* * R : T T -.U $.$.! ! ! : & ;.:.: > % - < -.$.1.[ [ pXeXiXQ.[ v.z yXKXyX'.yXeX4X'.yX&X#X#X8XfXgX8XoXeX@XC.H.H.H.H.#XiXcXeX4XvXvX8X8X8X;XoX#  XBXxXuXyX=X{.B.+X.XoXaX8X( .XfXaX",
"qXqX6XE.K.0Xp.2.R.n f.5XH.N.S.:X@XC.,X[.rX:XoXM.) b r n rXfXa.s.w S z e n H.s z f.n N.f.@ z n.G e 2 G n.Z.iX@X XC.n.S S d.a.{ G XX{ 4 G | yX#X Xz 2 s { Z Z.n.J VX{.#X=X*X].H =XB.K g B B.#XBXVXjXlX{.=X{.*XjX=X#X=X<X&X{.V.+X#X{.<X&X` ` ` V.` V.D.` '.G F ,X` V.V.A z s b j M..X) s.5X5XI.P.s.;X8X8XI.H.f.n ^.^ d.H.P.5X6Xg.%.Y.z.7.- - ~ %.! o * +.U T ! T.! & T &.8., : o = * X.X.* *.o.! ! $.:.y U.rXP.Q.p.U.U.s.eXBXcX4XcXmX=X#XyX#X,XeX@XiXpXMXMXmX|.G 3XcXiXC.C.iXnXcXMXeXiXrXaXJ.(.q ` GXxXkXxXjXyX XN.oXA.s.aX:X) ;X6X",
"J.aX5XI.H.J.3.2.K.2.5X5XH.I.S.@X8X X+X:X.XrXN.G M.h q z N.oXw a.z H.oXn q q z 3Xz z N.I.@ z XX|.C.a.n.eXl G iX'.G n.G N.a.z z z s f 3 4 0 Z G G H.N.n.Z.n.H B.B.].K K ].-X=X{.4X=XB.' H ` +XBXVX=X*XlXxX*X'.=X*X' ].{.{.=X&X#X{.K '.'.[.].` F [.[.[.[.V 5 p  XeXV. Xf S..XA a M.S.b ( H.8XoX8X:XS.H.a.z d.I.f.i.x.f.G.P.p.p.).l.~ R.c.3.~ 3.<.<.: * Y : & > 8.8.T $.T &.q.% & X.& T * X.*.> Y Y > $.$.4.5Xv.u v.x.^.U.s &XNX=X4X&XlX'.&XeXeX#XFXFXcXkXBXNX4X@XeXcX@X|.|.@X4X#XkXeXmXrXrXE.).~ 8XeXeXyX4XeXvXfX8X5XH.j.s.P.I.E./.",
"6X9X;XI.x.4.R.R.x.c d.aXj.E.rX8XS.sX+X.XoXfXn } N.b z f.n f.e f.N.S N.G.z e s q # s z oXa.z G |.iX XB.C.s # G N V.G n.p @ F.Z.G  Xn.A G + p z 3 a.r H Z.H Z G G ].K {.].K VXlX*X*X<X&X` Z '.kXjX].-XVXjXxX{.' {.D =X{.B.{.<X<X].#X'.'.].+X+X+XV.V.V.D.V.G p C.@XF N G f gX8X7 7 j N.M.M.oXoXN.s.oXN.b s.E.^.wX0XH.a.f.H.U.p.,.(.g.R.c.z.R.u ,.4.! Y & o 1 o W &.& : : & b.i ; % T : +.Y > $.& * & T ..$.%.1.-.1.K.^.Q.P. XkXjXyX X#XmXcX&X#X@XSXvXkXyX=X&X XvX X| pXeXpXiXvXiXsXfXmX8XrXaX4.z.^.I.I.8XN.N.S.;XgXE.J.A.H.oX5Xi.c.",
"l.d.8Xf.k.2.0XP.I.5X5XE.R.I.rXiXrXrXmX:X:XI.N.H.z S N.I.d.H.n n a.N.N.a.a.I.N.f.oXH.f N.z C.@XC.n.V.n.S 9 2 a.#XC.J S S G l n.G  Xn..Xa.+ l q w 2 s s N.{ H p 0 yX'.K &X{.lXjX#X#X#XyX'.F G jXjXVXNXBX*X*X{.{.{.K K ' D ' +X[.D '.H B.,X,XmXzX[.` ` V.n..X[.d uX'.H f f s z 7 @ 3 A  X:XH.C.8XH.N.fXaXP.j.j.0X9XH.H.n k.k.2.2.j.8X2.,.g.4.3.c x.l.> < ; > ; < , * & * % > y l.i Y : : : , $.Y =.=.T * o.> : -., l.!.x.U.s.nXkX&X X X@XkXpXcX#X'.iXiXyX'.yX&X#XcXcXpXeX@X@XsXgXaXfX8XrXrXaX)./.^.I.d.5X5X8XI.gX8XaXW.i.( s.d.x.<.",
"<.c J.I.5XK.I.H.I.H.I.H.^.I.H.iXsXM.[.iXrXXXoX8XoX XS H.H.f.n f.a.s.{ Z.H.N.d.s.eXiXH.oXC.n. XM.f Z C.H.H } z M.Z Z N.a.a.Z.pXZ 3 n.sXa @ z h s l S S 9 w s N H jX*X].{.=X{.'.H V ` ].F ` V.#X=XjXlXBX*X{.*XB.' N g Z ` V.` ` V.'.F V [.+X` ,XbXmX[.C.M.C.kXF B.B.'.` Z j p j ) n.M.H. X Xn.oX8Xd.aXgXaXJ.S a.H.H.oXs.f.p.H.x.d.( f.v.2.c.j.^ x.u y y W t - ! $.U : : o.%.i u ; & Y ! 8., i Y T : ..o.$.$.% & ! $ 4.wX/.f.N.#XkX@X3X X4XmXyXkX|.mX&X#X'.[.[. XyX3XXXpXN.n.e 6X0X9XaXH.uXFXfXgXgXaX5XA.5XE.A.CXsXJXR.E.E.x.I./.g.",
"7.7.3.J.A.H.oXH.H.I.I.I.j.x.H.9X8XS a  XeXC.oX8XeXiXS.S.P.H.S n G.G.z S H.C.a.N.n.n.n.G |.n.S N.N.{ C.oXF.s.G A s q w q h s.3XZ.{ N.M.A s { s 2 z H S e e w Z '.' {.#X'.{.B.n.S C.J F Z Z @X,X].K -X*X-XK <X].K N V S.M.V.j F V.[.+XV M.[.D.` uXLX,X.X:X) [.C.V H | C.vXH.) S.) C.C. XN. X@XH..XI.H.s.P.8X;X@XH.N.N.N.I.aXaX6X^.d.f.5.4.R.^ E.j.c.Q y &.W y ; 9.9.;.Y % ! y i Q > : T W , 1.Y Y $.$.& %.q.> > 7.; > e.^.U.f.3X&X X@XiX#XcXiXkXGXMXuX X[.+X@XzXeX@XSX8XH.8X5X5X5X;XI.rXzXvX;Xj.E.aXgXE.;X;XD.rX.XE.R.j.qXp.2.x.g.",
"6Xc.z.c.P.A.d.u u 3.j.K.p.x.K.j.aXgXH.oXpXH.n.oXa.:X@X:XJ.K.i.s h m a.n.Z n.N.H.n.n.Z.XXC. XS z e @ N.C.l G .XS q z z n G.G.z S pXfXA S s 2 w S f l z z e a.n.B.| J J J #X#XF.a.[.V.N F G C.[.J B.].].lX*XjX<X-X'.F ` [.) F F Z j D.) V D.[..XrXS.) rXM.F +X&XB.{.#XeXG a.S.S. XN.N.H. X XfX@XA.S.N.a.8XfX8Xa.H.rXH.P.d.A.P.J.J.d.d.2.g.~ t j.3.2.y ; : 1.1.W &.: , , % - - i ; ! Y $.q.&.> % $.: : 8.- %.; Y 1.~.i 2.U.U.P.oX#X@X XeXnX&X#X#XmXkX&XuXuXC.[. X#XnX4XiXoXrXaXaXmXvXCXmXiXvX9X3.i.sXCXaXE.gXaX:XrX8XJ.Y.(./.x.K.E.",
";X3.4.x.J.A.J.&.<.g.c.K.l.4.<.Y.K.5XHXrX8XoXS.@XrX.X:XA.J.K.j.f.h m a.C.C.n.H.N.n.G 9 l Z. XH.S r @ z { s S eX) q H.f.q s s.N.f Z.8XoXn.f z S a.n.oXN.d.n S n. X@X| Z G Z.J f Z f n.` F G ` [.B.'.=XK jXxX=X=X<XjX].F F V.A ` J k a A j ` +X:X[.M.a.) M.M.G zX*X&XZ.C.L f z S.:XC.N.a. XC. XC.) M.:X8X@XoXH.d.} gXE.( P.) b x x H.H.x.p.p.i.x u t Q T.! -.q.W W &.! &.y y y : & : : * : -.% & Y : & ! ,.Y.-., $ ! Y.K.Q.7XP.iX#X X+X#XiX#X'.B.B. X XiXzX[.@X X'.cXnXpXa.8XGXmXsXzXzXFXiXH.gX3.3.gXmXCXaX;X;X;X:XoXJ.R.W.4.K.J.aX",
"9XK.l.K.oXM.^ 3.u ~ g.z.T.<.q.q.- r 5X5XH.H.oXoXmXoXE.c.~ x.J.f.2.e e N. X@X X@X.XG n.7 w H.H.z e r M e s.H.S z n f.f.m h z d.z ) .XoXH.H.S G s F.oXH.a.S w [.@XC.B.B.yX#XJ G '.A n.A j A F {.=XB.=X&XyX*X{.{.{.+X' ` A j A ` [.sX.XuXF V V.rXS.a n.j A M.M.'.#XJ J '.V C.A M.) N.Z f n.P.a.S rXeX:XsX:XoXP.H.i.j.d.H.S. X.X) H.^ 2.H.x.p.j.x u 4.1.9.t.Y Y ! ! q.8.&.y y - < ! ! > $.: , 1.$.: > > %.; $ , $.Y $.! (.p.x.H.H.oXeXeX@X+X=X=X=X,XeX:XoX8X:XoX[.+XcXcXrX8XrXfXeXn.&XkXMXGXz H.fXoX@XuX,X&X,X:X;X5XH.oX6X6XW.gXJ.E.",
"6XE.A.H. Xs.p.,.3.Q 3.Q q.&.! z.,.u f.9X9XoXXXeXoXa.i.E.~ t j.H.j.p.f.z N.oX8X:XoXH.z j f z 2 2 r f.z r f.;XA.d.n f.e z z f.n n H.@XS.z oXZ.z H J Z.C.z z s n.S.n.G H #XG Z F n.Z a f j j ` '.&X{.{.'.B.].B.'.K V.B F .XS.rXS.M.rXiX,XV.' F V.` ` [.,XS.V V.'.' +XV.+XV.M.F M.G G n.N..XN.P.S.rXrXa.H.N..XH.H.gXJX9X:XS.) rX.X8X^.2.c t x 2.3.~ 4.Y.T.9.-.! , % 8.8.<.u g.u c.3.Q Q > i 0.7.0.-.! i 0.l.i b.q.9.8.%.4.v.U.f.d.5XFXnXrX&X[.'.{.<X@X:X:XP..XS.C.B.@XcXP.oX8X@XyX@X'.#X#XnXFXrXrXeXMXMX&XyXkXiXfX8XrXeX:X8X8XaX6XH.",
"E.P.uX,X;X6X4.<.z.4.z./ 4.<./ <.(.[ r x f.S N.eX@XrXP.E.2.p.^ j.d.H.8XH.n. X;XH.N.N.G p z a.s H 2 m h # n a.H.H.x.n e 9 S d.H.Z.H.H.s z s G f n.J V.@XC.S ) a.s.M.M.n.a.p j f F f j A G +X'.' ' {.*X*X=X].{.yXB.F V j .XmXmX}.A j M.+XS.[.' V.V.].` F M.V.[.yXV.` V j  Xd C.@XC.a.n.z H.s.H.A.) .XS.N.) N.) a.P.9X8XS H.N.s j j f.z @ - $ t j.j.j.g.z.z.&.! T $.! Q 7.,.~ x.x.c 5.,.y %.u - 0.1.$.0.,.I.K.u 0.%.0.-.~.!.K.K.9Xd.d.8XvXnXvX X&XjX+X` +X:XS. X,XkXyXeXeX Xn.&XiXvX,XeXvX@XeXCXvXmXmXkXjX*XxXmXeX:XzXuXrXmXrXI.9XaX",
"6X;XP.P.D.6Xu $ 3.W.W.E.3.c.E.6XR.c.u r - n N.n. XfX9X6XH.^ i.j.f.N.8XH. XH.s.( N.z a.l  XoX@XoXz @ z q z H.I.H.K.x.d.r n S S l C.oXz 4 H.C.N.:X,X'.B.eXS.A S M.) .XC.Z j n.G Z F n.C.V.[.'.'.' B.B.].&X].B.` ` F F ) M.[.S.[.` A F ` {.` C >X}.C [.+X:X,XJ Z n.:XS.[..X.XS.C.n.) V V.a.s.( s.:XS.A.M.S.) N.A a.N.H.a.N.8XN.S.[.a.b h t ^ r j.j.~ ~ c.Y.q.&.T -.&.i $ Q p.x.f.2.4.4.5.l.,.- %.1.[ v.x.H.fXhXv.p.0.!.(.,.5.^.5Xd.p.I.N..XrX8X XjX,XV.` V.` [.V.uXyXeXiXeXiXuXiX@XzX,X,XkXkXvXNXNXBXjXjX#XyX#X&X<XyXuXmXmX.X:XS.rX",
"aXaXqX/.aXwXj.J.R.W.E.6XK.H.I.;X/.g.c.).l.x.H.A.@XiXS oX5XI.p.d.S S XXXXC.oXs.N.H.H z z 8XrX XN.a.@ e z z S f.a.n 2.d.n f.f.h s p z oX{ { G G rX@X XC.n.n.C.n.C.G C.C.G G n.g H G G  XG '.,X+X].=X=X=X=X'.B.N V.V.) ) F C d [.[.].V.,X+X}.D.>XCXLXGXa f C.C.@X XG ) ) M..X.X,XeX X.X.X) A.8XoX;X.XoXs.S.8X@XsXH.N.M.oXA.H.S M.[..Xj _ t ^ i.i.E.i.3.~ 4.y ; Y Y , %., Q x.t c [ 0.1.u 4.1.; % i 4.p.d.n P.8X0X!.l.p.v.^.U.d.H.a.d.f.p.f.8XiX@XiXkX&XjX` [.uX,XsXiXiXSX@X,XiX'.J :XuX+XC.kXxXjXjX*X=XKX&X&X<X<XBXjX+X].zX+XM.S..X",
";XqXY.~.qXgXdXqXgXqXE.P.5Xd.;XgXj.^.z.<.4.x ^ H.n.GX@X@XH.5XI.I.8XH.XXiXeXS.a.S N.N.N.a.N.H.8XN.S S n n S S m f.H.f.f.n e n } h S S 9 G f s  XoXS H.H.z Z  XS.Z w z C.'.n.B.#XJ @XC.'. X|.#X` B.' jX#X{.{.#X` B. XA V A A mXsXS.V.].LXzX) ] _ ] .X+ 4 A  X@XoXoXS.[.n.A :XrXsX:X:XsX+XZ H.8XrX:X:XS.( rXCXH.) C.) b A.H.oXA.) S.N.S.s.A.^ i.j.i.j.J.c.g.Q <.&.&., i ; i l.p.4.$ < %.< ,.1.i 0.! 4.,.p.H.z h 7XQ.p.5.x.x.2.f.d.N.rXI.x.^.9XvXpX#X,X=XyX=X[.@XmXrX8XrXnXiX@XmXmX&X@X,X@X'.=XjXjXyXZX#X+X'.+X=X<X&X&XMX,XzX,X:X.X>X",
"W.j.z.W.qX;X8X;X6XqXgXqXgXgXi.P.8X5Xg.,.c.E.d.d.Z.3XSXnXFXnXrXoXH.n.n.eXnXpX XN.n.z H.N.H.z H.eXoXM.N.) C.eXn.a.} z n n f.n n e z Z.C.XXG f S H.Z a.N.oXn.G G z z f M.S. XV.,XJ @X Xn.H B.'.B.` K ].B.B.B F n.V.V ) ` ' V.mXrXA a d +XuXD.:XS.7 j j V B.Z V.G  X+XM.) ' rX+XM.S.rX.X.X` .Xa.eXV.:X.XS.aX:XM.M.S.d.s.( ;XA.) oXs.H.@XS n..X;Xi./ / ^ J.j.E.g.P 1 1 - i i l.l.v.- y z.x.2.4.%.e.u u ,.x.x.^.d.9Xs.[ f.z p.K.P.H.I.H.G.p.d.H.a.8XiX&XyX#XkXuX XrXI.;XoXN.oXvX&XiXkXnXnXeXkXjXMXKX+XsX.X.X+X<X[.<XjX].'.#XkXzX.XdXdX",
"E.D.E.qXdXE.8X;XqXwXdXgXaXwXaXJ.8X8X9XK.d.H.8XoX XeX@X X XN.S N.s.N.n. XeXiXC.L M.N.N.a.I.H.S G @XC.S..X X X#X@XXXZ.z n t n d.z a.G H G 9 s s { Z l s S S z S e m a.s :X+XM.F 8 Z  X X'.'.&XB.[.V.{.].' J F G n.G ` uXD.M.) M.s.w ( ) M.S.V.) A mXHXzXeXC.@XH Z [.n.V M..XrX}.) V. X[.+X:XS.,X,X+XC.oXN.N.H.rXCXA.s.s.:XM.s.H.d.:XiX XB.n.oXE.D.J.j.W.AXE.gXj.t 3.g.~ v.,.~ v.u 3.K.^.k.p.v.v.5.4.4.[ p.x.p.n d.U.U.x.x.p.^.f.H.a.N.8XK.p.H.oX+X&X@X&XNXmXiXfXH.mXHXoXF.mXnXiXeXvXvXvXzXNXKXKXvX.XsXrX.X<X+X[.kX,XyX,XJ zX:X>XCX",
"+XrX>XrXrX:XS.zX:XrX1XCX>X;XdXaXeX.XrXaX8XN.a.z s G s Z.oXH.P.H.b N.S.H.@X#X XZ V C.M.N.S N.a.G ` G V.G F V.` C.iX@XoXH.f.S f.f.G n.n.n.s 2 z f s s h m m n n e s a.G +XV.` N G G C.C.C.J jX#X].{.=XV.` d V F ` @Xn.V.` V.S.j ` ) ) .X:X[.F +XM.h s.H.H.C.n.yXkX+X[.V.) H.S.S.>X:XV.` [. XeX'.#X+XV.V.V.V.+XrXCXM.P.S.S.rX;XP.a.C.&X XC.C.C.N.eX8Xj.^ CXdXA.9XI.i.c u Q 1.1.! y 2.x.d.d.c x.Q.P.k.f.f.k.k.v.v.5.p.0Xx.v.y u p.2.f.H.@XrX9X0XoXn. XmXMXlXkXkXGXmXmXGX@XoXiX&XrX8XvXrX:XeXMXGXvXsXZXrX.XM.+X=X+X.XS.,X[.F +X=X' ,X",
",XrX+XS.eX.XrX,X.XrX}.sX:XP.E.gX:X.X.XrXmXd.S w z Z.H @XHXsX:XM.A N.rXiXC.n.eX Xj G S.Z.a.@XH..X XC.V.Z  X#X&XV.| C.G ) a.S N.N.H H Z.N.z z H.N.Z.} r S h w n s w a.N.F +X#XB.&X+XV C.n.{.*X=X'.&XB.` 8 A ` V.G ` n.[.n.3  Xn.V ' j A  XF 7 [.S.N.h s a s G B.`  XV.M.M.S S .XD.M.}.D.uX` .X[.M.[.C.+X&XeX[.H.H.H.P.P.D.A.s.N.( C.eXC.C. XeXn.B.V.s.x.qXaXA.9X;X9XE.^.4.%.%.<.4.c f.f.I.I.k.P.oXd.G.P.G.P.k.[ v.Q.I.H.K.4.,.0XI.d.s.N.H.p.U.I.oXoX@X@X#XmXMXkXMXyX XmXiXmXeX;X9XgX9Xs.@XmXkX'.oXvXrX8XeX<X<X<X:X+X:X:XuXjX,X{.[.",
"S.S.S.M.S.S.,XvX[.,X:X.XaXgXP.aXoXA.H.H.oXw a.s H.oXrXeXN.S.@XS.s.H.eXoXC.n.@XeX.XN.S. XH.C.oX XC.C. X@XV.B.#XC.C.J G V.G  X@XS a.n.z z a.N.S S s w s s 2 h a.z s a.C.Z H #XkX#X,X&XV.+X].=X&X#X'.[.V 4 F F ` '.V.C.` ` n.[.+XS.V.V.) Z V.F V.M.N.S.z S C.C.n.f n.B.[.n.f ) aXHXFXfX' ,X:XM.S..XuXMXyXeX+XS.p G A.j ) b t h b h r A.a.N..X@XC.[.'. XJ.R.^.d.H.a.gX8XJ.x.R.v.r e d.f.N.G.Q.hXI.8XF.cXP.a.G.H.p.p.K.d.n ^.K.p.d.gXaXI.^ I.aX9Xf.S N..XnXyXkXeX&X&XyX@X8XvXeXuXrXH.I.I.9XN.jXGXFXiXiXiX X@X,X&X+X+X[.,X+XF =X,X+X` ",
"S..X.X.XM.:X,X[.iX+X+X:XgXj.oX:X8XA.aX9XP.s N.{ n.a.S N.oXP..XrX5XA.oXH.@XiX'. X@X.XM.N.oXC. X+XH.N.n.'.'.n.G C.C. X X` J n.C.{ H iX XS z h d.z 9 N.N.h 9 S H G j S.@X[.J J {.#X#X#X'.=X#X{.].#XH H n.V.V.` Z V.J  X[.,XF V.GXuXn.M.F j ` [.F M.a.:XA z S.:X.Xa |.#X+X,XG j .X;X;XdX}.].uX) ) ) +X+X+XC. XG F G S.s.b ( A.J.8X( ( t b ) M.)  XeX'. XrXA.d.I.N.H.H.H.5Xj.R.K.d.} 3Xd.P.f.s.H.fX3XF.F.F.m P.I.U.p.g.2.i.J.9Xx.H.d.i.x A.5XI.gX9Xf.H.S.rXrX@XeX.XeXMXuXC.@X+X+XeXN.S H.J.P.'.yXGXMXvXeXeX@X&X=X{.&X+X` [.=X{.].+XS.",
"s..XP.D.S.,XzXiXiXvX:X:XoXz oXmXaX5X8X9XH.a.S S a.p a.f.H.J.5XH.A.H.8X@X&X@XuXV.S S C.n.C.eXn.G f ) C.Z J +Xn.j j G +X` n.N.G Z.G @XXXS s.n f.H.m } S n 7Xa.s l ) M. X[.H g C.#XB.].].J K H K ].K H '.Z n.,XuX#XB.V V.C.Z V.sX.Xa ) G M.` ` ` ) N.M.S.S.M.C.C.G yXB.[. XeXC..Xs.b ;XuX` H  X X) B B.V.a oXC.V.p ) s.] i.E.J.s.A.J.i.^ s.S.C.G @X@XC.@X XeXoX5XH.;X9XH.j.0Xf.9XoXN.H.H.P.I.I.8XpXrXN.F.7X} G.G.n i.3.x.g.j.x.f.J.5Xz a.8XoX3XgXd.H.P.oXFXrXrX:XeXvXvXsX XeXeX.X XzXFX^.p.rXmXBXBXkX#X#XiXkX=X#X&X&X{.<XKXxX+X.X.X",
"A.j.M.D.S.:XsXvXM.oXiXiX8XrXH.iX;XI.I.d.n z w z N.w ) N.5XJ.E.x.z a.eX&X&X#X@XC..XC.S.eXn.C.C.` 3 Z n. X[..XoX@Xn.) N.s j s r a.N.Z.oXn.w S w z } r } r s.H.F. Xn.V.,X.X[.N V B.G #X].'.{.J N B.J '.@X XZ F B.'.V. XV.n.[.S.S.C.V.S..X' [.V.F Z oXM.G n.n.f C.C.'.B.'.J |.&XG S.) ` V '.g G S.M.F F a A M.M.N.@XM.s.( s.j.P.s.b x i.b A.N. XG Z 8Xn.'.{.&X XoXoXI.H.f.j.K.^.I.hX8X3XH.N.d.H.P. XG.P.oXN.f.H.P.[ i.g.g.c.j.J.c p.9XN.XX3XiXF.d.p.H.8XrXrX8X8X.XM.iXeXeXvXeX@X XiXKXCX9XJ.8XmXKXBXkXSXkXyX'.KXkXjXxXxXmXmX&X+X XP.",
"j.i.D.D.D.:XvXeXb a eXiXH.mXH.n.8XI.J.^.j.x.p.H.N.N.z b s.s.I.A.oX8X@X#X#X#X` Z f S.uX X Xn.@XC.` n.+X[.n. XM.a.V.@Xz # z h } H.3XN.@X XS s s oXz G N.N.z 3XkXMXuXJ [.:X[.A a w + 5 B ].'.F N V.yXC.`  X) V F B.V V V.M.V. X:X) G M.S.+XV.,X:X.XN.z p Z #XC.n.C.#X'.B.B.'.'. XS.) n.V.` @XsXrXrXM.:XD.a S..XA P.;XP.s.s.^ ( s.A 7 z a..XC. XH f eX.X=XMX[.C. XiXN.oXa.A.H.5XI. X8XoX8XH.H.G.oXrXH.N.oXH.8X3X7XoX5Xx.3.g.f.8XJ.t n 8X8XeXpXoXf.v.j.A.S.8XoX8X8XH. X,X@XeXiXeX[.mXMXsXA.6XgXiXmXzXSXvXyXMXkXkXKXKXIXBX*XNXMX,XoX;X",
"i.] ] D.S..X XvXgXN.:XiXF.8XmXoX8XP.f.K.E.t e n s a.z S z M.A ) S.eX#X&X[.#XeX+XG j ,XC.G F C.n.J F J `  XrXz w V.iXw 7 n n } h oXF.Z.@XXXa.F.LXyX XC.oX X&XyX&XGX&XG [.a a M.j w g #X'.B.V J ].<X[.F  X` V.uX,X+XA S.C.f G eX:XS.S.A >X,XF F ) S Z G G B.J &X#X@X+XB.' yX#XC.G A ` S.j .XHXHXD.A ) .X:XS.A.P.aX.Xb 8XA.j.D.M.A M.Z Z J eXn.eX@X,XuXyX` @X X X*XeX:X XH.J.gXsX Xa.3X3Xd.I.H.f.8XrXH.oXrX8XF.XX3XH.^ i.j.P.8XaXI.N.oX8X X@X8XJ.,.p.P.rXfXa.oXH.eXmXiXeXvXKXPXnXiXeXH.aXfXsXeXvXFXkXkXmXmXGXGX].BXKXMXVX*XmX#XH.E.",
"A.P.D.) S.S.:XoXnXGXiX8X8XN.mXrXj.P.A.A.H.d.c r e f.z oXG.} H.2 n.n. X@X:X X XM.a.S [.uXyXeXz S C.'.G H Z C.N.d.N.( z f.f.t M @ f.H.a.{ n.@XF.mXiX,Xn.G  X|.B.J |.&X'.+X` a.) a s n.B.B.G n.J H p F G C. XvXGXZXvXF V [.C.Z .Xn.+XeX[.` [.[.[.V.+X XZ N C.F V.G F ` [.` ,XB.H N B.J Z 7 s A.D.j ) ) M.8XoX.XrXmX;X( S.S.) N.A.( ) C.[.Z N.a.N.C.+XiXzXG Z C.V.V.|  XrX;Xi.^ I.H.N.oXI.f.H.x.p.t J.;XoX XiXpX#X@XH.n p.p.H.;XP.P.5XrXnXmXrXI.J.c H..XeXeXS.N.XXeXvXiXmXcXSXGXKXuX;XP.eXZXmXvX8XvX&XKXKXxXMXyX=X#XKXMXKXBX&X,XP.s.",
"A A ) C.:XiXvX@XZ.eX8XH.P.s.5X9Xj.H.j.;X8X9XI.d.H.n n I.P.G.8XS N.H.H.N.C.N.N.S z N.C.C.@X@Xa.a.C.C.@X Xf s m I.oXs.( f.^ z d.z f.m Z.N.Z.Z.Z.C.#XnXeXC.@Xn.'. XG |.&X&X@XC.oX@ z Z f H n.J ` `  XA n.`  X,XvX&X) V.C.) S.A n.Z iXvX[.V.[.V.,X` f J 4   F J H V.[.` '.B.4 d N N N d F p d M.) .X) j ( A.oXS.rXGXP.b ) M..XS.:XM.( M.,X.XS a.S.) f G @XeXiX+XC.iX@XeXC.oXE.e i.8XI.f.f.I.I.d.p.^ c J.oXXXXXC. XeX8XoXH.H.I.H.P.8XoXiXrXrXs.I.9XI.P.sXvXvXvX XC.oX@X XeXyXKXMXGXFXrXrXeXvXzXvX,XeXGXmXBXxXxXGXBX&XK kXBXjX&X#X[.:X",
"V.[. Xn.C.eX4XcXeXH.rX9X5XfXoXd.x.2.P.8XoXoXH.oX5XH.J.2.H.H.H.N.n.z S n.s 2 e d.e a.C.G `  XM.S N.N.C.eXs 3 { N.H..XH.d.c r z h f.H.G.s Z.@XXX Xn. X XB.C.&XB.C.B.n.G V.rXz oX} s s + g '.C.` V S. X) ) .XV.C.n.H.M.) N.) A ) S f zXrX+X` [.,X` [.V d J B.[.V.'.'.f g #X[.B.&XB.D D K ].{.[.) S.S.) A b A..XM..X] ;XrXV.rXuX+X[.s.N.M..XM.) M..X@X7 S.iXeXvXC.G C.C.eXoXI.d.J.oXI.s # b f.I.f.f.p.H.oXpXH.z l F. X3XH.d.8XrXC.8XiXiX8Xs.K.5XrXrX@XuXkXyX@XS.a..XH.A.N.eXmX4X'.uX,XsXmX&XyXGXkXyXkXMXGXjX#X&XyXMX'.yX&X'.'.uX:X[.",
"zX,XkXnX@X@XC.G oXA.f.6XH.a.I.H.d.d.;X;XoXoXoXA.I.J.j.p.H.3XH.S l { Z h h # q e e N.oXoXG S .XN.Z oXC.s n.s z N.@X.XI.E.p.f.e e r f.a.{ { S H.C.XXn. X'.Z.'.f H  X X'.C.M.a.z N.H s p B.'.&X'.,XS.z ) N.) M.)  X.X.Xn.) ,X` ) n.2 4 .X.X:XS.].,XV.+X#X#X'.].'.J B J ' J #XB.J #XH #X{.K jXF CXGXM.S _ ) A .X:Xs.P.gXCXGXV.&X#XiXS.H.M.G rXS.[.@X@X Xn.n.n.Z ) eX XC. Xa.f.H.d.( f.f.@ @ q h H.;XI.3XiXmXiXXXH.F.Z 8X8XC.eXpX@X@X X3X8XN.I.H.@X3XeXkXyX X:Xa.a.H.5X8XoXS.mXGXmXuXzXiXmXFXeXyXmXyXGXMXKXZXKX#X'.MXMXNXGXjX[.J #XvX",
"&XJ ` mXeXrXrXM.P.I.p.j.s.H.oX8X8X8X8X.XA.d.d.H.5Xj.R.p.x.N.b z C.Z.G 8Xf.e @ r n f.a.) z N.n.H.H.H.C.S a.N.N.oXH.f.d.2.p.p.2.d.n z z Z.oXG a.H.C.n.4XC.B.@XZ p G C.C. Xz S h h { @X#XC.kXmX` C.8XS.N.M..XM.) A V.V.+XV.n.F #X@XN.j Z S.[.uXuX+X[.mX[.J B.V.B.yX*XjX<X'.'.N 4 J &XN H *X+X` A A.S A.A.( M.gXaXA r E.CXrX:X+X&X'.+X:XZ  X,X&XuXkXn.C.iXG G G a.:X XV.C.oX8X8XoXoXI.d.t @ f.e a.8XoXXXvXpX X3X8X@XH.@XeX XmXmX#X XeX@XeXmX@XeXiXcXvXcXkX@XP.I.5XN.N.d.oX@X#XmXGXzXuXiXmXnXkXkXzXZXzXzXmX.XM.@XkXmXMXmXuX,X XV.'.kX",
") M.J n. XM.8X;X8X;XE.d.d.H.@XiXiXeXmX.X;XI.A.5X8Xj.^ x.5XN.H.S.z Z.S z a.S n z n z w z N.H.G ) C.a.Z a.oXH.z N.I.d.x.K.x.c c e 2.c z z H. XoX X Xn.C.n.3 Z N.H f w 9 { N.Z.S } G n.'.B.#XkX[.d M..X) M.rXrX[.[.C.F .X[.d G F J n.M.) A F +X,X,XF ` G '.#XmX{.jXK J *XxXyX#X#X5 J G F uX@XA r S .XA .Xs.) _ .XM.7 r ) S.@X@X&XeXV.,XC.vXeX=X[.uXV.Z C.rXN.) a.rXnXvXnX.X) C.n.a.5XH.E.t x H.:XH.fX@X@XmXeX@XoXoX8XoX X#XxXBXyXC. XcX8XsXvXuXF.eXcXnXuXoXN.5X5XH.G h M.n.kXkXkXeX@XuXmXiXvXZXmXfXiX:XS.D.rXrXzXBXmXmX XS..XS.G #X",
"V.A G  XpXeX:X>XP.E.R.p.d.N.a.eXoXn.rXaX8XH.5X5XrXP.6XI.c H.a.N.M.rXS p a.H.A.N.N.n.N.C.H.I.N. XS a.G S.oXd.f.H.H.I.f.d.K.5XI.p.x.p.c e m H.:XeXeX:Xa.S s w H G } m r z 8XH.P.a.p p f &X#X` B.[.S..X[.) [.j A D.V.V V.[.V.V.F V.Z V mX,X[.+X+XuXsXV.yX&XB.#XjX' ' ' K jX#X&X&XyXg 4 V.C.j a.s.M.j ) j b b a ( S.j A .X,XV.[.#X@X X XS.S.,X&X&XC.C.) f H.8X( p A +XC. XeX'.'.vXN.7 j.^ 2.n z b S.XXF. X.XoX8X5X8XoX:XeXyXjX#XeXiX@XH.d.d.:X XC.iXpXkXvXmX.XrXrX@XeX:X:X@XmXNXiXvXnXiXiXKXkXvXmX;XdX>XaXP.J.A.iXGXxX&XS.S.) .XkX&X",
",X#XcXiX3XFXP.8Xi.^ R.R.d.;Xa.N.mXH.H..Xa.( S..XSXrXE.E.p.f.s.j H N.N. X@XC.H.n.n.M.N.H.a.H.a.C.@Xf a.a.f.z n J.P.f.f.H.I.I.E.I./.p.H.f.z N..XsX:XH.H.z z z 9 S f.z h S } m S 2 f C.n.J yX'.[.V.V.` uXzX.X' uX>X` ` F +X[.) A n.+XG eX[.) ` ,X[.uXF  X&X'.B.&XjX=X'.'.=XyX'.#X&X{.8 F ) 7 7 a j A ) s.A.k 7 7 a M.` +X{.,XuX#X#XzXoXP.s.N.f S N.@X) Z f.A..X( f Z G a.@XkX'.` .X( ^ i.j.I.b (  XF. XeX@XN.z J.E.P.oXG eX&XB.@XeX Xn K.K.x.rX@XpXyXiX@XzXeX@XvXmX&X&XuXuXkXcXkXvXkX&X&XNXZXmXmX8XA.D.dXwXgX;XmXKXyX[.` M.] M.yXMX",
"xXKXGXeX3XI.n j.K.r x H.i.d.oX@X@XC.s.j.^ b .X@X4XHXN.H.gXH.a.G l z n H.rXrX X) ( A.P.A.oX) C.N.a.oXN.N.z I.^.x.f.I.s.H.I.P.oXrXH.2.x.f.n N.rXiX:XN.a.N.m d.Z.H h } h @ H.N.z Z C.n.G '.#XyXV.)  X` rX,X:XS.A mXPXeXJ iXiX+X XM.+X[.j C.M.[.V.+X>X` Z J &XmX,X+X#XyX#X#XmXyX&X<X<XkXB.f A a j a h b A.A.b h ) C.n.`  X.X[.F V.uXeX:X;Xj.x n r oX.XN.A G ) S G a.a.eXF.eXeXn.) a.h h n i.J.f.d.oX#X4XN.A.x.H.P.8X5XP. X,X X@X:XH.H.d.n f.f.P.rXoX:XS.:X:XzXiX&XMXMXkX XiX@X X@X@X#X#X@X#X,XzXiX,X.Xs.D.D.D.:X@XeXyXMXC.` V.V.=XjX",
"jXkXGXiXeX8X5XI.c.2.d.n j.d.oXiX,XN.A.d.A.( S H.@XfXgXI.5XH.a.N.h M z n P.8XH.A.A.b b s.oXS.M.N.z S z H.H.I.5Xe S fXoX( h I.f.N.f.q e d.N.Z C.V.,XC.f z a.9X8Xa.z s.d.z m 3XH.n.S.n.[.V.jX,XrXf .X` ) S.V.` G iXzXeX#XvXFXeX@X XmX+XS.Z C.+X+XS.+X[.&X,XeXmX#X[.&XkXyXB.'.#X'.'.=X'.B.oX XM.S.8 X ) b ) h h M. XkX,X[..X) ) ` &XeXoXs.b P.oXw n.oXS. XA s n.G C.a. XZ.N. XoX.XN.A.n f.A.J.S A.oX@X@XC.H.H.H.N.N..X:XrXzX X Xa.f.5XI.N.H.I.s.3XF.eXrX:XsXuXyXyXkXKXmX4X&XMXnXiX@XcX#X&XmXuX&XeXnXrXA _ .X.X) .X XyXmXkX[.&XuX<X*X",
"@X'.yXyX'.@XfX9X^.p.^ i.H.f.P.8X@X8X8XoXM.A.M.a.C.H.hXI.d.I.H.N.S f.p.2.t i.A.s.^ t x f.n A.A.H.( z S S oXoXH.G z oXrXH.x.2.2.n N.s w d.oX:Xn.F n.S.N.S m oXrXoX{ z { a.S  Xa.C.n.C.,X#XJ #X,XF ) C.M..X.X XiXzXB.+X@X@XnXeXn.n.mXLXrXa ,XrXM.F G ,XuX+X[.zX&XH '.B.#Xn.H N   K xX@X X@XeXV.A h j S.S.M.M.k r A  X,XM.S.S.) V.,XC. XM.a.S S.H.|  XC.iXG S C.G n.C.@Xn.n.n.H.S.A n z n s.P.S.H.C.N.N.H.8XH.S.8XN.N.G G B.C.a.z n H.n n I.oXH.H.8XoXrX8X8XS.&XmXkXMXBXkXMXGXKXPXMXGXmX#XkXmXvXrX:X+XS.sXrXmXrX:X@X&XkX=XB.xXMXkX#X",
"H.rXuX+X#XeX8Xf.H.E.J.I.x.H.H.8XF.XXiXCX.Xa.s.oXC.8XI.d.d.n z S a.f.2.t @ A.d.s.x 3.x.J.A.s.oXI.b f.s.q f.N.C.Z w ( e n J.2.n d.A.a.s N.s.M.oX'.n.n.a.oXH.oXH.eX8XC.a.F.G C.@XC. X'.#XB.J B.uXiXV .X` :X XV.n.iX+X&XmXvXiXiX` j rX:XC.eX[.[.) }.C.n.V. XzX@X&X XJ B.yXvXG J J kXuX'.eXH.uXS.M.A ) oXS.S..X}.A a G :Xs.j .X}.rXmXMXnX:XN.A a. XZ )  Xn.C.n. XeXG S H.eX8XG G N.b z r h r P.M.) S.H.N.@XeXmX@XC.8X@X Xn.Z.@XC.n I.K.^ A.A.H.a. X@X.X8Xs.S.:X#XyXkXNXxXkXMXMXvXmXvX&XKXmX&XyXeX:X>XuX+XiX:XS.S..X@XGXBXyX#XyX#XkXpX",
"8XA.C.@X#X XFXZ.S b E.I.5XrXXX8XcX3X@XH.8XM.) N.C.eXN.H.5XS G a.N.l z s.a.S S 2 7 n d.5XoXa.N.H.J.n 2.i.f.N.C.Z.f.H.f.e t x.n a.z N.S a.8X8X:XC.n.n.a.H.) 8XC.H.H.:XS. X X&X@X#X X[.@X` B.'.G n.+XC.j S.+XC. X+X&Xn.@X@X[. X+XC.G ) S.[.[.eX[.F [.C.G F +XV.#X[.,Xn.vXnX@X@X&X&X&X XG  X XV.) )  X.X X:XsXsX:X) ) ) A A .X.X,X[.uXzX) S.A.N.S. X XyXC.n.| 4 n.n.) w 8XrX@XS..Xs.s.A.8Xa.a.S.S.S.H.8Xn.@XxXyXC.H.oXoXH.Z  X8XC.N.P.n a.A.n.M. XC.rX:XN.:X@X@X*XlXMXMXMXxXyXvXC.mXZXmXMX@XZXsXgXdXZXmXV..XS.:X X+XkXPXGX+XyX@XmXGX",
"aXrXeXC.C.#XnXoXH.A.K.0XJ.A.n.C.iXSXoXG @X:XN.) J |.iX8XoXs.( a.C.H z s.F.s 2 m @ q e } H.N.N.oX9XH.i.j.f.5XoXH.n I.E.f.z z S C.A z H.a.S n. XC.p n.S..XH.N.H.H.n.C.n.[. XH B.B.@XzX@XeX@XC.Z C.A ` F S. Xn.) iX+X X X+Xn.@XiXG n.V.n.a V.,XzX,X XC.@Xn.C.` F V.H [.'.'.[.Z f  XV.V.n.C.iX#X XH.M.) C.:X.XuX,XM.rXM.) :XmX+X.X.X+XM.j ) ) P.N.S.G C.C.oXeX  + G S.z w C.N.N.A.s.N.H.n.n.H.:XH.;XoX3Xn.|.jXmXyXN.I.d.5XH.H.rX XC.a.d.S A.H.XXeXC.:XeXH.M.eX&X#XjXIXMXxXyX@XeXiX XeXyX&XzXvXsX:XM.` MXmX) V S.rX@XG C.yXmXnXvXeXmX",
"FXmX XC. X4XLXeX@X;XK.3.P.H.H.M.@XrXnXH.a.iX:XC.Z.@XC.8XA.t f.f.S z z s G S e z h @ @ # f.H.d.H.I.I.H.rXrXA.N.8XN.h s.( H.a.N.C.) S N.N.S.G C.eX| f n..X:XS.H.H. XN.n.G '.B.'.'.V.+X+Xn.C.#XC.C.n.n.n.G n.M.Z G G @X@X@X@X X,X XG  X@XS.[.V.[. X,XG ,X:XV.[.V +X+XC.J eXn.C.H Z C.n.n.G eX&X:Xa.a.a. XV.` +X[.}.S.P.) sXsX.X.XS.V.,XC.S..X.XN.A M.C.)  XfXS s H.oX.Xa. XS.N.oXP.:X X[.Z  XoXf.;X@XeX X#XBXKXkXa.f.j.H.oXN.oXoXoXS.H.d.A.oX@XC.pX&XC.@X@XC.yXyX4XjXMXkXnXnXvXnX@XC.iX,X@XiXvXmXmX,Xn.` d a V.rXeXS.) S.:X@X XC.:X",
"@XmXFXvXiXZ yXMXeXN.E.x.6XN.H.H. X8XfX8Xa.N.yX'.Z.XXmXH.d.^ t ^ d.e q @ r n c c M f.c t f.I.E.d.n N..Xa.H.oXN.f.a.a a.b f.S a.C.S M.N.N.C.'.B.lX&Xn.n. X:XsX@XoXH. XC.+X#X#X#XeXV.G G G n.n.C. Xn.A n.C.a.G H.oXn.C.@X@X XC.vXZX&X'.@XmXeX,X[.C. X@Xd f 8 A +XB.V.[.B. X X Xn.F  Xn.G Z #XeX@X.X.Xa.M.C.` +X[.V.) a .XHXGX.X` ) V ` C.n. XvX@XC.) ) N.H.8XoXH.S oX:X) H.:XH.P.N.M.` uX X) P.5XaXC.4XC.mXxXBXmXS n j.d.f.z H.gX5XoXH.S a.H.@XC.eX@X X@XiX,XkXKXKXjX*X<X,X[.sXfXvX@XeXnX@X@X.X.Xn.uX[.` ) S.C.@XuXP.s.H.a.H.rXP.:X",
"' ` kXiXmX4XcXSXFXvXP.J.I.P.fXcXeXZ.H.;XH.3X4XcX4X@XfXrXoXH.z n f.- - @ q n r f.b s { f.n H.oXS.d a H..X8X8X9XH.n z h z N.P.G.oXrXF.@XC.J +X&X'.@XiXoXC. XC.G @X+XC.C.C.@XV.` `  X@XV.B.B.F n.M.C.A C. XS.V.j .XC..XiX X+XeXeX,XnX&X+XuX,X@X,XC.@XeXG S. X X[.n. X'.B.G H  X@Xn. Xn.H G eX XC.@X@XA H.S.M.M.n.V.J F .XS.z N.)  XB.[.M.a.Z N.n.H.r s.P.A.( ( a.h a ,XjX` N.oX8XH.S..XS.8X8XH.( H.N.:Xn.,X'.xXkXN.f.2.J.f.d.H.H.d.I.H.d.d.N.H.a.G F.eXiX&X#XmXBXMXxX*XkX#XM..XrX@XzXkX@XM.S.:XsXmXzXzX+Xn.iXvX@XC.n.N.S.P.s.s.S.;X",
"zX[.G n.kXmX#XMX@XN.a.H.I.E.5X8XoXa.d.I.oX8XXX4X@Xn.XX8XoXH..XoXd.z q q d.z z n z Z S } r e a.) M.A.a.XX XnXiXfXI.^ f.f.n pXpXpXcX@X@X#X#XuXeX@XC.n.n.C.n.@X@X[.+X X[.n.Z V. XV.n.Z  X,XG n.V.A M.A G .XS.G S ) S.M.@XM. X@X,X[.#XyX,X+X` [.[.V.@Xn.+X XV.,XG Z G @X@X'.n. XB.#X|.C.Z p n.n.#X,XiXN.a.) A C.` '.C.V 7 j S a.V.C.A C.@XA s a M.H.M.( 7 ) S.:XrXS.M.uXKX#XS q b A j S.S.A ( ;XA.P.M..X X[.` '.FXoXH.n x.I.j.( s.z H.I.8XH.N.8XC.n.C.vXFXmX&XmXMXjXlXkXkXnX.X.XeXeX@XkXZX:XoXgXN..XuXuXuXiXeXn.` ,XyX:X:XP.b b s.A.",
"mXn.eX@X#XKXyXvX XP.f.f.E.E.J.5XH.I.J.;X;XH. X XXXH.H.8X5XoXC.N.n m z # H.f.( a.) Z S S z N..XG b A.N.{ H @XyX@XaXH.d.d.F.{ @X&XyX&X&X&XeX@X@XeX X'.n. X XG  X XC.G B.C.C.C.,X XC.V.+XyXV.` ,X[.f Z j j S H.S.S.S.S.M.@Xn. X@X X@XiXeX` ) +XuXuXV.V.V.S.G G  XV.n.@XC.B.J B.B.pXH C.Z.G @X XM.+X+XS.C.S.) G C.C.V + 7 7 M.M.f M.S.) :XoXS.S oXoX;Xs.s.) S.Z A [.N.8 ,X.Xs S z M.A M..XS.b ) A S ( A.A.N.n.C.eXFXoXI.p.j.c b H.( ( N.oXrXS.oXoXoX'.yX&X#XjXlXSXBXlXMXyX@XrXnXCXiXmXGXLXLX:XA.( S mX:XS.M.) +X[.+X+X+X[.P.s.b A S.",
"G Z G &X'.GXkXcX8XH.j.i.~ i.i.j.d.H.J.A.A.P.H.3X8Xj.j.H.j.s.H.( f.H.I.2 z z b s.8XH..Xp 2 a.:X[.) oXH.F.n.nXvX@XI.9XfXoX8Xn.C.'.Z.iXyXyX#X&X|.n.F ` @X,XiX X X+XB.F C.+X XV.+X@XG C.` '.n.H n. Xd G C.N.@XeXN.H.) S.M.M.,XeX@X@XvXvX[.,X` V.,X,X` f B.[.G  X&XJ H C. X&X@X'.'. X&XeXeX[.G C.V.f C.uX XF V A f [.[.F A k j j A ) M.M.M.8XoXM.b 8X8XP.@Xn.n.n.V.Z P.S.G rX) a a..XS.S.S.s.s r j S A.H.f.h ) ` p iXyXS H.2.2.i.j.A.H.C.N.8XrXn.N.d.F.n. X'.yXkX&XMXNXSXMXmXeXfXrXvXkXMXGXKXFX8XgXaX( A.:XS M.eXzXV.J  XS.S A S.b j ",
"A a.z  X+XF n.rXfX;XP.E.g.g.E./.9X5XP.A.H.H.d.U.E.x.7.3.c.^ ( s.d.} N.j n.( ( n F.C.` n.H.S.:X:X@XH.oXH.G n.nXmXC.H.XX3XoXH.C.n.N. XiX X#X'.kXeXn.f V.yXn.F G  Xn.G ` [.B.+X.X[.[.Z B.V.+XG f C.[.A ) .Xn.eX@XC.N.H.:XG G n. X X@XmX[.G d V.].' eXV. X Xn.#XiX@XC.n.B.&XyXC.B.G B.eXB.mXnXn.uXiX XuXuX.X) 8 p V..Xj ) D.V S._ ] P.A M.N.P.oXz b S.a.H. Xn.+X,XV.S .X.XS.M.a.a.) ) A.j a.a.s.s.b s.P.i.n H.C.V.mXnXN.H.f.K.d.^ j.N.H.n.iXiXC.N.s.N.l { eXiXMX=X*XmXNX&XiX8X XP..XyXMXGXmXLXLX8XP.s.P.;XG C.eX&XuX) n.` A ) M.S.b ",
"( a j ) C. X@XP.aX;Xj.P.j.J.J.(.K.0XJ.p.c.x.x.p.g.c.Q / g.p.^ i.S S z G H.N.n H.{ N.@Xp 7 j M.[.V.@XfXoXeXZ F.eXN.l G {  X3XH.S S C.C.#XiX#XeXyX XC.f @XeX X[.G V.'.n.N ` C.V.V.S..Xn.#XZX X[. X.XN.S.N. X Xa.w G H. X[.` C.B.@XC.C.uXC.V.GXLX` uX,X,X|.@XN eX#X X'. XJ @X@XZ f L #XH J @X XC.[. X+XC. XV.,XF V V.8 +XS.S.A M.D.A.( s.N.S z s.a.a.N.n.eXC.Z  X@X.Xs.j A S.M.M.) ( s.s.S.( a.P.f.n x 5XN.M.,XV.kXvXoXd.j.i.i.2.i.A.8XrXC.vXcX XCXmXa.f C.kXMXkX=XmXSXyXiXvXH.H.A.C.mXmX].yXnXrX8X8XP.N. XeXmXiXB.S.M.G S..Xs..X) ",
"s.h @ 8 M.:Xs.^ i.P.A.s.;XgXR.Y.z.z.0.7.Y.7.4.x.x.g.l.u g.c.^ j.H.d.G G M.a.c c m f z a w X j H.C. XeXn.Z.vXrXC.C.S S S G  XeX XS.a.n.H.Z.@XN.) M. XC.[.@XiX:XF  X#X X X` n.` ` n.G M.C.[. X` A N.C.a.M.) :X XG n.M.n. X+X XV C.#XG C.mXLXFXLXZX` C.G n.H J &X X XC.kX#XB.'. XC.C.C.&XV.B.#X+X,XV.#XeX X[.[.{.K J @XuX,XV.a h H.P.P.a.) A a.H.H.A.N.s.S. XeX+XC.M.s.rX) M.A a.S M.s.a.N.A.f.( f.( s.I.;X.XuXeX&XoXs.A.d.b ( f.c ^ d.H.@XyXvX|.mXLXvX@X| yXMXkXmXcX&XnXmX@XI.;XaXH.&XGXLXMXvXiX Xj.f..XyXyX#XeXf M. XA G n.G G ) ",
"r k 7 7 M.S.s.n ^ s.P.oX9X9X0X(.-.&.9.-.9.8.7.g.5X9Xp.g.x i.p.p.oXH.a.z z ( p.2.S { a.S N.b h H.8XN.H.8Xn.@XC.n.A.f.N.S N.n.n.C.N.a.a.a.S..Xa.S a.a.n.n.n.[. XV.n. XC.@XeX[.[.F M.S.C.G  X) A S C.) a.S.a.:X:X@XM.S G C. Xn.[.+X&XeXB.'.zXmXLXLX.XS..Xn.n.Z C.@Xn.#X&X&XB.#XC.4Xn.J f &XyX,X&X@X#XeX X@X[.V.[.' [.+XV.uX) ( s.H.H.;XoXz G a.z H.H.N.s.S.M..X.XC.S.A A.M.j ) z z j a.j a.oXb f.P.d.s.M.rX[.[.[. XN.H.d.d.A.d.H.f.c ^ N.#XkXkXJ @XGXKXMX#XkX#X#X4XNX'.'. XN.N.z d.P. XyXBXSXvX&X@Xs.M.+XvXNXnX X) V.n.Z V.V.` ` F ",
"_ A j d D.M.s.i.( i.3.5XgXaXqXJ.8.8.-.y.t.$.q.J.aXfXP.fXj.f.K.I.H.a.S S b p.,.u S { ) ) ) :XS.S G H.a.G.S N.H.a.S H.a.S N.F. X XS M.C.C.H.H.H.oXa.G H.oXC.M.C.S.S S S.a.A V j [.M.n.C.C.[.C.n.a.) M.N.n.Z n.8X@XC.H.a.) G n.rXC.|.pXyX@XC.d mX,X` Z .Xn.eX'.B.#X'.V.'.,X,X#XB.yX X XL '.'.Z.#X#X#X@Xf G M.C.C.J  XrX` M.a s.A.r a.H.:XS.H.3XH.S I.8XXXC.Z S.rX.XrX( j oXS.C.n.) b b S a.9Xa.H.s.d.H.eXxX#X#X` 8XI.d.d.n I.H.H.E.J.j.H.C.yXBX&XmXMXMXGX=XyX#X#X| {.nXS.N.8X) 3 M.) @XMXMXBXkX@X:XrX@X&XyXGXMXkX3 J eXC.n.G M.n.F ",
"' ) A ) ( 7 7 A.:XE.c.c.E.gXaX^ y , ! t.:.X.! 7.K.I.f.N.9X5XI.H.d.H.a.H.A.p.2.2.Z.n.H A C.V.Z a.n.S d.G.n.N.H.H.{ { N.( n a.Z a.Z S S  XN.N.a.a.H. XoXH.H.a.) .X Xa.eXC.G n.V.V.C.M.M.) H.) G C.S.S.N.M.a.oXoXC.H.oXs eXC.n..Xn.H C.C.eXkXH 8 +X+X[.a.eXuXG Z eX[.eXyX Xn.kXn.#XC.iX XG kX XJ '.'. X XV.F F J B.V.[.M.j j S.S.N..X@XM.C.Z z 8XG.s H.mX8XN.M.S.:XA.b s.S.eX@XC.N.( j N.( oXn b 5Xs.N.yX*X*X,X@XA.A.N.P.H.s.s.H.H.x.H.H.kXNXNXBXmXcXNXGXxXkXpXcXcX{.#XoX( M.V.Z J .XiXkXMXBXyXiX8X.XS.vXkXBXBXkX'.'.#X#Xn..Xa.) ) ",
"{.[.) A ( @ a A..X^.7.! z.qX6X^.~ Q W T -.t.$.&.4.x.2.n I.rXrX@XoXoXH.S ( ( N.S Z n.n.Z [. Xf j S a.8XrXXXoX{  Xa.S.S S f.a.S H.a.S S G S N.N.) N.S a.Z f a.P.S N.@Xn. X XC. XV.A A S.S.) G S. XN..XN.z w G n.a.C.iXN.) S.S.+XuX@XeX&X#XnX&X@X[.[.[.V n. X XC. Xn.V V.'.f #X#XB.#X#X&XG @XkXyX&XC.C.C.[.V.[.H N V.N V.` M.a.H.S.M.@X X:XS # z N.s.w N.N.N.H.A S.;XCXA.M. X XM.s.N.M.M.N.s.a.r A.P.H.C.,XkX#X@XN.n A.H.A.f.f.N.H.I.I.F.mXSXMXGXjX=X4XVXjXkXmXcXxXmX&Xa.a.S V. X&XFXMXxXBXMX'. XM.:X X+XyXkXMXiX+X].B.C.eXeXG d F ",
"{.[.[.F A j r j N.I.z.8.&.3.d.H.i.4.3.Q ! <.7.&.7.p.U.gXoXN.nXvX3XG oXa.f.z s z C.4X#XC.s G M.N.a.H.F.a.{ n.N.a.a.a.A.d.f.A.N.a.5Xa.oXH.a.N.8XH.G H.n.H.N.8XH.N.M.G C.M.S.a.a.n.M.) S..XH.G N.a..XM.) H.A H.S.S.eX@XC.) ,Xn.C.+XV. X@XB.eXvX Xn.V.&X,XV.G  XC.n.#X#X'.C.p @X&X' mXyXC. XyXeXB.#XeXyX@XC.` K B.N d B.F ` G C.a.M.a..XS.rXH.2 h H.P.n S a.S S.s.a.N.CX.X XB.f a.z  X XG A H.H.s.h s.A.S G kXZX.XH.H.H.N.H.f.d.H.;XH.f. XGXKXBXBXxX*X=X=X=XyXkXyX4XiXkX.Xa.C.#XB.kXGXBXBXBXBXkXC..XeX@X#XyXiXkXvXB.g B.n.C.[.@XuX+X",
"+   +X<X].' b h ) P.c.7.7.4.J.z z c t x x t ~ 2.^.I.I.rX8XfXH.iX&X|.s.n z w n a.{ { C.oXN.N.N.N.C.F.XXZ.n.Z H.C.( a.N.A.f.( d.( N.a.S C. X.XN.S. XH.S.H.oXN.oXa.:XV.Z ) H.) G  XM.A Z N.S.G S n.oXoX@X:XC.S n.a.p ) .XC. X@X XyX&Xn.#X X` ` 6 5 H ,X&X#XC.n. Xf Z @XB.:XeXuXvXkXB.'.#X#X'.mX&X#X&X#X+X#X+X+XV.V d ` ` n.eXeXn.N.N.) b rXfXd.^ ( A.H.S S S.S.:X[.C. XC. XyXN a a.S.oX XZ  X.XS.a z A.a.Z G .XC.a.s.d.P.;XoXf.N.s.S z n.nXLXPXKXxXmXmXxXjXkXyX'.&X&X,X8X@X+XB.].4XNXxX*XjXyXmX,XC. XeX#X@XeXpXeXeX{.n.V.C.@XV.d  X",
"@ . + ,XV.` s.] j j i.R.R.E.6XP.p.x.i.z n N.H.d.p.I.8XoXI.N.s.XX X@XH.f.n n a.n S { a.H.I.oXf.H.H.} a.oXC.n.G n.N.N.;XI.A.s.f.f.N.N.a.H.rX8X:XH.Z A H..XC.N.( N.M. Xn.C.C.A S..XH.a.S S @XeXS M.N.a.eXS.rXmX) oXeXM.@XvXB.#XeX[.#X&X@XvXuXyX3 3 V.V.].#XkXG C.C.n.G  XG C.n.vXzX#XH J n.Z.n.'.kXyXiXeXJ G N ,XiX` j j p C.S.H.) a oXS.H.I.n ( x s.;XH..X) ) V.uX&XC.[.'.lXB.G .X@XM..XoX X.XS.) a.:XN.G N.M.S.) s.f.;XP.d.I.d.s.N.H.H.eXvXMXMXyX#XyX*XkXeX@X#X'.#XyXmXiXkXkXkX4X*X=XxX*X'.kX&XiX X4XkX&XeX8X@XuX:XV.` F &XZ . # ",
"@ @     a M.M.A _ ( b d.c.p.E.E.J.R.K.j.P.rX9Xd.u x.I.I.I.wXH.H.n.{ 8Xd.s S z n H.C.n.rX8Xa.H.j.f.s.d.oXH.G S ) 9XH.a.;XI.H.N.d.S N.oXM.n.iXsXS.oX X:XoXeX8XM.S.n.C.eXoXH. XA  XoX.XM.C.N.H.H.w Z f C.G Z rXS.a.C. X.XC.C.G n.f ,XyXzXeX X[.` [.eXJ {.<X[.C.[.uX#X'.[.n.G V Z [.eXiXiXn.pX&XyX X#X#XnXyXB.p S.GXCXS.N.A w 7 C.:XM..X.Xz S S b ^ i.a.a.H.M.V V #X#X#X`  X4X'.V.+X:XH.M.S S.S.@XoX) N.a.a.;XoX:X;Xj.n f.( f.n f.H.s.a.M.a.M.S.+X Xn.@X@XyXnX&X[.<X*XkXnX&X#XkXyX&X&XyXjXjX*XkXkXyXvXmXKXFX8XH.oX:XH.n.J J &XZ.P P ",
"- @ @ # X A V.F b ] ^ f.i.g.j.J.j.j.2.I.s.oXH.i.4.l.3.d.i.p.I.f.F.F.N.a.S S S S M.H.N.pX8Xa.a.H.H.5XP.m C.G A a.I.N.s H.8XH.a.a.N.n.N.C.G S.oXoX@X XS.S.M.a..XN.oXH.N.a.) a.G H.H.N.C..XH.a. XH.a.) n.:XC.j S. X.XG n..X@Xn.@XC.n.#XJ #X+X+XzXV.eX+X#XB.V.[.&XxXyXB.+XeX XiXj Z iXeXkX@XH n.C.@X,X&X'.'. Xf S.:XrXM.S S.S S .XH. X:X8X XN.( ( ( A.P.H.F. XH ` jXBXmX[.#X#X'.'.yXS.) n.a.n.Z S S.a.) a.A.H.N.8XoXb f.f.f.^ t x f.N.s.A.M.S S n. XoXF J n.iXiX&XyXyX&X'.&XyX&X&XyXkXyX{.=XjXkXxXkXkXkXyXiX8X5X;X:XS.oX` {.&XZ @ @ ",
"M @ M r # . M.` h ( i.j.g.(.qX0XwX5XP.I.s.j.5Xx.1.<.g.p.x t ^ x.3XG.G.{ H S f.n m H.w G @XeX) A H.5Xd.z  XeXZ S d.H.I.n H.oXoXn.H.8XH.C..XC.C.eX#Xn.n.eXN.a.H.@XS.S S.oXN.G A A S.a.S.:X@XG C.n..XS.C.V  X:XeXC.@X X@X@XeX'.#X#XB.&X#XyXiX@XeXC.mX+X{.J V.V.J #XeX#XyX].yX[.iXC.n.C.Z Z n.|.n.&X XeX#X#XmXiXeX,X` F d M.G f M..X[.eX+X X) N.M..XN.N.Z a.oX.XC.G J ].N J B.'.K =X+XS.M. XA S.eXV.n.H.oXoXS N.H.P.a.( a.f.z x i.j.i.d.s.N.a.Z s z C.@XG G Z  X&XkXcXcXyX4XyXkX&X@X@XeX&X#X&XyXjXyXyXiXvXvXrXoXP.8X.XS.G J &XB.@ r ",
"q f.[ k.M # b M.b i./ g.c.u c.R.(.6Xi.i.K.K.c.x.c c x.J.x.x i.n I.P.} S h n H.f.n d.z g C.n.S s l { a.H.G eXa.z s.S I.z 2 z oX8X8Xd.H.N.a.G n.S. XB.8XrX:X@Xa.oX.XM.z N.n.H..XS..XM.a.M..XoX Xn.eXC.C.p ` C.C. X+Xn.eXj n.@XC.&XyX+XyXvXn.@XC.f '.[.[.mXeXG #X#X XvX<X&XmX#X XiX@Xf  Xa. Xn.|.H B.@XeX#X#XyXB.V.n.G ` B.V.` G eX+X:X[.S.j ) ) n.C.Z.G C. XC.C.[.8 ,X&X'.#X'.].{.G ) H.rXS.mXeXn.S S H.oXM.A.d.oX8XA.H.A.s.s.j.x.j.d.b N.a.a.Z M. X[. X8X|.J Z.yXxX&XkXyX&XyXyX@XiX&X#XyX&X&XkX&X#X@XiXMXiXrX8X;X:XS.n.'.&X'.@ - ",
"# r - r @ q z ( ( b 3.u g.c.W.T.8.q.<.z.<.8.q.7.~ u 7.1.b.2.2.d.t d.j.i.^ u ~ Q 1.<.J.H.C.) Z s H Z.N.N.Z  Xa.S a.b N.5Xd.s s.oX8XS S oXM.a.A n.C.G C.a.n. Xn.N.oX8Xa.C.oXoXN.s .XH.H.8XoXn.rXa.C. X X XG :X XA ` V. Xn.Z A iXJ &X&X+X#X+X.XC.M.N ,X#X XiXeXV.&XnXkX@X'.yX,XG S iX@XrX XC.nXnXyX XG B.B.B.#XB.N V.` 8 8 [.V.F ) M.V rX:XA j A n.@X#XC. X#XC.F J G iXZXjX'.'.=X=X@XZ 2 S.HX8XA.H.N.+ N.8XoXA.oXI.H.H.A.s.P.;X5Xj.i.d.z a.a.) C.G '.'.G C. X+XV.B.4X#X&XkX#X&XkXkXkXcX@XiXeXkX,X,XyXeXeXvXrXaXaXd.) A.:XZ  XF.@ # ",
"P @ @ # r r f.t i.^ J.4.t K.(.9.+.>.t.t.+.X.:.: ; Y > > -.,.t 4.1.l.7.q.1.8.-.-.*.! Q u i.s.G n.Z pXpXiX&Xn.z N.C.P.8XH.gXS z z s I.I.H.z w G n.n.G G C.S. Xn.S.oXH.N.s S oXM.M.H.N.G N.H.z N.H.G V. XiX)  XeXeX X[.G  XS.M.iXuXmXuXuXeXC.@X X8X@XB.'.@X@X:XG n. X+XeX@X&XB.C.f G @X XZ p  XC.C.eX@XB.iXyX XyXB.uX[.F 8 ` V.` S.:XM.V.C.:X.X.X@XN n.C.C. X'.J ` V.[.jXyXJ H B.&XiX@XH.P.mXHXFXoX8XN.A s.aXH.N.oXoXH.H.rXN.oXH.( A.d.n n A.C.[.#XB.'.#X#XF ` C. X&X@X@X4X#X4XkXkX&X=XyXyX&XS.rXrXzX@X XoXoXA.8XP.s.;X:X) j N.a.[ ",
"I.M r z z e s.( i.3.u u c c.Y.8.>...r.y.>.@.+.=.X.X.Y &.l.<.c.2.0.l.,.7.8.-.; > $.&.o., 1.l.2.S S N.C.n.G eXn.) a.s.H.N.d.N.d.I.I.I.f.f.d.a 4 S ) H.n.n.C.a.z S.N.oXH.oXa.H.H.H.G H.a.a.N.s a.8XZ eXeXn.[. XeXC.'.#X#X X` eX:X@X:XvXGXiXV.[.G C.@XuX+XZ a.j A #Xn.V.C.n.@X@XC.j oXS  XN.z s G G [.iX@XG #XvX@XV.` D K 8 ,XV..X+XA  X|.n.C.[.V.yX&XC.Z. XC. X@X&X,XB.V.,XiX@XyXmXkXiXeXM.N.S ) H..XM.7 a.S.H. X X8X:XS. XS.S.rXP.a.a.N.S S oX#X+X&X'.&X&X@XM.@XV.[. XC.n.B.#XmX&XBXkXyXuXrX.XoX8XnXfX;X5X;XP.P.gXP..XrX` Z f H.oX",
"a.H.z 2.x.i.i.J.j.Y.<.<.x.3.c.&.X.:.+.r.+.....t.* Y 8.<.j.d.P.H.K.0XK.g.3.p.z.4.^ l.1.:.:.$.~.b.x.H.A.H.S..X:X Xa.( H.f.n I.f.f.j.x n ( S .XS z a.) n.n.@XC.N.Z N.S..X:X8Xa.H.oX) Z oXoXS.oX XiX@XC.@X@X@X XiXeXn.@X@X#X+X@X+XC.S.sX,XzXuXS.M.G C.G iX[.a.8XH. XiXC.C.+ n.oX XN.a.N.S Z n.G @X@X X4XC.n.B.n.` d B.J ,X+X+X[..XdX.XF #X#X X X X,X'.@X@XG ) @X+X+X@X#XV.+X XC.,X#X@XiX XN.N.oX@XN.eX,X'.@X+X@XvX@XN.@XN.H.@XH.M.:XH.A.H.oXn.[.C.J C.B. Xn.&X|.C.@X[. XC.oX@X'.#X&XyXyXyXvXmXsXS H.zXFX6XI.P.P.A.E.8XoXrX` S.S.N.H ",
"S n H.K.2.x.5X8XE.z.! ! 7.x.R.Y.&.9.-.$.t.9.$.-.! Y q.R.x.I.f.N.oXP.3XI.d.d.x.i.f.d.^.4.4.1.%.%.8.z.x.j.2.d.H.H.I.G.P.z z f.I.A.i.d.f.A.f.a.N.b ) S G G G C.H.N.N.C.rXH.S a.b oXG n.z H.S 8Xa.vXiX@Xf Z n.J n.F.@XeX#XyXN +XeX:XnX XuX+X#XzX@Xa.n.G [.:XH.H.f eXvX,X@Xs z eX8XrXM.p S G N.a.H.@XH.n.@X XeXC.S.[.&X+X<X'.` +XV.:Xa A @XM.` ) ' V.#XB.+XA S.M. XGXmX&X].&X@X XC.#X&X|. XoXa.H.vX@XeXmX&X'.kXjXkXkX@XS.@XoXrX X.Xs.z M.eXeX,X XC.G  X[.[. XvXnX&XyXkXiXeXeXiXeXeXkXxX#X#XV.@X@XsXrXiXfX^.J.A.8X;X5X8XrX[.}.rX:X@Xn.",
"8XI.aX6X3.i.I.aXc.7.-.-.Q i.2.c 3.Q u i , &.Q z.Y.8.Q ~.b.u c d.f.s.s.f.U.5XI.p.i 2.i.s.a.j.3.%.$.9.7.z.z.R.j.p.p.H.n 2.p.z d.H.j.f.z z z S s w a S G G n.n.a.n.n.Z S. XN.M.a.H.eXoXN.N.n.Z z G  X@X8XeXG @X@XXX@X X#XvX&X'.@Xn.fXeXeX+X&X` @X8XH.Z V.n.H.H.s d n.f S @Xa.n.G iX Xf N.M.S H.oXN.C.Z.C. X@X@X@X@X X'.'.#XV.V 7 A S.A V.+XC C ) F +X'.F :XH.b s n.kX{.'.n.n. XC.+X@XC. XH.oXoXrX.X&XjXlX{.{.#X].kXCXN.N.8XoXM.M.rXrXoXeXmX#X,XeXn.@X:X.XvXkXpXkXkX#X XH.n.C.+X#X'.&XyXkX#XC.@X.X@XvXrXx.aXP.5X8XI.I.M.uXzX:XS.n.@X",
"nXmXrX9X9X9XFXgXc.7.$.$.8.K.s.z n c t 3.-.&.t J.E.K.<., 8.z.2.c t 4.x.k.5XI.(.~.9.9.7.j.:XN.G.x.8.Y Q 1.z.wXc.3.4.p.d.H.I.f.d.d.H.oXN.s.N.S a.z j h z z A G G Z.S z j :X.XM.) H.:X XoXA.oXH.@XZ s eX:XiXeXa.C. XC.@X|.&XB.@XV.Z N.C.{.lXyXJ G oXXXZ.C.H.Z n.S A C.G Z oX{ 3  XC.[.| F.@XoXf ) 8XpXF.Z n.4 V.V.'.@XF '.V.` V.4 F [.V.d C ) C ' 8 F &XF d  XM.) j C.[.G H  X+Xn.n.n.#XC.S.eXoXC.@XkXkXxXkX=XjXlX=X XH.N.8XS.C.J H M.a.s n.C.V.V.V.S..XC.&XMXBXyXyXyXiX X@X@X&X@XC.&X&X#XvXiXnXvXC.s.I.i.A.f.d.mXfX;XmXuXsXmX.XN.sX",
"iXFXrXI.8Xf.d.H.8XR.8.! 0.R.E.P.E.K.i.3.Y -.3.~ ^ t <.1.7.z.c n R.c.x.I.I.g.q.+...I t.&.p.;Xf.i.4.7.~ - ~ c.0XE.j.x.j.^.P.I.f.} H.H.a.H.C.Z p N.S S j z a.s p n.n.S.n.Z a.N.s.gXrXfX:Xs..XS.@XrXS a.H.a.n.Z C.G  XXX@X'.J kXiX) S .X{.&XMXZ.3 H.3XeXG n.C.a.a.G H. XZ.F. X XeX,Xn.|.6 g C.C.2 n.vXeXeXiXiX+X@X+Xn.F yXV.K '.' +Xn.[.+X].V.].V C J '.n.V V V.M.) H [.,X[.@X#XC.n.n. X Xn.n.G ) +XkXxX'.J &XBXBXxXC.Z. XrXrXN.@X&XS z C.n.G G H. XH.oX X XyXxX&X&X&X#X&XiXiXeX[.+X#X#X` @X&XyXmXGX9XA.d.H.E.P.A.rXP.:X+X:XsXP.A M.",
"C.mXfX;XI.5Xi.b mXE.g.l.l./.^.p.x.g.j.7.-.$., i 3.p.7.7.<.t ~ j.0.0.,.c n g.>.r.:.X.=.X.> 7.7.y 2.^ z f.p.c 2.I.p.2.0.b.c.H.z } H.9X9XH.S G n.G S S s z G S z n.z G n.G z ) z H.fXFXmX Xn.S H.8XrX:Xs a.f n.n.S.G H #XyX@X,X X.Xa.H.n.C.eX@XS H.@X#XuX) M.a.z H.a.N. Xn.C.G ) +X'.cX3 . Z C.N.2 z f Z n.C.@X+XH J B. X#X{.'.J ' V.V.F {.{.V.F V.J B.B.` ` C.4 j +X[.V.Z C.[.n.` H J B. XV.C.` +XjX=X#X*X=X{.=XxX@X XC..XiXeX X@XoXN.z @XC.) N.N.H. X8XpXyXkX&X#XeX XC.eX:XvXeX[.S.) n.C.@XvXiX&XgX5XE.j.H.8XgXN.s.) C a S.rXP.8 ",
"G sXaXI.I.x.J.f.5Xj.J.qX0X0XJ.J.K.~ t Q q.&.! 0.p.K.v.Y.b.7.c.c.8.$.! 4.4.c.8.& -.>.:.9.8.Q Y.T.c x i.x 2.z c n i.y ; $.! ~ f.t z H.I.A.8X8XH.A oXZ a.S H s z F.a.N.S N.C.a.8XoXP.8XFXeX:XC.z S A oXH.@XiXN.eXvX XC.G B.n.` M.C.s a.oXG G  Xn.a d  XeXG C.@XC. XoX8XN.XXZ n.C.n.n.nXF.s A rXoX) z G G H.G G C.J V.J J &X&X&XJ H +X[.{.' yX[.'.+X&X#X#XeXB.'.V.V  XuX@X` V.eXyX#X#X=X#XJ  X XC.[.jXmX=XyXBXLXBXBX&X XC.n.fXiXS. X X:Xn.G N.a.h N.H.a.N.eX&XyX@XiX4XeX Xa.N.@X.X.X.X8X.X@XC.#XeXnXrX9X5XH.6X8XGXeX( s.) M.a A j.t ",
"a.@XrX8XJ.j.c ^ h t s.A.6XJ.6XJ.(.<.3.Q Q z.0.,.^ 3.z.q.8.&.&.q.q.-.q.9.~.q.8.&.! y z.).J.p.y 8.7.,.~ t u l.c c 2.Q > , , u d.2.j.E.J.x i.P.P.A.N.S H.H.Z S s a.} z H.oX XH.oXmXH.8XrX.XiXeXS.N.S S 8XoX) p oX:XoX@X@Xn.@XeXG C.) G 8X XZ C.n.G n.@XC.3 f  X@XC.w G FXpXH.N.A S A CXfXa.h x P.P.S S oXoXa.p  X X,X'.p J {.{.B.'.kX<XB.'.#X#X XH @X#XeXyX+X'.#X#XB.[.V.` #X#X'.yX#XkXmXeX@X,XLXzX*XMXMXBXMXKXLXmXB.&XuXyXeX.X XFXeX@XyX Xn. XC.Z eXH.C.@XuXiX@XkX@X X@Xn.N.Z n..XoX:X.X:X@X@XmXkXiXoX.X;X8X;XvXiXN.a.j S.Z j b r ",
"oXiXuXfXA.^ z b n z ( ( j.J.E.E.Y.<.y z.u Q z.~ t 7.z.8.8.-.-.q.Y.z.8.-.=.=.9.9.~ 3.3.i.b p.%.-.-.%.i 4.l.l.l.7.c c g.g.3.j.j.( c.4.qXqXu ~ 3.J.I.A.a.a.) a.:Xb z f.N.N.H.H.P.rXgXH.a.M.f C.oXH.f n.a.H..Xj a Z s C.,X@X` @XzX.Xn.G z ) j G n.| C.#X,XC.f n.n.G n.4 n.a. Xf a oXa.S ( z ^ ^ s.H.H.oXN.@XC.n.eXC.#X&X#XB.B.'.=XB.xXuXB.N '.B.&XN N g B.B.#X&X&XkX[.'.B. X[.ZX'.H &XyX X#XeX@XGXyX=XBXmXkXyX*XGXZXJ #X'.eXeX+XC.eX[.B.#X&XyXB.[.[.yX X Xn.Z [.'.eXC.C.G a. XoXN.S.A.;X8XS.@X@X#X&X#XiXvXrXrXoX@XiX8Xd.z ( S a.H.p.",
"{ eXyXvXH.b b a.x t ( i.3.4.R.J.z.<., ! u < y y y &.&.&.-.! ! 8.Y.<.! Y =.>.=.9.-.$.! <.f.f.n K.,.~ p.K.4.,.Q Q %.4.d.H.d.g.c j.c.g.g.).Y.qXaXi.g.c.E.i.d.a.P.8XH.s s h a.a.h a.P.8XoX8Xw S oXH.N.a.H.S Z a.Z N.oXM.eX X` Z V.,X+X.X;Xz Z `  XG F @XC. Xa.{  XF.oXz p A 8X:XS.H.M.h S z b h oXa.oX.XG n.V.'.#XB.V.V.eX#X=X*X=X` F #XuX'.xX#X&X+X+ N kX'.B.&X#XJ #X#XV.g Z '.yXzXkX4X&Xn.#X XiXC.'.&XB.kXyX<XyXNXNXjXJ H kX#XC.S.@X X#X'.&XyX#XV.=X&X[.` G '.'.&X@X X|.C.G oXrXP.:XS.rXsX:X:X@XyXmXuXuXzXrXeXrXiXrXmX5XI.N.A.^ n ",
"h G yXiXH.n w z x x ( j.l.%.b.g.~ 4.&.& , Q ; Q $.: Y -.&.Q ,.7.:.-.9.-.9.=.X.-.Y $.& ! v.I.f.J.J.f.d.H.3.4.<.&.-.4.J.d.x.1.%.g.g.c.4.3.l.j././.T.! g.j.j.H.H.s.n n H.S S I.s.a.A.S P.8Xe q oXoX8XN.z z n.n.n.C.@XH.N.C. XC.V  XS.oXP.9XrX.XC.H.C.G s oXeXC.oXn.;XH.A a.oXM.s..XH.oXS S oXoXH.N.B.C. XH V.'.'.'.{.J [.'.].K xX{.B.&X,X[.,X,X#X[.=XkX#X&XB.'.#X'.&XC.F C.` J  X#XkX'.|.#X4XiXmXrXH &X#X&XvXeXyX<XZXxX#X#XmXzXn.) rXn. X XB.yXyXkXyX{.B.V.B.B.yXZ.|. X&XeXN.N.N.) .XsX8XrXaX:X+X@XeXiX+X.XS.H.d.8XrX9X6X6XaXs.b ^ ",
"N.P.A.oXf.f.z e x ~ 3.J.z.&.l.A.p.t <.8.$.-.-.: T T +.9.&.l.x.2.R.8.9.9.9.: * Y -.=.X.>.8./.(.(.b.,.g.R.4.g.7.T.T.3.i.2.z.8.q.8.-.z.z.(.,.u j.)._.~.7.z.u D.6X] d.d.f.N.H.P.H.A.N.A a.b I.a.N.C.:XrXp Z n.Z H.H.N.N.n.C.@X[.mX XG a.a.f.a.S @X XG  Xn..X@Xw Z A ( H.n h P.oXoXrX.XM.S N.S N.S G Z J [.V.,X'.zX=X| '.#X X#XJ '.yX&X,X,Xd [.zXV.' V.,XyXGX+X X[.+XV.C.V f C.#X&XJ C.@X'.'.@XeXeX XC.&XmX&XkXkX#X@XmXNX<XkXjXxXmX@X XS.'.#X#XN ` n.'.#XB.G J C.#X&X&XeX@XrXoXM..XA.) P.rXP.rX;XH.:XS. XrX;XA.I.H.J.5XgX8XI.E.A.s b ",
"s.;XaXP.J.j.d.i.^ p.^ H.^.0.,.J.;Xn r y 1.9.$.-.&.q.t.8.z.p.H.H.5Xz.9.T.t.9.:.* ;.t.t.>.X.=.q.b.~.9.:.q.<.8.0.:.q.7.R.c.z.T.&.q.-.q.z.b.8.3.R.z.z.~.q.7./ 3.3.E.^ e ( b f.n j.7 N.8XS s N.a.3 Z S..Xn.C.3X Xf M.@XXXXXf n.f  XV.n.C.z z S G f [.#X&X XZ z s 4 z s.n N.A.s.oXM.M.:XG 2 z f a. X` G C.B.` [.'.V.+XB.B.vXZ.J B.'.J #XBXxX'.H yXzXH J ` ` B.'.vXGXmX` eX[.Z eX XC.J &X@X&X&X X#XV.n.J @X&XyXyX&XeXiXuXkX&X*XxXmXyXnXsX@X&X#X&X#Xd p V J [.H H #XeX'.@XiX X X:X.XM.8X_ h dXdX8X8X.X;XN.P.P.d.P.H.j.j.I.9XaXE.H.5Xb n ",
"H.f.a.a.d.( b s.z f.s.a.I.l.1.g.a.f.s.2.7.<.! 8.z.8.9.-.! ~ i.9X9XY.: >.=.:.>.U >.;.* #.#...o.$.t.t.8.! Y.).q.Q ! <.Q Q ! 1.t.&.t.&.q.$.8.wX(.~.Y.Q z.1.z.Y.1.(.K.j.H.5Xd.s.H.d.S H.P.n z a.N.8XeX) M.f w  XN.3 z mXrX@XiX Xn.C.#XeXn.H.C. X'.B.&X&X,XvXl S H.z w # M.GX.X) M.j :XS.G Z A Z n. XB.B.B.H ` J n.` #XJ J G g g B H J H #X<XV J &XV.<XjXuX#XZ nXGXFXC. X[.)  XeX#XH | #X'.'.yX+X+X XV C.eX&X+XyX@X XmXzXvXzX=XkXZXmX@X XeX'.J J f p n.C. Xn. X|.&X#XC..XM..XP.rXP.D.aXD.;X8XaX;X;X;XA.P.A.s.J.j.i.A.H.8Xd.x.^.K.5Xi.",
"d.f.f.S d.s.( j.c d..XC.I.p.0.b.p.i.K.x.^ J.g.t ~ ! X.>.>.$.u j.6XY.=.+.>.r.r.U +...O I >.+.>...$.-.T.Y.(.c.,.c.3.R.~ z.Q > 1.! t.T.q.-.-.7.Y.T.).- y 7.q.Y.q.! ~ l.R.K.5Xd.n x f.S f.N.S ) z G @XC.8XG . s a.N.2 z S ) G @XeX@XC.eXZ  X@XeX=XjXkXB.&XnXC.G G G n.z w vXsXoX XA G ` eX[.@X XV H B.B.J B.` #X#XV J 4XG J '.J N B J H ].kXyXyXB.eXyXJ uX&X[.n.@Xn.F g V.:X X` C.kXpX&X X#XC.&X&X@X[.Z C.yX X&XeX@XsXeXeXGXnX[.[.iXeX) +X&XJ G p F  X[.n.B.yXkX X XM.:X:XD.;X.XfXD.s.dXA.D.;XqX;XP.I.i.d.E.P.H.f.oXN.rXJ.j.^.g.K.E.",
"f.d.H.S H.oXf.f.3.n N.S.I.p.7.~.0.0.<.g./.J.} z 2.,.-.=.:.X.Q c.E.q.+.>.@.y.r.+...#.+...>.>.+.r.$.! > Q ).).x.p.x.0XR.z.7., T -.9.Y.q.q.! 7.g.0.q.Y.W <.1.7.q.-.9.-.1.u q s.s.A.9XI.a.H.N.s.S S H.) rXoX4 s oXoX( j z z M.n.H  Xn.n.Z l @X'.#XyXB.#XeXvXC.|. X X XC.) G G f G n.@XC.B.V.C.eX'.'.#X&XB.[.[.F d d H '.yX'.&XJ K {.K {.jX#X X[.F H MX'.'.` G [.G M. X&XC.V.V.f ` eXiX XC.eXn.[.@XmXmX:X X@XeXuXyXV. XoX3XsXvXeXsXuX@X,XyX&X#X'.H B.+X,XF n.C.@X@XeXS.:X;XP.) ) D.rXP.D.;X;X;X>X;XP.I.H.P.A.J.aXP..XoX;XgXi.^.(.x.R.",
"2.I.H.S .X8Xs.z c H.A.H.E.E.p.0.-.&.q.8.1.p.z s a.H.7.t.=.U y u < -.I >.>.#.r.+.I =.>.= ..+.R W 3.,.t 2.g.x.0Xj.p.g.(.z.7.q.t.~.$.7.q.! <.W./.T.q.T.Y.z.(.z.! t.t.$.Y z.n ( z z H.d.5X9XP.P.P.M.A r rXFXN.z z oXH.S z S.H.N.3 S C.eXoX+ f eX5 J '.#X:X` Z f iXmXeXV. X&XC.Z Z n.n.#XC.V.#X[.=XmX'.B.'.'.].{.{.jX#XB.B.5 g &X'.B.<X'.=XB.'.V d '.=X'.&XzX'.,XuXV.,X'.eXn.G zX,XV.[.:XC.N.N. XeXzXuX:XC. X+XyXeX[.V.C.eX@X+X,XGXCX@XeX#XyX=X{.B.J #X#Xn. XM.S.eX@XM.A.:X:XrXS.] ) D.P.D.] P.>X;XP.J.E.;XP.A.H.P.M.;X6X^.J.c.^.K.^.",
"d.d.s.N.M.8X XN.d.s.H.d.8X8XN.x.7.; $.9.$.&.~ n s.} u &.=.R ; , : >.+.>.=.=.+.t.>.-.1.Y ..t.9.Q i.z n i.c i.H.K.,.%.:.q.8._.8.9.:.<.8.! > ~ j.Y.T.T.q.Q T.t.-.>.~._.&.Y.aXb @ @ 2.c n c 7 A.( @ P.s.N.H.z N.z ) oXN.N.N.oX.Xj eX X X@X Xg  X@XN @XrXCXa  XiX[.,X@X'.@X X#X X4 n.B.B.'.n.yX'.+X#X` H kX'.#XxX].{.kXyX#XB.N 5 =Xg {.NX<X&X'.V.B.K yX#X].B.B.].yXV.n.n.C.` iXmXn.F  XeX@X) M.@XiX#X#X[.V.eX@X4X X&XvX#X#Xn.eXvXfXsX#X@X'.yX4X&X&XJ '.J C.C.C.:X.X.X8XS.M.a.A.M.:X;XD.D.>XD.) 8X;X;Xi.E.8X8XA.H.s.;X8XJ.J.K.2.K.^.J.",
"J.j.H.P.H.iXXXf.f.S N.I.P.pX4X5X^.g.%.Y Y , i ,.z f.3.$.+.>.X.& X.>.@.;.Y Y o T $.8.~.Y.&.8.~.&.t f.2.u 2.y 4.1.$.: U Y T -.8.$.t.! 1.q.1.R.0X(.~.`.1.- %.-.:.>.! t.&.R.( 7 I.2.f.c c 2.e H.oXs.f.A.r z z z z S.a.N.;XN.N.@XS @Xp Z C.pX#X5 J  Xj oXCXM.oXvX XeX+X#XuX XB.iX Xn.'.#XB.B.'.` #X'.&X'.J B.{.' K K =XxXyX&XkXJ N B.#X#X<XyX{.J ` J <X+X=XkX].' J V.[.iXV.) 3 @XnX+XV.V.@XM.S Z '.yX=X,X@X#X#X#X@XV.#X#X&XeX&X@XeXoX X'.B.'.yX'.K B ].H Z C.) M..X.XoXoX) M.M.) S..X>X_ :X:XA.A.;XE.E.D.A.rX.Xb M..X;XE.E.c.x.p.K.I.",
"5Xp.2.hXrX XF.I.f.n f.H.d.8X5XG.I.5XM.j.<.8.&.Q n S d.i T X.;.* % o.& ,.u y :.=.! <.(.l.K.u $.:.7.~ u u l.7.8...O = = U T 1.T.t.9.&.1.8.8.T.~.7.y Q b.0.q.>.Y >.T ! z.R.g.D.I.d.^ z f.e f.;XA.s..XH.H.a.s H.d.H.H.N.H.S 3 Z S S 7 f M.f  XH Z.Z.a..XoXoX.XA V.F +X XF '.yXkX X| f C.+XC.Z S.n.H C.[.D [.'.D {.B.].<X#X#X#XiXd + B.&XjXyXjX#XB.'.vXyXH yX{.V.&XJ ,XeXvXn.G sX.XV.:X:X) .X@X Xn.kX+X#X XuXeX[.[.'.'.+X+X,X#XiX#X@X.XrXC.n.@X XF H B.Z p N.C.a.H..X.X:X:XS..XS.s.;XaX.X.X>XS.s.D.E.J.;X:XS..X) H.+XP.I.N.;X5XH.H.d.",
"^.K.(.5XeXeXH.I.a.s.Q.H.5XoXoX7X7XrXoX6XJ.,.8.&.i.b i.1.>.$.$.-.1.z.Y.R.J.i.! X.8.$.; % < 7.-.-.Y y l.~.0.7.&.T & o T ;.! T.T.&.9.T.&., $.-.q.<.; Q 0.q.~.y.X.Y T.1.%.7.3.~ ,.t z t I.z e A..Xs.rX:XH.A a.n H.f.n w s j j G H.8XrXj G C.J #X X@X XC.n.C.M.a.S.:XG @X[.,X[.C.@XeX@XiX'.V a M.+Xn.,XiX8 ' B.'.V.[.[.eXkX#X&X+XkX+XB.yX#X].=X*XJ N Z uX+X+X+XV.yX&X#XuX@XA G n.+XJ @X XZ S.,X X X X XuX+X@X@X@X@X&XrXzXV.[. XkXmX+XS.C.H J ,X[.f N F f p z C. X8XS..X.XA.N.}.}.A :X>X.X.XrXS.s.D.E.s.E.;XA.s.a.@X:X;X;X( E.H.I.i.j.",
"x.^.(.5XI.@XP.P.H.H.8XP.hX8XoXoX8X:XP.H.E.$ - <.t x y $.$.0.q.q./.i.2.g.4.j.7.=.T T X.8.z.8.q.t.=.t.T.8.1.i %.Y T Y t.t.Y.! 7.t.t.:.$.$.! -.T Y.9.q.0.Q &.-.>.t.9.T.! : q.9.! v.J.p.n d.d.( 9XP.P..XA.2 S S # e q ( H..X X) M.N.N.G z n.f n.@XZ.kX@XC.H H. XS.N.A mX@XG +XB.@X'.eXyXB.G Z z Z Z  X&XJ V ].J kXn.Z s Z C.` #X{.&X#X&XB.].#X&XB.` 5 Z uX+XB.C.'.B.#X'.G J  X,X X&X[.V. XC.eX[.:X XV. X@X:X X XeX#X.X:XeXeX'.H @X@XS.n.#X'.[.M.[.N N C.C.G n.H..XoX:XrX.X@X+X,XS.M.S.D.>X:XS.s.s.D.( j.j.D.A.j.) .X;XH.d.I.H.J.J.J.",
"M ^.K.I.I.8X8X3XoXoXoXXXF. XoXN.a.P.H.j.H.x g.<.g.z.$.I -./.wX).(.c.4.0.; < &.>...=.:.g.R.Y.T.t.-.8.9.-.> &.8.-.t.9.t.&.! <.z.Y.:.-.o.*.-.Y X.-.~.`.).Y.b.8.X.Y t.! t.t.~.t., y ^ x @ q H.d.z A.s rXoXz h z n N.a.b H.A z p G  XN.G @X{ Z n.n.G Z n.#XC.G M.Z .X2 M. XJ +XB.f f C. X&X X.XN.z C.uXH B.` J H #XF s Z f G n.J uXkXyX,X#XyX{.' [.+X#X[.vXC. X X`  X&XC.B.#X#X&XmXyXmXzX,X[.V.`  XG [.V.G S.C.rXeX X@XrXrXiXG ` G .X:Xn. X,X.XM.n.G G uXyXC.C. XeX[..XS.M.:X+XV..XS.:X>X>XrXaX>XP.] D.s.j.p.W.^ ) .XP.A.E.J.E.J.E.j.",
"2.p.K.K.5X8XrXoX8XoXpX3X@X8XH.N.n A.sX;Xp.<.z.! &.: X.= o.g.I.^.R.T.&.1.b.$.! 8.9.q.,.~ g.c.8.*.! 8.q.-.9.q.t.~.:.9.-.8.T.z.Y.1.0.T.-.X.:.t.y.>.X._.wX(.T.~.$.=.$.T 8.>.>.R Q 3.t q n f.( i.( H.2 @ A.5Xz z w S 7 N.r s S C. XG n.f f eXG n.M.p a.@X@X@Xn.J V.d A C.[.B.N [.#XkXeX X'.) H.oXS.M.[.` Z J '.g H '.+ p p 4 X p eXC.N +X=X#XyX#X'.GXmXF @X[.H Z B.&XB.H @X'.J &XkXyXkXNXxXjX[.G Z  XC.M.M.C.M.sXeXeXrX XS.iX@X@X.XS.N.f G n.8XoX8XH.H.oX` ` M.V.@XC.M.a.:XuXmXsX:XrX) ] :X.X>XM.A.D.A.P.s.P.6Xs.s.P.;XJ.E.K.R.c.x.u ",
"E.x.J.J.f.d.A.A.N.N.rXiXeX XoXH.f.A.M.A.x.%.&.W U -.=.+.-.4.n J.g.<.-.7.%.i q.t <.3.t u z.0.8.8.8.4.Y.t.-.8.-.=.+.t.$.8.8.&.~.z.4.b.9.-.& =.r.+.X.: q.(.8.T.~.T =.-.! Y >.: ! g.t E.i.^ ^ ;XE.H.fX2 z H.a.a.s w h 5X8Xa.z N.a.2 s H.4 z n.H.C. XZ S iXC.eXkX` K vX+XV.kX{.,XV.'.n.@XyXV.M.8X:XeX X Xn.Z C.'.N p 4 f n.n.p + w A N N #XkXyX+XB.,XkX` V +X` n.n.B.+ 3 #X#X'.#XJ '.&XkXxX<XzXuXZ C..XvX:X) S..XS.S.rX.XeXeXA A S.rXoXa.N.H..XH.;XH.z Z  X[.@XV.S..X.XM.S..X[.{.}..X) D..XA ) S.D.D.s.>X;Xb j.E.J.;X;XA.j.6X^.^.l.u ",
"J.^.K.x.p.i.H.b f.d.s.XXiX XsX;Xx.d.a.A.g.&.$.X.T -.9...% ! 3.3.4.7.z.7.&.> Q t y y > ! ! &.&.&.! &.z.9.$.T $.>.O.>.9.&., $.:.0.%.T.t.Y Y t.;.+.~.9.9.).8.>.t.X.-.q.~.T.t.t.q.,.r d.J.6Xj.j.;Xs.oX:XH.N.N.;XrXS # } N.z q S e a.s n.{ Z G z Z nXM.) G @XzX@XZ V.GXFXn.uXzXn.f f a. XnXeXS.aXA a.N.f G V.:X XeXC.d g G V.Z F 3 G kX<X{.{.#X].,X'.J @X&X#XGXeX` F Z Z yXyX#XB. XC.].K =XjXuXyX&X@XLX:Xn. XeX.Xj ` S.Z M.@X.X.XM.:XoX@X XeX) S.oXZ 8Xn.H..X XC.S.M..XM.M.` :X].+X` M..X:X;XD.S.] ) P.;X.X_ b P.5XI.;XH.A.p.x.wX/.3.",
"K./.6Xc.c.4.j.j.i.d.z N.eXoXoX;Xc x f.H.J.7.X.I I : Y $.X.: b.4.%.&.! $.-.! ; $.: : &.! : R =.X.=.9.q.9.-.9.>.>...+.R R Y & -.T.8.q.$.: -.t.t.;.t.t.&.&.-.:.=.9.o., ! q.t.r._.i - - n j.i.i.n f.z M.) z M.S 8XC.s z s.z e e z a.H.z N.H.eXXXf  X@XM.+X@Xn.rXHX( ) rXA Z a.) H.8XS .XuXC..XgXa.a.Z 4 3 eXFX) C. XM.3 3 f d J +X#XkXyX=XKX=X{.=XZX X#XkXB.@XuX` F Z ` +XN J  XC.G '.&X#X{.kX#X,XiX+X.XM. X+XF S.mX:XA 8XoXS.S.A.S.S.n.n.iX8X) N.H.mXeXn.S.C.oXrXoX+X.XsX:XuX,X[.M.S.' ) ( .X.X) M.s.S.rXS.( b 5XJ.;XI.E.E.x.qX0X(.",
"j.J.I.E.6X/.T.j.p.c.i.p.f.a.s.s.H.j.2.2.( p.8.X.I * Y $.Y Y 9.:.-.> -.$., -.*.-.=.;.& Y X.=.:.T T &.1.&.:.:.r.+.= I X.>.=.=.>.9.).).t.=.>._.t.-.9.X.9.~.>.y.t.T.$._.9.;.:.U ;.-.8.R.r r H.t n j.S M.H.S.d.s # N.eXH S d.H.S .XN.z M.A G a @XeXF.f Z eX@X( a.FXC.f @X&X Xn.4 H Z G n.g G G C.N.G N.S s G &X'.` G n.Z 4 ` Z H kXF V ` V PX&XH J '.J B.f J H g ` [.C.#XeX*XH J #XB.J '.jX].].V.f :XeX+XuX@X[.[.:X X@XvXmX:XoX) A.S.M.M.S.rXH.) S :XeX@XeX.XH.a.S.:XM.M.) ) M.[..X` }..X:Xs.M.A.D.s.s.P.P.P.] _ j.j.P.A.j.3.2.c K.x.",
"s.( n A.K.R.c./ t ~ g.i.H.;Xs.i.H.H.p.n ^ f.7.:.* = * U * * $.~.-.> $.-.:.> -.-.9.$.-.$.t.:.:.9.*.8.<.t.=.t.t.r.r...* 9.t.:.:...q.>.y.y.:.q.8.8.~.T.1.T.8.9.q.8.-.! ~.t.R t.t.T i 4.I.f.;XE.H.n oXs 7 d.K.t q d.oXrX3 H.5Xd.z z 8XS s rX+XG 8XeXC.p @XA.# a.f.N.) eX XC.Z 4 Z p M.vXkX&XnXfXN.a.n.pXl n.zXyX` '.g G S.C.@XJ V. Xn.n.4 uX:Xf N '.'.yX#XC.C.p G F B. XJ B.#X#X#X#X'.J {.yX'.V.d Z @X X XeXM. XM.iXvXmXrXmX:XH.rXFXM..XrX:XN.S. X X X X,X@XrXaXS.+XS.:XA ) :X.XsX[.' D.M.A.M.P.D.P.A.M.:X:XA.s.A.P.A.;XE.j.p.p.g.g.",
"j.i.h x p.i.c.i.~ ~ g.K.j.E.K.x.p.c 2.d.d.p.3.%.o.T X.* ..o % % :.*.X.X.X.>.Y & : U -.9.=.:.X.Y &.Q y t.=.T >.+.r.@.I t.U I r.+.....>.r.t.&.q.).(.c.7.R.T.8.q.8.T.T.-.t.$.: &.T.&.1 t H.H.J.5Xz j.n z S P.A.S @XoXoXz 7 H.N.S.S oXvX@Xf G a.@XN.p Z G @XH.z s a.C.S.V.f z 2 A Z Z Z yXMX XnXG  XG n.G n.eXV.uX XZ.) b p V.#XG Z n.V.+ z j z 3 p p Z B.#XZ g G f 3 + 5 + 5 J n.eXyXC.#XB.C.@X+X XM..XrXn.a.N.H.C.uX XG S.C.A eXoXoX8X.X) N.S.H.H.S @X,XC. X:X@X,X.XeXrXS.uX:XC.zX>X}.M.M.:X;XP.] D.k P.;XP.P.A.A.( b J.i.2.K.^.0X",
"(.K.2.n J.R.j.i.4.3.3.7.p.p.v.Q u 4.,.z n j.2.l.1.q.-.:.o.: % - z.q.=.O.= & -.$.& o.$.R Y =.:.-.! Q / R >.+.+.r.t.>...#.I = +.O.>.+.I ..t.~.)./.<.3.u 3.,.7.T.0.(.z.&.q.q.i 7.~.T.(.c p.p.t d.d.n ^ FXs.( s.s.a.h 7 n 7 z S ) z 9 @XeXn.a.a H.@Xz H.C.C.H.S N.n.M. X XV. Xa.:XPXG G 5 #X&X X|.B.n.f z 4 3 G N.Z H.N.z a.3 g  XJ F N p p 7 Z F.f Z B.H G  XF Z V.Z 3 G J 5 5 H '.eXZ.|.@XB.'. XsXS.M.M.C.H.) @X` V.+X@Xn.C.@X@Xn.oXoXC.a.N.N.G M.M.@X@XS.N.H.rXC.n.S.` V.[.eX` '.,X}.M.M.A.M.P.P.M.S..X.Xr s.8XA.s.h x ^ 2.g.(.).",
").c.x.H.x.R.J.c c.Y.Y./.z.l.b.T.b.Y.g.c z d.J.c.c.x.i > $.- t t t Y.9.+.:.X.: 8.o.Y Y Y =.:.>.9.W g.Y.~.I +.+.r.y.>.@.@.r.@.+.r.+.>.r.+.: ; 7.wX).4.l.0X(.< l.(.u <.(.wX~.T.<.q.-.8.4.z.l.~ 2.8Xt n H.wX4.1.&.u ^ aXJ.H.;XN.C.H.S eXf rXn.N.H.H.S p Z N.N.H.a.M.oXeX@XG 4 f p ) nXn.B.N n. X XB.H 3 p 2 j z S z n.rX;XN.+X#XB.G  Xn.H G G Z G  X&XN B.B.C.n.f F @XGX` C.` @Xd G &XeX@XiXC.z N.S :X) ) M.V.S.V.uXC.M.G +XZ G C.N.N.N.H.a.a.oX XN. XC.S.S.N.M.@XV.M.sX:X` [.B.@X X1X}.' }.( s.( s.P.D.A.s.) s..X.Xs.s.( d.p.R.v.l.",
"T.z.2.x.K.x.z.~ g.z.7.z.<.u %.-.q.(.Y.~ t t ~ p.2.c [ 1.u c c 2.t - 9.X.:.y.: : -.$.$.9.:.=.t.R , Q ; Y +.I r.O.r.#.@.I r.T I +.=.U U ! & , 0.l.K.0Xp.p.^.qX/.FX^.gX(.(.~.~.).8.$.! 8.8.&., $ t j.K.f.J.l.%.&.8.g.R.J.j.5Xf.S H.G p M.S j a.) rXoXn.f 3 w a.N.N.rXeXC.f G S PXH.3 C.B.B.n.f @X'.n.l rX# 2 s w # z LXCXsX+X'.J Z [.` p G J J G '.'.p n.@Xn.F C.A N.GX@Xn.n. XC.p |.@X@X@X@Xn.S.) .XS ) .X.XG V.B. X+X'.@XeX XC.C.a.N.eXC.S C. XvXoX) eXN.H.S.@X@Xn.@X+XA M.[.[.[.}.+X` M.M.) M.s.P.h A.D.( A.) M.8Xf.x ^ 2.(.v.7.",
"1.0.y 3.v.7.Q Q 7.z.7.z.7.<.-.-.q.q.c.,.u y u u t y l.c @ 2.,.y r 1 > : = >.:.-.$.: Y =.X.U +.=.: : , U r.@.+.+.+.+.r.>.>.$.R >.y.>.: : 9.q.<.,.^.R.l.i %.T.<./.wX^.).~.1.&.-.Y U X.; $.=.-.&.~ ,.c K.5X^ c.p.c.7.7.3.j.J.P.8X8Xn.M.w a.N.w p 3 d.@XZ 3 p a.@XrXw w ` Z C.HXPXLX) @X[.d @Xn.C.#Xg Z S w N.X s Z + oXsXS.+XF J @XC.A p 9 H #XH J J G @XeXn.n.) A a p A ) f oXuXf Z G G N.) A S.H.A.s.aX;XM.j B.+X[.G n. Xn.yX,XM.M.) n. XG Z f a.:X XC.) sXaXN.@X[.iXuXV.V ,XC.V.[.[.V.S.A oX:XS..XM.D.D.^ s.P.A.;XE.d.^ 4.v.b.b.",
"0.(.v.p.c.7.<.Q 7.z.0.0.1.0.:.t.q.1.(.3.u - y u y > 7.3.t $ > > u - $.-.=...T : > > Y Y >...X.-.=.T & >.@.+.r.@.: & +.r.t._.).-.:.t.R & &.&.7.v.).z.&.X.* * U ! x.g.u ~.1.! T.9.* & : * T * -.- - 2.2.^ 3.~.Y.&.W <.z.c.I.I.oX8Xn.S.M.p z 2 Z z f.N.n. X XG 4 M.z 7  XG C.S z a.sX@X:XZ G C.p '.&XiXiXrXS 4 z G S Z a d G f B.yXs 3 s # 3 GXB.H n.H B.&XV f ` @XG j  X) n.eXuXiX Xn.N.S.) ( A ) s.( H.f.s.C.G +X'.'.yXV.G F [.+XC.n.G M. XC.a.G S.iX@XM.a.H.S.C.Z n.eXeX[.[.:X,X+X.X:X.Xj ) S.) [.S._ ] t ^ j.j.s.i.i.J.- ,.:.-.",
"q.7./.i.t t ! 8.z.z.~.b.0.0.:.:.q.:.8.Q u [ u <.! 8.&.! Q - , , > Q 9.y.>.+.$.8.9.Y Y =.>...* Y X.X.o U * * >.+.=.>.#.O.t.~.q.:.* =.t.Y , 0.0.~.-.>.= O = U U U *.q.! , 7.p.x.Y.T.$.=.: T * -.(.i.d.f.p.l.1.t.:., ; 1.4.H.H.H.9Xd.N.oXC.Z n.eXC.a.) 3 C.[.eXN.4 G f 3 z oXz a.eX+ C.+XM.V.yX&XeXn.n. XH.S f.r d.S a Z H f { G C.V 4 ` S.+ @XG F C.G G Z G |  X|.4X X#XN C.G M.n.V.,XeX XiXrXa.a.S.G n.f S F. X' #XB.[. XV.B.C.G S.a.Z a.Z.H. Xa..XiXvXB.@X XeXC.a.z ,X XuX[.#XV.+X,X.X+XV.A }.M..XoXS.;XP.t i.6Xt t ( E.J.z.0.> ",
"<.u g.i.x <.<.<.8.z.).wXv.0.b.&.8.t.8.! ,.c ~ z.y 8.&.-.8.&.&.&.8.&.-.X.+.=.9., ! -.t.X.+...X.>.X.>.>.X.:.I = +.X.I +.#.I % % > $.:.$.: $.).T.1.:.o.I O = U = = ..& & o 2.I.x.7.:.+...+.I X.> g.t t H.x.v.u 3.g.8.: &.z.H.8XK.,.f.H.S.yXG C. XC.S.z ) S.S.Z.oXoX XG G a.N.eX@ a.B.J S.eXF &XmX'.Z f ) H.;Xs.q rXa.s G  Xp G S n.,X` f .X@ w f C.&X'.@X@Xn.G n.@X@XyXkX` F M. XG G eXn.G  XfXoX.XM.n.#XJ n.n.| K +XmXB.[.B.J p g n.a Z G C.a.a.A S oX XC.&X&X#XC.C.C.#X[.yXjXyX'.[.@XzX,X XS.[.` oXrXH.:XA.^ A.aXE.j.D.I.i.v.T.q.",
"c.~ 3.3./ ! ! 1.7.Q c.c.x.4.z.7.&.&.W < u p.2.t , 8.>.>.X.:.o.9.>.-.:.:.=.X.$.1 1 ! =.+...I I +.>.T ..X.=.:.I T >.>...= ..:.b.l.-.t.9.t._.q.8.&.! * I I I U +.T & ....1.i.Q.v.-.O I r.:.r.U , c ~ c 2.2.[ k.n n u , q.).4.3.1.: ^ w oXvXZ j H.oX( ) a.n.C.Z C.8X@XG N.n.s Z f G B.B.f f J f G n.n.iXG C.@XS a.sXN.n.G p S N.'.J iX.Xs + j S.S.C.n.yX#X#Xp  XS F.fX@XB.H F N.G V. X` Z Z H..XH.a.M.G V. XZ C.'.B.+XuXxX&XV.G H Z n.Z @XZ.n.oX) S A z n.'.yXjX&X&XV.&X,X+X#X=XyXjXmX,XyXyXB.[.M.j S.H.A A.P.( x E.D.E.;X^ ^ (.q.8.",
"/.J.p./ ! -.W ! 7.<.2.p.j.2.z.v.1.8.q.Q 2.x.p.u y > & * T * T o.o.: X.=.=.$.$.; 3.1.$.y.=.= = @.=.T & $.% $.X.& $.t.+...:.8.v./.~.t.9.-.-.~.t.! q.-.U I U >.+.* U :.: l.x.*.o.Y X.= ..T U r.; 3.g.j.t 2.c f.p.^.- l.b.1.4.~ Q % E.d.j S n.z b ;Xz w f j n.S.Z f C. X Xn.p G Z f H  X XG Z &XG + l Z H |.f z n.n. XZ F.n.l G f [.&X.Xf S.P.:X@XZ n.g Z B.Z s oXHXLXn.F G p S Z f  XV.@Xf  XC.a.a.M.V.G @XB.G B.#X'.].#XkX#X&X| H  Xn.C.XXZ @XC.A .XiXeX'.B.'.B.` n.,X,XuXV.=X<X].,XuX+XiXrX.X:XS..X:Xs.A.8Xj.] j._ j.J.g.3.7.1.q.",
"j.j./ Q W ! W y y i 7.3.c ,.,.1.q.8.-.; u v.p.,.- : T X.=.+.:.* T >.=.=.*.o.=.o.8.7.! : I ..I =.X.-.; ! T.% :.t.9.9.>.:.:.> ,.2.0.-.8.$.t.8._.> ! t.R % & : : U U $.i c ,.: O -.T.> ! -.= = X.~.R.K.H.M.j S a.7Xn x.p.n s.d.@ - q 8XZ G S.:XA .XM.j f Z S C.#XN g  XJ 5 5 H Z 5 J G eX@Xf G s 4 w 3 J @XC.G FXFXC.n.G pXS a.,XuXC.j w A .X@X.XV.J @Xg Z s a.rXI.N.H. XZ.G { Z.|.+X X4 G C.C. X Xj G S C.#XB.B.B.*XyX].J J &XB.V C.)  XC.C.@XeX XyXmXyX'.#XC.@Xn. X@X+X&X'.&XzX<X.XrXM.D.) S.A.D.M.:XoXs.A.s.j.j.E.] ^ c.4.<.1.1.",
"i.^ 4.! 1.1.q.7., ! 1.7.<.1.b.1.&.q.%.y - 5.,.; , -.>.X.t.>.T X.T X.=.X.9.9.T ..T -.& -.=.+.+.r.>.9., b.).8.! q.-.% &.: & 1 u [ Q &.-.$.~.8.P ; T ; % ; q.W -.R = -.v.r > * 9.v.7.Y.(.T.I I +.8.(.g.oX+X<X'.[.'.S N.oXa.A S.M.b ) C.C.M.n.N.A ) C.eXC.@Xn.d J ` J J Z B.B.p G C.#Xn.n.|.H N Z H + + G |.Z 3 f vXn.Z.n.S { S oXiXM.) j M.j a F  XJ Z G 3 . w z # + H N @Xn.C. XZ G #X5 L  XG C.n.#XG S n.|.J B.B.B J #XB H B.Z Z a w s N.z G F.@XG yX'.'.iX@X.Xa.G eX X[.[.<X<XjXsX:XD.] _ ] M.A M..XM.) oX;XA.] j.j.W.j.3.3.4.W.",
"j.~ Q / 1.T.z.~ <.%.&.q.q.8.T.Y.&.-.T.7.5.5.1.; ! > & ; ; $.X.+.+...+.*.y.-.....I +.R Y :.>.= o +.& i 7.%.-.! -.Y % o o 0.b.p.U.,.$.$.: : 8.% &.T.: : < R.z.& U >.&.3.i Y o $.1.i %.(.8.>.@.X.7.l.x.j.P.P.@X&XB. XiXsX XC.C.+X@XH.M.n.iXn.A  X#XJ C.J eXuXn.+X&X#XV.#X'.H g g H '.#XC.&XH K Z.Z.w z G 3 0 @XoXn.N.{ C.f z +   2 H.f N.H.b a.d + H J B.n.g + 4 b Z Z J N f 4 G Z Z C.@XZ C.|.Z f '.C.XX{ &X4X{.#XH B '.&X#XB.G w s 2 s w S XXl G Z Z yX#XkXuX@XiX,XeXV.'.uXyX=X=X=X[.V.M.D.s.S..X.X:X.Xz H.8XJ.^ ^ j.s.A.6XJ.3.W.",
"g.~ ~ / <.Y.c.4.~ 7.&.&.8.8.<.q.t.9.8.0.u l.%.> : -.8.i , & & ..+...O.T : $.X.......= U & $.X...= * % ! &.: -.9.$.% Q 0.i e.l.0X[ :.~.$.Y :.&.&.-.o.$.8.Q < U & : Q ,.&.T T * : : %.&.W U O t.g.r ,.v.0.1.,.x.S :X.Xn.p ) vXvX[.C.@XeXeXkXV C.V.+XC.[.@X,XC.V.V.[.` '.B.J B.,X'.` B.5 K {.'.Z.n.P.eXp f H.sXCXz w { n.+ z 2 h z S r f.rXaXa.@X@XB.H '.J H f # 2 s 6 6  XN n.G [.@Xn. XB.p p G  XiX#Xa. XJ H &XeX{.*X*XJ iX&Xn.oXI.w ( a.S oXn.f n.H kXkX#X=X&XyX+X[.V.` '.jXlXjX#X#X' F ` M.M.M.) S..X.X:XP.;X] x j.A..XgX;X^ i.",
"t u y <.7.Q 4.l.d.x.z.&.&.&.8.! ;.$.Y ).~ 3., Y q.7.v.5.0.8.; o.T ..+.+.X.* ..I >.>.I I * T T T = U t.R +.U Y q.).8.<.).,.%.; : o.& Y ~.%.%.-.$.Y Y :.t.o.-.t.$.=.! ! ! :.T +.X.:.8.8.T R >.>.Y.4.1...#.r.:.! Q R.6X( 5XI.N.H.@XV.+X X&XB.4 S.+XG z S N.S.iXiX` ` yXn.'.#X'.&XjX{.B.V.g F C.3 G oX Xz 3 N.gX;X@  Xp f r 8X@ # a p + r HXHXsX@Xn.B.N |.#XB.F p a C. X4 V.n.C.f 3 8 j 3 3 a.f f p n.C.g G B.3 + N B.J 8 N J 5 N N.H.a.S N.n.s Z l { n.&X#XzX{.'. XuX[.<XxX=XVX*X<X,X>XrX>XS.D.D.] ) D.:XS.M._ >XD.] A.] s.A.D.i.3.",
"u ~ ~ / ~ i.x.u i.c.&.&.-.8.&.;.=.>.$.&.R.Y.8.Y 0.4.H.G.x.l.-.-.Y ..#.= ..= * T @.O.+.O = = I = T X.>.>.+.>.;.-.8.8., ; %.$.-.=...+.X.$.8.7.z.q.* R t.&.$.8.W q.&.& , : * X.Y & $.! : ! U X.R t.q.t...@.#.+.$.q.q.z.j.I.5XH.s.S. XrXN.V.mXS.j C.a.@ @ z Z  X#XB.` '.' '.J H B.jXxX,XyXeXg Z C.:XZ G C.j s H.@ s.vX) @XZ.z 2 .X# 2 S # a.mXC.S.3 G &X,XB.eX,Xf p f n.p n.[.'. XC.G G iXG n. XXXG n.G J J N G j [.V.F p H H n.Z n.G C.C.n.l l + l @X#XvXJ &Xn.[.,X&X&XuX<XNXjX{.=X' ) ' A _ _ M.M.N.V..X.XS._ ] D.k ^ ( s.s.j.g.~ ",
"g.T.x ] j.i.p.g.c <.8.=.X.9.>.X.....=.: < <.T.Y y p.P.3X3XQ.l.e.o.* X.+...X.o.& I I ..@.I I I I % o , ).t.R R R ! 8.T.8.8.Y Y ..+.T t.T.7.(.v.8.* R Y ; 8.&.; 1.&.% ; : & 9.&.%.: Y & R X.I r.;.T :.T I +.r.T & & &.7.H.;X9X8XH.s.p.g.oXzXC.z gXH.@ n oXV.#X' '.B.D #XB.H '.J #X*X#X'.+XeXg N H #X,XyXeXV.G @XrXn.g n.f fXvXa.@ s s # + w p G p p  X X5 G n.S.s 4 V f g G  X[. X'.L Z eXG 0 C.Z.| B.B.B.N Z C.C.[.+X&XyX{.mXB.p G 2 p H.G H s S C.&X X@X+X+X=XjX=X{.jX].' ZX<X].F 7 ' _ a A k D.M.S..XM.S.D.] ( M.( ^ b ( j.3.y ",
"x u u u i.j.j.f.p.1.-.:.=.: X.=.X...+.U &.1 ; 9.0.v.5XG.k.k.v.5., > = I I >.>.I +.+.O ..r.r.:.T > 1 g.JXY.T * U W 8.q.~.$.8.Y & t.-.! T.v.(.1.8.* Y : ! ! &.8.&.8.$.&.$.Y Y , 8.o.X.T * +.I = r.r.>.q.q.:.y.9.: T 9.1.K.j.K.v.z.y Y 8.f.oXn.r } oXa.N.uXvXV.xX<XH g ].B.'.B.#X'.kXyX&X&X&XyXB.'.<X#X'.<X+Xn.Z 3  XcX3 C.sX8Xq i.r b j p G G w S n.a.C.p 4 f G Z 3 f G V d 3 V +XC.6 g #XZ.p @XeXG &X'.'.n.n.4 f kX#XeXkXK '.'. Xn.a @ G S l 2 9 n.'.n. XkX=X].=X*X=X<XBX=X=XxX{.+X` C _ k _ _ D..XS.S.M..XS.D.P.M.s.P.( h ( i.Q ",
"3.t ,.<.> p.H.oX4., X...=.X.-.$.* = o * ; , T 9.8.> $.i $.l.[ k.b.$.% O = O ..I X.I ..= I I +.:.; y ~ R.wX-.-.-.1.<.i b.0.%.! $.& ~.&.b.).K.v.!.; &.%.Q &.7.q., : Y &.&., ; * * o.=.X.t.+.I I ....9.R./.<.-.9.-.& ! &.v.E.g.0.: X.I * Q A.;Xn @ n.B.yXyX&XJ B.J H B K ].B.yXZ G #XkX#X&X<X#X@X X#X{.#X#X#X` j Z H N.f 4 @XH.e c q p A [.J eXf s w S oX@XG G G oXC.3 n.C.B.d +XC.#XJ 4 N N g 0 n.eX&XB.'.#X+XS.V.&XJ B.mX'.B.g G n.a.+ z oXs S p p g n.N J *X=XjX-XVXxXxXNXBXjX{.V.V.D.k k _ _ d D.) ` F ) S.S.M.M.S.A.] ] s.^ J.",
"3.Q &.-.1.u d.H.1.$.T ..I * -.$.T =.X.R ! T.9.;.t.X.T r.=.Y 1.2.0.1.$...O ....O O +.I O I I O I > < c.Q , 9.$.& z.T.> - c.(.; : & o *.0.p.I.P.Q.K.2.(.x.r u 7.&.T $.; z.%.o * ..:.$.* X.=.=.=.+.+.-.3.2.,.i &.-.! Y ~.l.v.0.=.= O = U > Q Y.,.e B.jX{.mXiXZ.FXGX&X'.#XH H @X[.V H B.H g {.uXuX,X&X'.kXB.V. X XC.z .Xf j G s n q S S j eXJ n.Z.n.s 4 p eXd Z Z n.G + f f + G G  XZ.B.G p 3 l f + Z #X#X'.f p eX X,Xf + J B.B.H g 3 z N.s @ 2 N.z f G Z.B.jXBXxXVX=XlXMXlXNXNX{.].[.' ].}.) ) C ) ' D.S.M.M.M.S.D.] D.s.s.P.;XP.s.",
"7.0.1.4.4.^.H.G.0.-.+.r.+.T -.~.;.r.R & , &.t.r.r.`.y.r.r.+.-.~.-.q.9.>.O.= = I :.>.= ..r.O.I I =.& o : & o * T &.9.>.8.<./.q.=.O = =.&.p.H.H.H.0Xc.l.x.t - 7.! & T & &.T.y % & $.9.Y : : -.:.....* &.4.,.7.t.X.! q.~.0.,.&.: I = I U T Y : ; c H '.J J S z eXPXyX'.xXJ 5 ` n.@XC.d 6 5 MXyX[.F yX#X=X&XB.#XMX#Xw rXG ) Z 3 s # g l G p C.f B.pXz ) 7 p 3 3 z S G H 4 n.n.H.Z f G :X[.f p p 4 4 + f N '.[.3 G  X,X+XC.J H H g V.S S w 2 S r   { oXn.g B BXVX*X-XK UXVXlXlXBXVX].' ].C ) F d ' +X` ) ) C ` ) j D.j.j.j.j.i.] A.j.",
"b.0.Q c.x.x.G.c -.X...+.I ..9.t.9.t.T $.$.9.~.+.t.>.t.>.+.O.r.>.o.*.t.>.+.I O o X.* & & >.;.>.@.U =.X.= I :.U >.9.t.~.).7.4.&.=...X.$.! ,.,.3.1.1.0.b.Y.<.- , : : : :.-.Y.(.0.Q Y Y 9.: % ! =...= >.:.Y.v.z.t.t.t.~.q.-.<.<.X.>.U R ;.>.= = >.g.Z J C.S z N.g H #X X#X*XB.g f ) A V.eXkXjX+XF 8 H =XxX<X#XB.mXyXZ G [.F n.Z w   g 4 { f n.G G H G a. XC.G S @ C.yXB.Z Z @XZ S C. X XZ eX@XZ 4 Z s p + 3 f 3 2 A n. XeX&X#XyX'.n.s s s e w s H w z s B.lX=XNXBXxXVXBX].VXBXBX=X' =X<X4 4 8 [.mX+X}.' ' a A D.] ( j.D.j.j.W.J.^ ^ ",
"3.4.c 3XP.n x.(.=...@.I ..= = ..+.>.>.>...T y.~.(.Y.! t.U X.r...r.y.I ..= O.+.= = = * $.$.T U = t.t.>.T 9.8.-.: ; q.! z.(.<.9.~.q.8.).T.8.T.z., , $.: o y <.0.&.&.$.q.).y 4.v.e.-.& ! $.; $.=.+.>.9.<.x.(.(.q.=.$.$.~.).W z.T.=.& : &.U U +.$.^ ) ) s A :XV.H &XmX&XC.&X&XB.V 3 V C.Z #X&X#X#X,X+X[.[. X'.#X` ` @X[.@XZXC.s 4 + l S  X#Xn.| H H n.a.a.a.a.S.N.n.@XyX X@XzXiXXX@X#XZ.@XC.XXG n.g L 4 s H 3 5 f + { Z L B.{.yXMXiXn.S a.z z z oXS w p 2 G 5 | IXIXNXVXVXVXlXMXBX].$X+X_ _ 8 ` <X<X<X{.' ) ] j.] ] ] j.j.j.] j.j.] ",
"p.j.H.N.oXN.3.&.=.I U +...r.>.R U R ! t.X.= & $.wX).&.; % ~.:...+.+.....I ..I I +.X.:.-.-.U ;.>.>.>.O.U Y &.t.;.Y Y 8.1.<., T =.- 7.1.9.-.&.8.y %.i %.4.3.2.4.*.%.> , &.%.%.).,.b.).: T ! ! : :.X.Y - u y %.>.>.-._.-.1.; , -.: * ; & Y U U &.2.rX@XH.@XB.uXJ D =XyXB.J #X#XkX+X+X'.F d &XmX<XmX,X<XGX[.[.uXMX'.&XxXB.zX@X4 + 2 s a.G H 4X'.J &Xn. X3 s 7 H.C.XXC. XB.&XV.S @X X'. X@Xn.n.L G g Z l 3 H B.g p w 3 J '.#X'.B.6 f S a.n.G N.s f n.Z n.s + p g {.lX=XBXVXVXBXNXNX].' C _ C a {.V.V {.+X' M.D.] ] ] _ ] ] j.D.] D.D.",
"aX.XM.oX;Xd.~ <.9.& * T & *.&.&.>.T o R T ..* & ! ; , -.9.9.&.: T I >.= r.+.= ..= & $.: * X.U ;.R I O.r.Y W $.X.* X.Y ! 9.=.= = o , &.! Y 8.8.%.p.(.4.v.l.).v.[ ~.-.! $.o.-.%.Q T.T.9.! &.W ; , % , - [ 4.[ i $.$.t.&.P ! &.& o < ~.7.8.X.$.z.E.N.M..XmXJ #XyX'.B.N ].{.'.mXkX+X Xn.N.p K *XK F ` V.PXV.H B.'.K J V F f G Z Z G |. X'. XZ.g H J H  Xa.7 G Z  XG G p C.mXf z H  XH Z Z.n.G C.G n.{ S 9 p @XH p 4 J 5 + B f p Z 4 G Z f z H.s + G J 4 s s + 4 4 D J B.BXBXlXlXBXxXK V d a ' zX=X].=X]..XM.S.S.s.s.A M.D.) ) S.S.:X",
",X.X) ) oX^.Q ! 7.; W ! % > & Y q.> > T $.X.X.o o & * & =.-.! -.+.I =.R y.+...@...O U ;.= ..I O U = = t.~.t q.>.T & * * R T I = 9.! ;.$.: -.~.Y.[ (.v.%.y > o.: > 9.q.T = T o y &.! Y $.! ; % % % l.^.K./.,.z.8.; Y q.W 8.T.Y &.^ c.c.4.Y 8./.J.aX8X.X,X&X=XJ C.#X#X+XmX#Xn.V.H M.N.H.C.F '.xX[.A a rXV.d F [.#X&X].V.n.3 ` n. X@XG G n.G p Z  X| n.C.3 n.F G XXl Z vXzXS.a.eXG @XG eXZ n.@XL 3 G oX@ @ l p z 3 p n.f f G G eXC.J #XC.z Z 8XZ H N H G F.{ S Z G G Z N lXNXlX*XlX{.' ) C V.+XVXxX[.#X,X.Xs.D.s.) A M.` +XS.` [.:X",
"` ,XH.s.s.c.7.q.3.Q 4.z.! %.1.< - - / ! t.X.t.=.: X...-.-.0.1.i ..>.X.O T ..O E @.+.I O I = U U U I I : l.^ c.T.t.X.>.I I * T $.-.t.R ;.>.&.8.7.%.> %.$.-.=.X...*.Y R X...o.-.y ! -.* $.t.T.y z.(.i u [ e.i $.q.q.! 8.&.$.&.$.1.g.~ Q 1.& , c.c.c./.6XM.mXLXuXZX@XS. X@XS.rX,X XS a.a.N.@X&X&X Xa.@ A f f 3 g g H #X[.f f J p 4 + 4 + z S 8XF.Z  Xn. Xn.f f 3 .XS s [. X.XS.H Z eXG Z f n.eXn.| Z H  Xn.Z 2 4 G Z f n.Z Z.f n.C.G G p p G n.@XZ g H p S oXn.C.n.S N.N B {.xXxXjX=X}.) ) =X&XjX{.uXuXV.' ) M.D.S.M.[.M.) :X` ` [.",
",X.X) a.A.J.R.z.Q 7.1.<.< ,.~ u 1 1 Q > &.;.=.=.9.8.$.%.g.v.^.b.: * O ..+.= I = +.+.I O O I = & I I O o t J.x.4.T.:.I I = X.Y y o t.~.:.$.&.! &.q.8.&.$.T +.X.X.X.T U $.-.0.b.<.! R ;.R 8.T.1., -.-.-.o.: X.: Y T.! <.7.8.: $.T.q.&.t.q.:.:.! W &.z.qX;XfXCXmXrX8X8X;X5XH.C.C.'.n..Xn.C.ZXkX&Xp j S a 7 ) M.g Z ` V B.C.Z Z V.p 4 n.s @ 9 w h s l  XC.` d f S A ( z N.C.) z C. XC.C.Z H.S  Xn.C.G Z vXiXS z s a.S 2 z S Z C.Z H f  Xn.+ z Z Z  XH n.H # 3 p z N.F.Z.F F N N K =X<X<X.X,X<X'.<XjX{.[.+X) C M._ ) M.) D.A _ A d d ",
"` .XrXaX8XaXR.3.y <.<.4.u ^ x p.t t Q ! : $.t.>.q.T.v.p.j.^.p.4.9.T ..I I = I :.& O E I I U U U I = U ! 2.H./.0.* = r.r.r.X.> % $ AX~.8.Y , > &.8.Y.7.&.$.& Y t.T * I $.l.K.c ! t.>.;.-.-.&.1.&., -.: =.=.I =.-.&.z.c.b.-.* $.-., 8.-.% -.> o T ; > Y.qXwX] x JX9X;XE.A.H.rX+XC.C.+Xn.Z eXkX,X XG l S z Z G  X'.H n.B.'.G f G :XzXG a.w h l H pXZ Z '.@X` j 7 z N.2 ) :XoXS H iX Xa.H.H.@XN.F Z Z g n.f z n s + f n.a.w p @X4 G M.p w w s z Z p n.H.C.C.f p 3 G B.B.n.{.].K J {.'.{.'.[.&X{.{.<X{.K [.` F .XS.A M.:XM.a j M.}.C ",
"+XS.a.a.;XP.j.p.p.g.~ 3.g.l.z.g.~ ~ Q <.! $.=...-.~.7.4.K.p.<.1.8.$.I I = :.: , & I I I I >.;.I = >.;.&.v.p.1.$.T I I @.U r.> < e J./.z.&.&.&.&.%.z.v.4.Q 1.i 0.>...=.8.j.A.t b.`.t.R T , W q.T.z.&.$.T * t.: T.~.4.(.0.-.: R T , <.! W 4.,.i &.<.W 8.8.Y.Q 1 ~ aXE.;XI.a..XC.&XkX@XzX XC.&XV.n.G p H | G J #X#Xd C.#XG G C.Z @XLXC.n.l w N.Z Z s # J eXuXsXw q q S mX7  XH.p 3XiX X Xa.H.eX+X X X| 5 C.a.s mXA  X5 4 s z z p w z @ a.a.w H.C.d z 8XC.C.G Z Z J ].K ].{.B.B.'.{.K K ` +X<XjX=X=X<X{.{.yXF F M.F d [.M.A a ' V.[.",
"S.V.G G oX8XP.E.E.j.g.g.p.g.~ x ] j.g.~ y ! -.-.$.b.7.,.g.7.~.9.! Y ..+.* : o T.T.: X.= O I U * X.T Y u 4.$.% , T...O U = = ..% p.c.&.>.t.: ! T.9.; Q (.Q > v.1.*.r.=.9.7.u x f.AX).: Y &.Q <.7./.<.-.$.* -.t.! z.).v.4.1.% $.; $.Q 4.v.R.g.Q z.<.! Y : $.-.7.t aX5X5X^ e S.C.` C. XoX.X,X XV.w S s s G {.B B.f { eX@Xn.n.G f s j S G w z S z C.cX X+XC.a s.t - gXz e s N.z B.5 C.eXB.C.`  XeX@XZ #X'.&XJ Z f j a.z z Z a.f M.z s w 3 2 w w n.vXC.F.F.@Xf N.2 4 | '.H G eXB.F 8 V.` V.[.V.&X=X*X=X&X=X+XV.' ` K N Z V.n.d V F F ",
"n.V ,XiX XoXaX~ u E.p.J.H.i.2.^ j.c x.4.- Q &.&.:.8.q.1.Q 1.*.Y -.U +...T X.: Y Y Y & & ;.& : X.& $.q.Q ; : *.q.v.o.+.t.U O +.&.% , * o O T Y q.-.&.Q (.(.0.0.y % : & * >.; u p.3.Y.t.-.Y 9.q., %.q.<.< ! % =.X.~.v.K.K.(.i <.z.<.u g.l.c.Y.7.! 0.! , -.Y &.9.z.R.^.J.i.^ N.M.S.n.@Xa.N.G  X@X4 p p # A GXF J f f  X&Xp V n.8Xf Z  XG N.f.m { { H a.vX` 7 @ i.t H.z z f.@ z C.H f Z G f V.G @X@XL 3 f &XB.p f M.+ 4 n.S.oXn.w n.oXZ G a # 2 f G G n. XH.S p  XZ.B.B.n.n.f G ` B.F ` ` V.+XyXjX*X=X=X<X].) M.) V.F F d Z C.D MXKX",
"&XkXuXGX:Xn.8Xj.i.;XH.s.H.P.f.i.i.j.J.R.g.7.7.7.&.&.1.1.8.8.-.=.X.X.T +.I O...& O O : o T U % T >.$.&.y y % * t.%.& ..>.>.O...o.X.= & X.R $.9.9.t.).v.,.v.b.y 1 - &.=.O I ;.; %.Y & * : : t.t.! ; T.).Q Y & o 9.2.f.9XoXI.6Xs.P.J.t t z.<.&.&., q.&.% > -.q.9.-.! 1.x.x.j.A.a.A A P.aX9XoXC.C.p 8 n.A + sXV J | G H G J n.C. X+X X'.f N.z z N.@XC.G CXrXz 5XE.n z z # @ w 2 n.@Xz S S.@XZ + Z  XeXZ Z [.B.G oX.Xl G z z G Z 4 p #XV. XZ Z s + L #XZ.yX@XZ p kX&XZ S s a.Z C.zXmX+X'.+X` F +XxXyXmX=X{.+XM.M.M.` V.` [.@X[.=X<XNX",
"NXyX#X&X@XC.A.s.J.H.H.s.A.s.f.x.x i.g.x.x.g.l.Y.7.z.&.1.~.q.-.$...$.! & = I ..X.U I +.& o % ; * = U , &.Y * = T > > Y ! T = X.t.r.U ;.9.8.! ; -.8.1.).l.4.v.z.u x.z.8.X.X.X.: % & & & T -.t.T.~.Y.~ z.8.*.= Y 1.5X9X XpX@XiX8XH.E./ - Q , & T T &.~.0.Q y ! ! Y ; % 3.i.s A.:XfXs.@ f.E.8Xf.n.@Xj G .X# s f S.#Xn.4XC.J H C.&X&XyXyXG z @ w G J [.FXeX8Xz e e @ w f.2 2 9 z @ C.oXoXs z C.M.M.Z 3X XC.,X#Xp H.G B.Z 4 + N.eXG F B.H ` ` n.s H |.@X'.|.#X@X5 C.'.f G C. X[.yXBX].*X=X=X].6 [.jX=X].jX<X[.) ) a 7 V ` B.+X+X=X{.xX",
"lX&XuX.X+XS.A b ^ n N.f.I.f.2.l.u i.J.5Xf.K.j.~ 7.Y.).~.q.8.&.Y 9.! o % =.+.* U R ..T R I R q.$.T U ! Y =.X...=.-.9.>.! T ;.=.r.>.X.R ! q.q.Y R $.8.<.4.u 4.x.x.2.d.g.Y.8.! :.-.$.-.T.! ! &.t.q.wXR.7.1.9.:.&.c.I.CXvXcXcXmX9XH.i.~ y ! > Y : T.T.1.(.^.l.7.<.1., ; 4.E.P.H.z ( d.@ E.E.d.H.oXrXM.f + A M.C.C.C.iX#X#Xg  Xf @XiX&XB.Z H S f '.KXn.p C.s z e w w q z z z z a.Z.l S 8Xs s S n.G S a.n.C.Z Z f { Z 5 H 9 l a.C.B.&X'.B.H F G p 2 L f s 9  XG p + '.mXmX+X'.#X=X*X].VX<XjX].d F +X=X].#X&X[.n.) 7 6 ` +X X,X#X#XjXBX",
"MX+XS.) ) H.S.A z f.H.d.f.d.p.2.i.s.I.H.f.d.J.j.J./.).).(.7.7.q.q.&.7.y % -.-.=.Y I ..I I >.1.&...T & U I T T & R ! U ! R +.>.U ..:.Y ! &.-.T ..X.! 0.c.K.x.H.9X8XoX;XJ.E.7.1.1.x.0XK.K.1.i -.$.8.z.Q z.(.l.l.Y.^.CXFXFXmXrX2.t $ u 1.0.<.1.7.7.(.y p.E.9X6X6XR.<.3.^.gX9XN.h @ ^ ^ d.d.t I.d.f.f.f.C.H.eX.XZ G 5 n.B.p S :XHXHXZ H G p G L =X*XZ C.a.H.z @ w n.z @ n z H.z S s w 2 a.a.p a.oXZ Z Z H Z f |  XG 3 f p f C.G p f Z Z H 3 + 2   + s z 2 n.Z.C. XC. XV.@X[.#X=XVXVX*X*XlX=X].F [.[.V.kX=X+X+XZ 8 8 d +X'.+XV.B.kXMX",
",X.X.XgX:XrX.Xb b d.H.A.t i.z i.s.( d.G.P.H.J.x.R.aXK.p.0X/.R.Y.7.q.&.Q y - 8.* * I R % ;.>.; * & o & * o =.-.* & X.& T +.O I I O =.).%.<.7.$.& * % 1.u k.hXP.N.:X.XI.J.6Xv.l.^.i.H.N.oX0Xv.,.1.1.1.! &.g.g.l.,.4.6X;X@XfXI.4.g.).v.x.x.d.P.P.A.^ H.d.8XI.A.;X6XE./.E.I.5XH.f.d.0Xd.( s.e H.9Xp.M M a.,X.X XZ #XC.g G z N.aX8XH.H. Xn.Z ` Z 6 5 @ s 2 S z z @ S z q z z @ 2 a.w H.C.S N.2 a.eXeX@XV.+ H @Xf f J H s H 4 n.C.s n.Z.S 3 # q r #   # 2 s z l Z.|.L n.n.n.C.[.yX=X<X*X*X{.].' +XS.+X=X' 5 H ` n.V 8 V F +X+XV.B.V.C.",
"V.M.CXmX) H.s.M.( A f.H.i.i.i.J.j.H.N.a.a.s.E.E.J.6X9X;X6X6Xc.R.W.z.1.y Q Q 0.$.* * R : T T -.U X.$.Q ! T : % =.=.Y X.o = T I U Y ; 7.~ j./.T.! >.t.y 3.5.d.N.a.@X.Xi.p.~ K.^.gX^.H.@X3XF.5X9Xs.p.q.*.: 1.j.J.g.,.4.6X8XH.d.0Xp.2.2.5XoXC.#XB.@XP.8XsX:XS ;XaXaXaX;XI.I.9X0XK.x u @ w a.a.f.K.2.- [ z Z p n.'.G H G 6 . S z # @ Z Z C.J H.n.{ Z m { + @ z f.S s.q z e r e m s 9 N.z N.eXs a.C.n.+Xn.|.n.#XpX&XpXn.w n.C.| 3XXXN.H.a.f 2 @ s e e S w 4 { f n.Z.n.n.G H.oXn.[.+X'.#X{.' ].+X+XV.V &X=X'.'.J V.` V.[.[.yX,X[.vX+X.X",
"[.M.A j h b j S..X( N.6X5XP.P.M.8X8X8XH.H.f.f.E.n d.H.I.5X5Xp.,.Y.z.4.- r ~ %.! o U R U T &.T.Y & Y <.8., & o I : $.T * X.: Y $.! : % l.5XN.5X).T 8.z.,.v.f.k.H.rX;X3.v.p.H.I.i.x.A.@X@XiX7XhX5X5Xx.i %.p.9XfXK.,.c.9XaXI.,.7.x.x.P.XXkXlXyXH.d.I.d.j.dX;X) ;X;X6XqX6XE.I.6Xx.c H.z 2 s Z e 5.,.@ i.A.z ) 2 4 B.J B.H 3 + 3 A Z J J s s 2 n.s s N.C.G n.f @ f.} q # 2 h N.vX4X#XC.oXZ G C.@XC.n.C. X#  X#X=X*X'.n.3 4 G H f n. XS r z 2 H 9 l h l N.n.l Z.z Z f C..Xn.,X[.&XuX&X{.=X<X&X#XB.+X#X'.&X<X' ` ` V.' ' [.` V.` Z eX].",
"C.[.d .XP.b a M.N.b f.P.;X;X8X;XS.P.( b d.E.2.p.d.f.H.I.f.d.).4.~ R.c.<.^ ,.<.&.: * Y : % > 8.1.: $., <.7.% & X.& T * X.X.: T Y T $.$.4.^.K.x.4.1.<.b.v.5.l.p.d.8XA.R.0Xx.n H.gXJ.A.S.a.P.9XI.P.H.U.p.x.oX:X8X5XE.gX9XaXE.Y.y ^.I.8XiX*XyXmXvX8X5XA.j.j.P.I.;XE.c.aX6XI.H.J.i.^ J.f.d.2 w S p.- - n aXoX) .X[.J J C.J Z p + p p + f N.s H l F.oXa.oXG p w @ @ # @ q # } r H pX@XH S s oXn.Z Z z G 3 4 + G |. Xn.a.Z 3 | &X3 3 f h @ m Z G n.{ l f l eXH n.2 S n.a H.oXC.@X,X'.&XB.' {.{.=X=X=X'.B.].{.].[.J C D.[.[.+XV 8 8 '.uX",
"H Z A j mXoX7 7 z N.N.M.oXoXM.M.oXM.A j.E.^.qX0Xk.f.f.H.H.p.3.(.g.^.l.z.R.y 3.<.Y > & o o $ ! ! & T * ; b.y ; % T T =.Y Y $.& = & T o.$.$.1.u ,.x.5.4.l.4.l.9XH.5XwX^.!.E.P.P.9X5XA.H.I.Q.U.H.s.3XhX5XrXiXzXiXfXgXgX5XaX0X7.v.5XI.I.8XN.C.N.8XgXI.P.A.P.oXE.2.z.^.0X5XI.x.3.K.E.x.2.2.r h d.gXE.t c HXCXrXS.'.J Z '.[.F V 3 f N.Z.w  XG n.p p l 2 2 Z Z z w @ e z @ @ @ @   } @ w # r 2 # N.C.f eXZ 4 f w S S H.n.4 + 0 iXG n.2 S # H 3XH n.a.z H S G @Xa.Z s f @ ) H.n.n.H G +XD {.=X' {.<X<X].=X'.[.].+X+X+X].V.V.[.n.G g V.,X",
"B.Z f s s z 7 @ 2 S  X@XH.S.8XS.N.gXaXJ.j.j.0X9XH.H.n H.d.i.2.x.6X2.,.0.4.2.c c.7.; ; ; > ; > , * & = o > u l.i Y T : , , ! T >.+.T : $.; > :.,.d.H.l.1.l.c eX&XH.H.p.p.oXrXoXoXoXH.d.f.5XQ.I.oX3XpX3X@X@XvXrXgXsX8XrXrXaX/./.E.I.j.5X6X5XI.gX8XaXJ.s.( s.d.g.4.v.p.8Xf.l.2.6XP.J.5XH.z e G.hXI.r # 8XfX XC.5 J @X@X'.uX Xd p S n.p V. XC.H.a.n } a.p H.S f.z oXs.m h # @ @ 9 # s.} r m a.f { {  XC.S.C.+ z S p f 9 3 4 f l { @ w s 4 + 3 Z l n.n.n.N.G G n. Xp p 2 a a.C.@XC.#X' K ' H B.+X+XV '.F ` ,X,XmXzX+X` ` M.V.[. Xd &X",
"J '.G Z f a j ) n.N.H. XH.n.@X@Xd.gXgXqXA.n a.H.H.oXf.f.d.J.x.i.( i.x.,.v.g.3.j.u y y W > ; &.! T * I o.Q u c - : Y ! 8.> ! Y T I Y $.$.$.% > ! - &.q.; %.d.eX=X3XG.f.H. X[..X:XH.H.gX5Xd.I.oXeXXXXXeXN.a.h aX6X9XaXH.kXFXfXwXgXsX;XA.;X;XP.CXsXJXJ./.K.H.^./.g.<.c x.E.^.K.I.H.I.H.S @ # } U.f.t @ @ a d G 3 L eXV.8 B.C.C.w w z d H n.H.d.f.f.n z  Xz 2 m n d.@ s z F.S f.r r M M s.z } Z.pXS 4 a.sXZ # {  XC.C.C.n.+ 9 l { p + 2 # p s l s # s l s { G w C.@XZ n.p f B.&X].K D d V ` V.` ` V.[.) V [.+XJ >XmXmX XV.S.V.zXJ ` ",
"H B.C.fXC.a.C.) C.C. XC.oX@XH.oXI.H.i.;X8X;XoXH.N.A.A.E.aXgX5X;Xd.f.2.g.K.2.E.j.J.u Q &.W , & 9.9.;.: % Q y y Q Y : T , , 8.: X.X.$.& -.q.> Y 8.I T & ; 0.2.8X3XG.P.N.oXyX].` C.[.iXfXgXoX@XiX@X3XnX8XH.8X5X^.^.I.I.rXmXzXoXj.R.aXgXP.;XE.P.8XP.E.c.c.qXp.f.J.i.7.g.3.x.x.H.oXH.J.H.s s @ h [ r M n 2 G Z f G N.G n.3 4 Z G S 4 S Z f p z c t q @ S @XZ w z t n d.z z N.a.n S z @ @ q n @ s 3XZ.} N.M.A l H p 0 J f { f s 9 a. Xw # f C.N.oXG.m s.{ p n.n.3 a  XC. XV B.B.*X{.K D f S.V.M.V F V.S.:XC ' [.C.' >XLXrX.X,X` '.[.N ",
"].#XeXH n.S. X XN.C. XH. XfXoXA.H.s.s.rXsXoXa.oX9XP.J.J.E.c.K.H.d.p.2.g.c u j.3.~ y ; : 8.1.! &.: T , % % ; i , Y Y $.q.! , : $.: Y *.% %.> $.X.+.T :.4.x.H.H.H.P.f.G.@XzX&X@XH.n.oXH.8XC. X X&XnXeXiX@XrX9XaXmXmXmXmXiXvX8X2.g.gXCXaXE.gX8X5XaX6Xc.Y.(.(.x.E.;X;Xc.l.c.K.A.p.~ y 3.f.w @ @ q # q } n.Z.@X3 f s M.8Xn.G S a.H.H w z  Xz @ t t a.S 3 Z C.P.@ # t z 1 @ H.d.@ d.z e n z n h r s S 3XmXA G z # 2 J n.f f z w S a.S s 3 z N.N.w G.} d.a.2 a.eXG ` n.n.` n.H B.yXVX=X'.G G [.) F G F d D.' V V. X[.1X.X) rXV.F [.<XJ ",
"=XZ.C.f f Z  X@XS.n.n.oXC..XN.( C.:XeX@XXXH.a.a.gXJ.3.~ g.u t x H.H.x.p.p.i.u u < Q q.Y -.q.y ! &.! / y > , : : : : * : -.! : Y : & T -.v.1.: & ..-.v.Q.7XXXiXS.Q.3Xa.XXyXeXeXoXG N.rXaX[.&X[.'.vXnX3Xa.8XHXvXzXzXvXFXrXH.gX~ p.gXmXCXsX:X;X;X8XoXJ.R.W.3.R.J.aX;Xi.4.l.H.A.J.<.&.0.H.n b @ # @ q h #XH |.a.) 7 @ a.8Xf z { Z.h @ n s @ @ t d.C.{ N 4 p S @ @ - r @ 1 z oXw z e q d.H.@ s 9 9 m { 8X+XN.s h { XXG C.N.A N.8XN.a.C.H.s s w @ r h s a.S n.C.n.@XC.B.Z H J yX&X=X*XjX[.F F V.F ` J C a A V ` +X>X}.M.M.) M.V.H zX*X",
"J J V.V S.A M.) C.f f n.oXa.) iXeX8XsX:XoXP.H.f.j.j.3.x ~ 3.g.g.n f.K.d.p.j.u u 7.1.9.t.: $.i %.q.8.! y t - y Q ! , &.: , $.Y T : : $.; $ i $.Y > %.(.p.H.H.H.oXF.3XpXXXpX3XH.5XrX.X;X8X;XoX[.@XcXcXiX8XrXvX@XB.&XkXGXFXz K.fX.X@XuX&X<X<X,X;XE.H.;X6X6X6XwXH.E.qXK.x.K.I.d.^ 3.i ~ x q s N.( f.- @ { | p  XH.f Z 4 p @ s z r @ @ q S @ q e z S eXZ p + p I.I.z e r M @ m a.e d.K.z d.S S a.9 w G .X@XH.P.S Z.l B.#XG C.Z G C.C.N.a.z z s r 4 2 f l s N.{ p j Z Z G Z B.&X'.{.{.=XB.` A V A ` V.sX.XdX` V V.rXS.d ) A V V.V.'.#X",
"&X` &X` V.F N.S ) n.C..XN.P.S.iX8Xa.S.N.;XA.P.fXfXaXJ.( j.g./.gXE.2.c z x 2.^ ~ 7.Y.T.:.-.Y , % q.8.<.u g.u K.~ <.! ; ! &.; -.$.Y ! l.4.i b.q.9.-.$.e.v.U.f.G.7XG.H.pX@XH.f.s.N.eX:X:XP..XS.V.B.eXiX XoX:X@XpX@XC.+X#XMXmXrXrXyXFXnX&XjXjXzXsX8XrX8X;X8X6XaX6Xj.^.6XA.H..Xs.g./ 3.x i.n z 2.<.0.4.t q H.L J G G N.C.S w z c [ u S l f n.w a.a.H.n.G @XC.3 } 2 q q f.z e z w d.f.q z s z z { a.S C.@XH.z H.N.z l B.,X Xf j s z n.8XG.H.f.r w l z s G 4 Z.N.s C.M.S s Z B.B.B.{.K B.N Z .XS.rX[.` rXaX,XV.V.F V.` ` D.,XS.a V C.C.",
"G f V [.d  X+XM.n.G Z H.a.H.N.) oXM.S.) A.( a.P.9X5Xn J.E.J.p.J.2.t $ - $ t c.g.c.g.T.q.&.! > $.! ! 8.,.,.x.p.u 3.! > %.Q & : $.%.l.2.^.K.u 0.%.:.-.~.!.v.Q.0Xf.2.oXiXeX3Xf.H.&X Xn.:X@XS..X,XkXeXeXeX Xn.&XkXvXeXeXkX@XiXMXmXxXmXkXyX&XmXmXrX:XvXeXrXgXrXP.aX6XE.P.8X1X.X8Xg.1.j.i.j.2.3.<.Q %.(.,.- h | H D Z.G n.S @ @ c - ,.XX|.#XiX3Xn.oXC.F.C. X Xz { s z 2 z z # z # r z z z s @ G  XH.S F.XXs f f G f n.J ` &XC.N.w s s.P.H.} } w l C.a.9 { C.{ eX Xn.@Xn.f 3 g Z '.yX'.H V j S.mXmX+XA j M.+XV.[.` V.' [.` F F 4 V A Z ",
"eXC.[.+X.X[.V.M.G A C.) s.( M.:XS.M.M.N.a.M.A s.H.H.a.N.8XI.J.h e t t t / r J.d.c 3.c.Y.q.! Y -.&., % Q p.x.2.5.,.: : 4.%.% T &.u K.x.I.fX9Xv.0.0.~.(.,.f.^.Q.d.5.H.eX8X3XP.C.kX,XB.B.V.` [.C.iXeXeXiXeXiXiXyX&XyX+X<XkXkXmXBXMXBXkXyX#X<X#X&X,XyXuXCXsX;X;XH.aX8X;XE.D.D.6X~ o / W./.R.3.c.E.6XE.c.u c n.B. XH ( w s s h d.c z  XB.&XC.N.3XC.C.{ n.a.{ a.oXrXeXS @ z q e z @ @ 9 s 2 @ f 8XH.z { 3XZ 4 N.H.n.@X,X[.n.eXrXs S N.} H.P.h z H.n.n.9 2 G H g B.8XN.N.H 9 G p J J n.F F G ) S.S.[.M.A F ` [.` V .X>XC V.+X[.C 4 A a.",
") n.) V.}.+X,X,XH..X.XA H.8X.X:XH.oX) H.:X:XiXH.s.N.oXH.H.h A.s.b x ~ t / i.i.I.3.3.~ 3.y ; $.> i Q , ,.x.t [ [ <.o.= -.%.* X.! 1.4.p.n 3X5X0XK.v.p.K.^.x.d.H.s.d.f.x.k.oXiX@XiXuX&XjXJ +XuX,XiXiXiXnX@XeXiXkX&XyXyX{.'.kXkXyXjX*X=XKX+X<X*XjXxXjX#X[.zX.XM.H.;XaXqXwX/.qXwXD.j.R.E././.E.J.;X;X6Xc.z.(.d.S H.f.f.f.w S S N.a.S a #XyXZ z S H.n.C.n.a.G C.a.n. XN.@ r z M m M q # q z q S N.Z z p f oXa.G G G rX&X+XC.n.a.S @ s H h S s n. Xn.n.z 4 Z.4X5 L C.N.G n.{ G n.n.f n.C.` ` A A a S. X[.V.,X+X+XD.>XCXLXHXd 8 ` C V ` ",
"` Z n.F :XrXsX:X8XsX}.A .X8XrX:X:XN.) sXmXN.a.C.( b H.H.oXN.a.;XP.j.^ i.x i.j.i.c.c.c.3.Q %.<.%.y i ; Q x.p.2.$ ; % = -.&.o.Y ! $.i 7.p.e m 9XI.k.f.x.d.2.d.d.G.rXK.x.5XrXvXeXXX,X=XyX=X#X,XmX8X8XrXFXoXrXiXkXyXBX=X<X'.&XjXjXjXMX{.#X'.=X=X<X&X<XMX,XzX:X:X.X:XP.qXW.W./.gXaXdXgXqXE.J.8Xj.I.fXS.E.c.4.3.^ x J.d.f.s M.G  X Xf ) mXeXa.N.H.S @XC.@XZ S @Xj s a S a.c c n m z } s.S G.z e z d.s S G 9 S z p H.@XG C. XA S H.C.w l z S H.H H |.G @ + 0 pXH n.s H @ G XXZ G C.n.` +XF V F j sXsXS.V.V.LXmX) ) ( ( >X4 + V C ` V.V ",
"[.V ) M.rX.XM.S.rX.X}.) .XM.,XV.:X XH.aX:Xa.M.S.M.s.) :XM.s.oXs.P.9X;X6X8XE.] / ^ ^ c.j./.3.P 1 1 - i u l.l.x.- %.$.> i 1.%.i i $.-.~.).l.p.0Xf.5.f.z p.I.H.H.P.H.k.2.x.H.a.eXiX&XyX=XjX&XoX9XJ.^.^.d.P.rXCXiXmXKXkXzXyX=XkXmXjXKXkX&X+X<X{.yXuX].'.#XzXsX.XdXsXE.j.c.W.qX;X8X>X8X8XgXqXgXgXp.H.8X5Xx.~ c.E.A.M.s.N.H.n.f Z n.G ) .X@X XC.Z H @Xf S @ e H.M.s A b s.c c e d.e n S z m z z z n e z N.N.oXG f Z  Xz { N.C.H.H.H.G a. Xs j { G s l p 3 4 g L { + w f 4 + s Z G ` V.V F n.M.M.zXrXA a d [.sXS.:XS.7 a A a V ` +XZ N ",
"F Z V M.P.rXS.) A..XS.+X@XS.rX,X+XC..XM.N.H.fXmXA.] M.;Xs.s.S.N.5XaXoXH.;XE.E.j.R.g./.gXE.wXi.e p.4.,.v.Q ,.z.i 4.4.- [ 4.v.4.> , 9.&.~.(.3.2.x.v.U.x.x.p.5Xf.H.f.H.5XU.f.K.H.@X&X=X&XMXnXrXx y c.^.x.j.d..XsX,XmXnXeX,XxXxX=X<XNXjXkX,X<X{.{.uX&XjX=X` zX>XrXCX;XD.W.2XdX;X;X6X6XwXwXgXqXaXgXJ.oX8X9XK.j.j.:XeXoX:XN.A H. XC.8XeX Xn.G H a.C.|.a.S a.( s.P.s.( _ ^ t t x b z z d.z e z z z d.z a.) z a.9 f s { m l l 3 S C.n.G C.) A z G  XC.C.C.Z.+ 9 l S p + 4 # s Z n.G G V.J ` rX[.V.) M.M.r A ) M.[.V.` C sXLXsXf 8 A j F ",
"[.D.S.M.P.S.S.>X;XV.` #X+XrXS..X+XV.B.V.V.+XsXmXM.S.S.S.rXoXP.M.N.oXH.a.oXP.j.6X6Xj.i.FXaXA.8XI.f.c u %.&.&.Q y 5.k.n Q i 7.<.! X.Y &.4.4.> $.4.k.0Xx.x.t ,.x.f.f.H.3XrX9X0XI.n.#XnXnXiXrXJ.2.y Q g.g.J.i.j.8XrXfXvX@XmXLXGX&X,XxX*X<X=X{.=X{..X[.,X'.` =X#XB.eX+XrX>XrXrXrXS.sX8XrX:XCX6XE.aXgXeX.XrXfX9XH.A.N.@X X3XeX@X@X8XmXGX@X3X Xz H.pXC.n.H.H.H.S s.a.f.P.a t 3.v.u c i.5Xz n J.^ f.f.a.S Z.a.Z.l 2 l s s s z a. XN.Z.g G oXS z Z 9 9 G f S z e w N.XXw + z C.C.V.F H ` ,XV.M.n.M.[.j ) ) ) .X:X+XV +XM.r fXaXj X X 6 8 ",
"C rXM.) b _ >XD.D.D.[.uXG :XM.M.S.[.+X,X,X[. XH.H.P.S.A.A.s.N.( ( S f.a.oXoXs.x i.i.J.wX8XA.9XoX8XK.g.&.! ! %.&.c i.i.l.%.&.&.$.* o.$.i 8.*.* -.K.Q.H.K.4.5.0XI.f.s.N.H.f.K.I.oX XeX#X XmX;X~ y $ u K.K.K.0X^.6XfXmXeXiXiX@X:XiXMXjX<XjXyX,XuX:X+X@X:XuXuX,X[..XuX,X+XS.,X+X:XrX.XuX[.dX>XP.P.fX:X.XH.rXCX8X;XP.S.N.a.XXeX XZ.C.pXeXz 8XS G iX#XC.S.z S f.f.H.oXP.f.J.K.qXx.- 3.gXI.z 2.t @ n H.H Z n.N.z z N.C.a.a.z S.n.3 H H 4 a.n.N.+ 9 n.G f z s r S a.Z f w S n.n.f ` B.G ` ` S.C.4 [.V.V ` j A [.` 4 V. X) A d ) j 8 d V ",
") ) M.) D.] qXFXHXdX' rX@Xn.S..XkXnXyXeX+XC.p ) M.j ) k r h b e e e n s.S.a.P.s.( I.c.W.E.s.H.s.gXJ.y 7.q., , ! p.( A.4.! ! q.-.: : T & Y ..* $.K.p.^ /.v.2.x.gXaXH.^ E.wX0Xf.S S.@XnXyXCXfXi.2.t r t I.I.x.d.x.;XoXaXaXaXS ;XH.+XkX&XyX*X&X+X+X[.rX[.F :X:X.X) S.D.S.M.D.S.:XvX[.,X,X+XrXCXP.rX;XA.P.A.;X;X8X;XH.5XP.N.oX8X@XcX#XeX Xa.z f f #X@XN.n e d.d.N.G.H.J.5X8XE.E.p.g.0XwXE.n i.n e s.n.n.H l a.G.} S s w s a.z z s Z.f j z z l Z. Xf + a.S N.8XS.{ H.G.z f p Z Z G +X[.S.` ` ` [.+XS.M.V.) A V.K V.M.V G [.,XF d F +X",
"' V M.A b j.aX>X:XdX[.[.uXG ) ` &X#X+XC.H.A A ) S.s.b ] A.E.6X^ ^ e n i.A.) S.P.P.E./.j.j.oXN.H.H.j.~ 1.q.! , &.p.d.P.~ %.Q z.T.q.: : : T * $.3.j.^ i.K.0Xg.J.d.i.x J.^.I.gX5Xa.H.H.iXuX:XmXp.l.x c b f.d.A.f.c c c.K.H.gXaXgX8X@X@XmXyX=X=X[.&X{.` [.+X[.].+XM.M.>X.X>XM.+XeX[.uX:X.X;XgXA.I.5X6XA.8XaXJ.P.;XA.s.A.H.H.H.P.N.yXvX@XXXz S n.f f z z e r n s.H.XXA.d.d.d.d.K.^.x.v.^.0XJ.@ z h N.Z pX@XH m e s.S 9 } z w s N.a.z N.H.oXn.S n.l p Z a.n.z n. XC.N.} z z z G @XA Z [.@XV.,X` V.CXsXM.M.) j F {.F +X` F V.B.F F j .X",
"' j 7 A 4 a aXS.) @XuXF F  X[.` N C.n.s ;XN.M.8 M.( s.i.E.D.s.J.J.i.^ d.N.) s.P.8XaXgXJ.P.8X;XH.5X6X~ t 1.! Y T ,.d.H.J.l.x.g.7.~.=.T T * X.! ^ g.i.c.g.x.j.f.I.5Xz d.5XP.3XhXd.H.P.:XHXsXoXf.2.u t y i.J.i.p.t 1 4.c.c.9X9XfXiXvX@XeXkXkX=X#X&X&X{.yXKXxX#X[.;XM.D..XD.S.:XzXiXrXmX:X:X5Xz P.mXaX5X8X8XaXP.P.I.P.A.H.d.d.n S n.|.eXeXG f  XF.f z z d.x.H.oX3X@XiX8Xf.p.K.5X5XI.p.g.K.K.H.q s N.G XX@X{ s.n S P.m z d.z P.a.a.a.C.a.G @Xn.l Z f w N.z l Z G n.8XG.G.a.f Z iX+XG n.a. X'.F ` sX.Xa a.S M.` ` ` [.M.[.V.n.V p s + ",
"f f M.M.7 7 ) sX@XH H [.8 n.S.' F A a A N.M.S..XM.s.( j.j.J.( b ^ i.^ P.8X.XP.P.aXP.6X;XoXoXrXoXP.H.2.,.Q , & : e.Q.H.d.2.K.^.0.& I #.r.>.T Q n i.p.x.c.j.J.x H.9XN.oXeXiXN.d.p.J.8XrXrXiXaXI.p.T.&.> l.J.R.(.&.P , Y.R.aXmXFXFXGXGXyXyX'.KXyXlXxXxXBXmX&X&X XP.D.j.s.D.S.@XzXmXS. XiXiXeXiXH.iX5XI.;Xd.d.E.E.I.E.H.H.a.s.f.n H.#XpX@XXXH 4 oXZ.H.n f.I.3XoX X'.B.iXfXf.p.0X8X8XwXx.c.x.K.e h Z.N.n.XXN.w } r l a.s N.S a.n.n.n.H.z p f { l G n.s n.F.f G N.N.H.H.S C.C.C.C. XC.H.@XM.` [.[.C.M.C.V..XM.[.V.F ` F f C.n.a + 4 7 ",
"j 7 + 7 j ) M.) G B.g n.:XfXrX1X` :XM.j S.P.A .XoXH.s.s.^ ] s.A 7 b ( ( S.sXoXi.P.aXgX:X.XoXH.H.s.oXi.g.<., * : !.;XP.i.c.4.7.-.T = ..+.+.:.7.I.5Xj.2.p.f.9XH.e S 8X8XeXiXoXf.v.j.A.A.8X8XfXmX5Xz.&.1.c.j.E.Y.9.> , g.8XsXsXmXfXGXkXkXMXkXxXKXKXMXxX&XBXMX@XoX6XD.] A.D.M.+XzXiXS a @XiXH.mX X` 8XI.H.6Xj.R.^.K.K.oXvX X) oXH.4X|.Z. XN.Z.S h z c c s.;X.X X'. X#XC.fXmXz x.H.x.^.R.R.^.p.f.f.G.8XC.XXXX} h w  XZ S N. XN.) rX:XoXZ 2 F.C.Z.{ G C.|  XpXN.N.H n H.H.H  X@XB.G G .X8XM.a.:X X@XM.F V.C.+XV.,X,X.X,X) V.S.A 4   + ",
"@ @ 7 a D.M.A A V M.[.) :XHXCXS.V ' .X:XM.S..XsXS.b 8XA.j.A.M.A M.b a.a.) 8XP.I.;X;XFXGX,Xn.H.d.N.8XH.x.7.q.-.$.,.;Xj.c 7.%.% : q.T O I = : 4.5XG.[ p.x.H.8X6XJ.d.oX8X X@X8XJ.,.d..XsXsXS M.S.sXj.J.2.P..X( j.7.8.y gXaXsXeXmXFXiXkXmXmXKXMX].BXxXkXyX&XkX XP.K.i.] s.D.S..X[.vXfXN.oXrXH.I.mXoX8XI.( J.6Xg.g.,.v.I.oXeXN.@X8X|. XC.iX} m S q @ t x.s.S. X&XZ.J C.B. XvXfXd.H.K.p.qX(.g.^ c f.h P.H.Z.oXXXa.F.nXiXS.N. X Xf f M.f oXa.S G G N.L H J 0 s Z.{ H.n.9 S f J [.G C.C. X8X# ( A G @XeX[.S.A .X,X` F :X:XF V V.C.4 + + ",
"4 X 7 :XS.j j M.A ) ;Xh a S.A.j ) ) A.8X.X.XsXmX.X( H.A.) M.S.( s.S.N.P.oXf.j.j.I.gXrX.XS.8XP.I.s.s.j.c.<.<.! ! < ~ ~ < ; : $.:.v.o.+.r.I * Q n k.c 3.3.K.5XK.j.I.rXnXvXrXI.J.n oX XeX8XN.H.C.@X:X8X9X;XoXH.5X/.l.j.rXZXvXfX8XfX4XLXGXxXMXyX#X'.@X@XvXFX@XeXS.A.D.D.D.) S.S.@XoXvXGXiX8X8XN.fXfXj.J.H.A.P.H.j.p.^.I.H.I.H.oX Xn.C.G @Xn r n z r e I.5XeXeXyXxX=XC.C.'.n.iXrXH.N.p.g.c.^.p.t t @ n H.a.a.n.@X@XpXoXC.Z a.F.a.z  XG w S z w H.H.p J kXf p Z F.@X4XZ N #X` F n.'.eXG oXF.G f A .Xn.[.eX X) [.[.[.[.A D.S.M.F 8 7 2 ",
"` M.V .X XV.eXS.M.) a 7 r ) ) .X) j ( A.P.S.sXGXS.b ) M.P.S.:Xs.( M.:XN.z a.P.b d.5XmXaX.X.XP.s.) oXH.K.R.t Q ! y t y Q i % Y t.%.: X.>.>.-.Y.H.^.v.! y i.P.n ^ H.rXiXeXd.I.9XP.oXsXvXvXsXH.H.#X8X.XS.H.@XeXP.E.5XrXrXmXvXzX@XiXGXcXBXkXmXmX&X&XiXeX X@XyX[..X:XA A ) M.:XsXvXeXC.8X8XH.P.d.oXrXj.c.A.oX8X8X5XJ.I.j.i.I.I.H.C.N.n.A N.a.r n I.d.q n 5XrXyX&X*XxX#X'.'.|.#XfX8Xd.j.c ^ R.2.t d.z } m s.N.{ | Z. Xn.G G f a.F.{ Z N.a. X{ h m H.l g @X| { n.G Z. XeXG C. XV.@Xn.@XF.N. Xa.M.G M.V ,XmX XM..XV.,XV.[.M.F V.8 7 Z ) ",
",XS.p `  X.XS. X) b j A ) M.) S.M.A A b A..XM..X( 8X:XD.uXrX+X[.M.N.M..XM.S A z S S H.rX:X8X:Xa.A.S.A.I.E.g.c.1.<.y - t > > % Y ; : $.;.R * <.H.K.8.* $.4.F.H.d..XiX8Xa.K.5XrXrX@XiXiXeXoXN.N.H.@XeX.XC.V.G oXs.8XsXvX&XkXGXiXyXkXMXMX<X#X'.n.4XyXkXyX].{.uX@X[.V.'.+Xn.C.eX4XiXrXH.9XaX5XgX5Xd.J.2.J.8XoXoXH.P.6Xj.J.2.H.I.oXN.n.C.eXXXrXz w s.e @ oXvX@X&X*XcXxX=X=X'.@XiXrXH.j.x.R.x.c e z z } H.G.l H l n.n. XC.3 + C.8XS Z s H.G w s s S Z f p l a.4 3 l n.H..XA n.n.G 8 f G a.n.N.n.A ` G d uXiX+XV.S.,XF [..XM.` ,X[. X@X",
"F [.V Z @XeX XC.) ) z s..XM.,XrXS.A ( ( b ;X:X) E.gXGXZX[.&X@XuXS. XM.G rXZ G S.a.S M.N..X.X.XmX8X) z ( a.j.g.&.Q u t $ y > *.=.$.:.9.! R X.7.s.g.-.>.$.R.oX3XI.H.8X3XG.I.H.:X:XeXvX,X+X@Xa.f.P.iX+X[.@XeX#X XrXmXuXMXZXeXyXkXyXKXMXKXZXGXkX&X X&XBXMXjX'.J &XmXmX,XkXnX&X@X XG I.H.f.6XJ.f.P.H.d.d.;X:XoXoXoXA.I.K.j.p.j.;XP.a.n.a. Xz N.} w h e e d.rXpX=X4X&XxXlXyX=XB.Z.8XH.H.i.K.^.x.f.e e r f.a.} a.3 p H s N 3 s M.@XN.@Xj s n.f 2 z e s 2 w p G z + f G s ) S.) j F ` n.G 3 f ) :XV.) M.7 + [.+X+X[.V.,XD.M.+XV.[.n.Z ` ",
" X&XC.j N.N  X XS.) S N.N..X.X,XS.A.M.( A.gX8XA t ;XCX1X,X+X@XC.+X+XV [.[.[.` [.M.S M.:Xa.j M.CX8XA.oXrX8X6X<.1.7.3.u q 2.< ! & X.o.! ! U +.q.p.2.Y I T g.N.XXoX8XoXiXvX@XeXiXiXvXkXzX+X.XoX5Xs.oXsXiXeXeX|. XiXuXiXmXnXkXkXvXZXzXxXzX Xn.iXmXeXkXkXuX,X Xn. XkX@X` J vXrXeXrXN.H.I.d.d.s.H.oX8X8X5X8X.XH.s.d.j.5Xj.K.j.j.H.b S s.H.a.# # } @ 9 # z S N.&XB.&X].K xXmXkXiX#XiXiXx.^ x.2.p.d.2.d.n z z s.P.s Z XXn.B.C.G z H.S n..XG Z S N.a.a.a.S r s S  XG l G H.S.M.) F V.#XC.G Z S.C.` F [.,XC.Z V S.[.uXuX+XD.:X[.B.H H 4 A ",
"yX#XG Z M. X|.iX X:Xa.j A A ) M..XA .X( ( ( ;X) 7 r ) [.,X+X,X,XC.,X[..XrXuXrX,XS 2 j s.j 7 A.8X;XgXHXHXrXz ~ < y ~ x.e n c.8.& : $.& ! +.O T g.x.! ! 9.l.a.H.oXoXgX8XvXmXeXH.pXvXnXuX XN.8X8XC.8X@XzXiXiX3X:X,X@XiXnXiXmXZXmXfXrX:XS.P.rXoX@XB.iXvXS.S..XC.G '.` n.n.n.oXa.8XoX8X;XE.j.d.H.oXcXrX8XmXoX;X;XA.5X8XH.^ j.5XH.N.H.S s.z 9 @ 9 @ d.M e 5XeX#X4XkXmX#XB.'.'.C.C.M.oXJ.c.x.K.x.c c e n n z e H.N.G l s n.G 8XN.w M.H.N. X` n.oXz z H.S w Z.G n.a.{ N.C.S.[.)  X@Xn.#XC.G C.'.d F G G n.M.G F A +X,XrXF ` J #X#XmX+X=X",
"&XV. XC.G G Z &XeX.XM.A a a.a.) A ) h A j s ( S.a ) .X+XV.[.+X&X[..X.XS.j S.:XM.z j 4 S.8Xr @ ;XP.aXmXmXCXs.p.u r l.~ 2.n t ; -.4.! Y % * T : 7.K.c.4.3.x.f.N.iXoXH.d.N.@XC. XiXiXkXvXvX.XrXeX@XiXmXkXkXvXvXuXmXnXiXiXGXjXmXmX;XdX8XaXJ.D.S.uXmXiX+XS.S.] @XkX&XC.G G  X8XrXoX;XP.;XE.d.p.N.a.4X8Xa.rXrX8XH.;X5XrXI.5X^.c H.a.C.S z e d.z q q c m oXoXiXkXyXcX=X4XyX@XH.H.H.H.H.H.I.f.d.H.5XI.d.j.d.n e z H.N.3 f n.s l } q z z G C.C.f z w S j S a.@XN.H.N.{ G  XeX[.,X+XC.C.C.@XG C.C.'.B.J n.F j zXrXS..X+X,XzXn.eX&XB.[.zX:X",
"uX,X Xn.C.G G &X@X@X:XM.3 7 a h ) ) M.M.h 7 7 j V.` +X[.,XyX+X=XsXoXH.( ( 7 h s a.s.j S aX^ x h ) :XmXmXLXN.n 3.~ 2.3.H.j.- - > 3.q.Y * $.* Y &.g.J.] E.J.x.oX:X Xn I.U.H.rX@XiXyXuX@XsX8XoXvXmX@X&XjXyXiXcXkXmXiX&X,XMXZXmXmX6Xj.D.gXaXgX;XCXKX,X[.` M.M.V.iXSXeX XiXcX@XFX.X8Xs.^ J.E.p.I.N.n.mXXXS..Xa.) C. XmXfXI.E.d.f.n.Z S N.e f.n } r - @ N.pX4XB.J #XyXeX XC.S i.2.c v.K.f.f.H.I.I.oXI.5Xj.x.d.z N. X X@XG Z.n.s z 5Xa.N.f V.n.C.j H.a.S z z N.N.N.S 4 B.J  XuXV. X#XC.rXZ C.+X&XC.` n..XG :X.X) ) :XS.uX) '.&X XB.+XbX",
"&XMX&XB.@X@Xn.eXC.M..X@XA w j a j A S.s.b j M.C.' B. X.X[.F [.uXrX;X6Xi.x s.s.D.A b b h j.P.A.M.S a.fXCX8Xn d.n h h ^ s.2.- $.Y > -.: ;.$.: Y o.$.l..X,XN.x.I.+XH.a.f.f.s.oXrX@X:XS.:X:XzXyX&XMXMXyX#XiX@X X,X+X#X#X+X=X<XxXuX:XD.s.D.S.A.:X@XyXiXnXV.n.M.V.&XlXkXGXLXyXeXoXS d.E.t t x.i.d.oX@X@XS.s.A.( z H.@X@XGXP.d.hXI.a.( j A.n t q d.h e S H.|.yXyX*X=X&X@XM..XH.z x.^.x.2.I.d.N.H.P.oXrXH.2.j.s.S s.rXiX Xn. XG Z S a.C.N.C.Z G :X3 N.3XN.z z s a.:XoXs f n.4 J  X)  XC. XG ) @X XeX@XB.+X.Xj V.V.[.V.+X,X` Z F +XmX&X&X",
"&XmXkXB.#XkXB.G '.,XrXeXC.N.A.7 + ) b s.a j M..XzX@X[..X) ) ` ,X,X.X) x E.gX6Xx r M.a.b P.H.:X.Xa.s a.A.H.s.H.a.A.b f.J.p.u %.; > T X.Y Y Y % : & 7.8XiXA.3.p.s..XA.H.H.I.N.8XC.rXrX:XiXuXyXyXmXKXmX&X&XMXnXuX@XvX#XyXBXuX,XrXCX:XA ) .X.XM..X XyXmXjX[.&XyX*XyXkXyXKXpXeX8X8XI.K.3.g.n j.s..XiX8XN.S.N.A.a.S F.@XiXfXJ.5XH.s.N.z h n p.q n q z 8XeXmX#XNXkX#XC.S.n.S oXI.P.6Xz n fX8XS s H.d.d.f.e e i.N.A V.'.C.V.eX` z s f G n. X X.Xn.2 z Z.f.s s S a.H.H.N.{  X'.V.V.a G  XpX X+ G @Xp '.'.mX:XS.A M.@X+X[.#X[.+XeX,XmX&XV.",
"'.B. XJ Z C.C.Z  XF G  X.XN.b h j H.N.S.s.k 7 ) +X,XM.S.D.) S.,X].+XM.( A.8XH.h .XM.k D.rXA.;Xa.) :Xa.a.S.) N.b ( h ^ 4.~ ~ H.2.Q Y : Y , $.$.0.! ! c N.j.u %.v.rXS.f.P.I.H..XeXoXrX8X8XC.,XmXkXMXcXlXMXGXKXPXnXGXkX#XmXmXmX,X:X+XS.zXrXmXrX:X@X&XkX{.'.mXMXkX'. X|.4XiX|.oXfXrX6Xj.^ f.H.a.H.eXXX8X8X:XN.A.d.( C.H.rX;Xd.P.H.N.S f.t f.z s d.d.#X#XcX&XJ  XC..Xj N.s.S oXP.H.a.Z H.aXH.x.2.f.n H.h q f.P.8Xn.H n.G F @XoXa.S Z G oX@XiXG C.z Z.S z n z a.a.G G { p '.J  Xf H.oX X@XC.Z eXZ.0 [.vXLXsXa +XuXM.G F @XiX+X[.zX,XF ",
"n.B.kXiXG n.uX Xn.@Xn.C.rXS.M.A a.oXS.S..XD.A a ) >X) A .X}.uXmXZXnXoXA.H.A.( s.S.a k D..XN.M.a.n.oX XP.;XM.N.A h r t r ,.c f.A.A.Q $.7.u i 4.i., $.,.N.oXc y 4.oX:XH.H.N.G  X@XoX8Xa. X@X#XyXlXNXxXxXMXSXcXmXkX4XKXkX4XyXeX:X:XuX+XsX>X[.S..X:XKXmXyX+XyX#XcXeXN.rXiX+X XeXeXG 5X5XK.J.H.H.H.3XH. XrXCX:Xa.s.P.F.8XoXd.N.S z S f.f.e z h N.N.oX4X=X=XmXyXeXS.:Xs.s.( q a.N.N.A w ) h x v.3.^ N.N.a.h d.N.a..X XV.,X[.Z n.rXrX XN.M.Z n.C.@XH.w H.oXN.2 2 S N.S Z.B.#X`  XN.:XG n.+XvXkXH '.'.` oXeXC.eX[.[.` [.[.` V.[.zX,X@X&X",
"@Xn.MXmXkX X@X X+X@X X X XM.( a..X.X.X:XzXsX.X) ) ) A A .X.X,X[.zXuX) S..X.X.X.X( ( _ D.D.;XN.n ) S S N.H.s.I.a.M.P.5Xf.c 2.d.N..X3., ~ ~ 1.Q j.8.i ,.} H.oXf.2.G n.a.z S N. XC.rXoXN.8X@X#XyXlXMXMXMXxXkXkX'.nXMXnXMX&XZXuXmXrXGXzXV.+XV.:X X+XmXPXMX#XyX@XnXGXrXS.S.@X@XC.GX X@XH.aX5X5XrXoX@XcX3X@XH.8XC.) N.C.8XH.N.8X( G G a.e @ e # z S C.4X*X#XcXeXeXa.d.J.i.f.s.a.N.C.N.a.P.s.t t j.( a.z N.) a.:XeXeXC.C.+X+XC.w S pXF.S G C.:X[.@XfXf Z H.N.oXs Z N.a.Z yXC.uX Xa.z 3 Z C.n. Xg H C.` ) S [.[.[.,X[.F C. XF F #XV. X[.",
"G '.[.[.C.N n.[.V.V.C.#XuX.X.XH.n.) C.@X.XuX+XV.rX) ) ,XmX.X.X.X@X) f S A .XS.V.P.( @ r >X;Xn s S.H.b 8XN.d.A.a.S.[.M.a.i.2.p.H.A.,.$.7.%.> : <.> $.l.a.N.8XH.N.n.N.H.H.a.@XeXC.8X8XN.N.eX&X#XlXKXMXxX4X#XyXyX XyXeX&XzXvXiX:XM.B.ZXzXF A S.uX@XG C.yXnXnXvXeXmXfXrXiX'.C.#XnXGXnXGXFXgXI.A.a.N.pXSX3XG oX8XC.G G F.iX8XoXs.a.S z z @ z e s N.n.#XkXkX#X@X XH.A.d.j.i.A.S oX:XH.n H.5Xf.z z S C.S z S.a.S ) '.'.f G [. XS 2 z s s s f Z. XN. XA 2 G S N.a.a.C.S f C.n.[.:XN.oX@XZ A Z n.#X|.#X` n.C.M.a V.,XzXrX XC.,Xn.C.n.H C.",
"#XB.n.eX` G V.n.n.n.n.J yX@X@X) s.s..XM.` :X[.+XS.H.) mXuX.X.XS.S.,XN.S.;X.XH.S.P..Xs.h ( P.oXa.H.oXa.oXA.H.I.P.oX X[.F H.x.i.A.H.l.4.7.7.T : ! ; ; v.5XH.K.I.I.H.C.N.oXC.C.C.iX@Xn.8X XC.iXyXVXjXMXkXMXmXvXmX@XC.iX&X,XiXvXmXmX+Xn.` a a S.uX,XC.n.C.eX+X.XC.eXSXmX+XC. X#XLXmX4X@Xa.f.I.H.H.M.#XeXnXXXa.iXeXC.B.@XF.8XP.t s.S @ z z h f.N.F.n.n.mXGXyX@XH.S.N.s.H.H.8XrXH.N.8XH.s a.S H.a.N.H.a.S N.S.S.) B.4Xn.p G S.H.( j A z S C.G C.n.N.S z H.C.n.S a.M.S S G n.G j N.a.@XG ) @XG Z.@XC.,XF [.@XC.[.V.S.[.,XG +XeXV.[.Z [.",
"B. XC. X XV.S.M.N.n.G H @XeX+X.XH.a.M.C.M.+X[.M.G a :XLXCX[.` F V ` V.M.S..Xa.A.j ;X:XD.A.:XS.M.:X:X) .X;XP.P.N.a.n.iX[.a.J.E.;XH.H.i.R.z.c.! T , ! l.f.- i l.J.oXH.S N.H.H.C.eX@X X@XiX&XkXLXIXyXyX&X4X XvXvXvX@XuXmX+X@X.X.XM.uXC.` ) S.S.,XiX XC. Xn. XeX X8X@XcXMXmXzXZ &XMXpX@XH.oXaXN.H.H. X3XcXpXZ.n.yX#XC.|.mX XN.( h ( n n z e 2 F.F.a.G n.@X#XeXa.n.M.j a.oXa.H.oXA.( d.r a.z a.a.{ C.S n.N.N.C.[.J yXeXn.H Z S N.S z N.S.a.Z n. XeX.X@ Z @Xa.f f  Xn.l S Z F .X@XG ) C.H.S.{ Z.n.@XnXyX[.@XmXrX,XS.C.[.:Xf d p f +XB.",
"@X| C.#XH  X+XV. XJ G { pX XC.@X.XS H.S.M.M.` V.J G +XM.z C.) }.n. Xn.C. XN.) N.A A.S.A.) ) a.a f uXyX` S.;X8XH.H.P.H.:X8XA.a.P.M.J.f.K.p.9X6X,.! $.z.p.t v.:.l.I.H.d.N.H. X) G H.rXiX@X#XmXcXNXlX*XkX XM..XrX:XvXiX@XM.P.:XsXmXzXzX+XM.zXvX.X+XeX&X#X,X[.[.[.rXC.F +X+XiXyXkXGXSXGXiX8XrX.XfXvXpXN.H.8XH.@X3XcXeX@XiXiX;XP.b ( d.n t @ + iX+XH.P.n j S.@Xn.G a.a p C.oX3X8X9XJ.n z s z N..XC.XXiXH.@XC.J  X,X'.@XiXn.f S  XN.N.N.n.H.G N.C.#X@X Xf C.G S Z a.G N.2  X[.p A N.N.G a.@XG G #X,X,XmX&X#XeXeX+XeXV.@XeXG S.[. XC.C.",
"B.eX#XH C.eXC. X'.'.f s n.n.#XeXiXn.a.a.A C.` [.V.j 7 j S a.C.V.A  X XZ @XM.S.) M.A w a.S.8XrXA.M.kXGX[.S q S Z b S.S.b s.;XA.P.( g.l.2.n +XCX4.&.7.4.^.d.,.0.,.I.I.5XH.N.8Xn.M.C.nXZXmX&XBXBXjXkXjXvXvX.X.XrX:X@XzXZXoX;XaXM.:XiXrXiXuX,XM..X+XiXyXuX+X[.+X[.[.kXyXuX[.,XmX#XMX&XC. XoX;X8XoXeXoXa.N.oXoX8X X4X@Xn. X8XoXH..X.Xs.t - @ 3X&XoXS A.A.S.C.@X XV ) M.S.a.XX|.mXfXaXE.^ f.f.z 8XiXeXzXeX@X#X XyX,X,XC.n.G z d.s.H.;XN.a..XG n.p H Z.yX#Xp f n.S z S z j  XiXC.C.s z M.2 G M. X@X@X X XyX&X+X` C. XV.@XM..X+Xn.&X` Z ",
"| 4X&X XG n.C.eXZ '.n.n.@X XV.+X@X[.C.N.G ` V.V.d + 8 r S.) j V.S.a.eXS.rX8XoXoXoXa.n.) S.j A .Xn.8 uXC.j S z M.A A..XA.b ) A ( c < u ,.s.].uXK.u v.p.I.fX^.x.p.s.s.oX8XN.oX;XoX[.yX&X&XjXkXSXmXkXMX,X@XiXCXnXiXmXGXLXLX.XS.A ) CX.XS.) ` iXvXmX#XeXyX+X'.#X=X*XlXNXmX{.@XGXpXvX XH.P.H.;X8XA.oX.XoXH.:X@XH.XXXXXXoXH.8X5XoXH.N.( z [   3XeXN.( H..X+XV.C.&X X` b N.N.a.H #XyX@XgXH.d.d.H.a. X@XyX&X&X&XeX@X@XyX XH.G s a.d.N.H.S 2 z G n.3 f  XH  XG n.S N.a.oXH.Z.) C.G S z w N.a.G H.` S.@X+X#XiXyXV.F +XuXsXV.C.V.[.G F  XV.",
"f H  X#XZ.n.C. X&XeXeXC.J C.n.N '.yXC.G j A V [.[.A A k h j A ) M.M.N.rX@XN.b 8X:X X@Xn.n.n.M.Z .XM.` rXS a N..XS.S.S.a.a s j ( i.y y ; 3.) g oXx.p.p.S rX5XK.H.H.N.C.eXeXa.N.d.S.n.#X'.yXkX*XMXNXGXZXvXeXfXrXmXkXMXGXKXZX8XgXrXA H.oXa.fXnXGXGXmXkX#XJ #XBXxXjXxXMXjXyX'.SXvXiXrXH.P.^.J.j.I.8X8X;XP.A.H.H.H.oX9Xj.j.j.H.s.P.a.f.H.I.q f H..XoX+XC.+XeX#X` ,X X) .X.XF.n.vXmX@XI.9XfX8X8XN.n.'.B.iXpXyX#X&X Xn.F G H.a.s z r s j f G H.@X8XZ G B.J #XF.n.H.G z C. XeXZ.s s N.d.z N.n.Z C.@X,X@XvXmX[.eXV.V.>X,X` V `  XG '.&XB.",
"C.G n.iX&XZ B.H '.4XZ.MXvXn.iXuX XiXuX[.` 3 d V.[.d ) M.C D.A M.H.A N.N.P.P.h S A.n. X Xn.@X,Xn.( ;X XS.a.M.a.) a.N.j a.) M.s.b f.i.u % : ,.C.vX8Xf.k.a.S [ f.A.N.H.n.fXpXS.N.d.N.s n.eXkXMX=X*XBXBX@XiX@X.XP..XyXMXZXmXPXHX:XP.s.P.;XN.iXvXZXyX4XnXmX'.'.MXmXxX=XjXMX&X#XJ n.:XgX5XJ.E.j.t ( ;XI.;XI.A.H.H.d.H.^.c.4.3.c.2.( s.N.( N.z a.Z H.rXeX+X@X X X,X,X:X:XS..X XG J nXSXH.H.XX8X@X XC.Z.C. XiX X#X'.yXyXV.f ` 3XZ f ) S. XC.G n.N.n.S s | f n.XXn. XZ s Z a.oXn.a.N.( a.n.M.n.f n.n. X#X+XmX XG d ` [.` eXC. X#Xn. XiX&X",
"C.[.#XB.yX XN f Z #XZ n.@X XC.[. X+XC.[.V.,XZ H ` 8 +XS.S.A M.S.A.S M.M.S b d.f.s.N.n.rXn.F  X:XP.a.j A S.M.M.( ( s.a.H.( s.I.( n x 3.&.X.%.N.kXvXH.d.H.s.f.p.f.H.8X8XC.vXiXoXFXfX{ f |.mXMXjX=XmXMXyXzXfXH.H.A. XmXmXB.kXnXrX8X8XH.S.8XiXFXyXmXGXkXMXFX&X#XKXBXMX*X'.` C.C.S.H.aX6Xj.P.j.K.A.J.H.;XH.i.c.x.x.p.p.c.~ ~ g.g.^ i.( S z S S..X2 a.,X,XiXd   7 M. XV.+XfX@XeXG Z.pXC.z S a.H.4X#XG S N.N. XiX@X&XyX X[.f #XeX XS.a.) n.s G  XZ.a.3XG S n.n.H.H.a.w f N.rXz z oXN.z Z s oX Xn.C.n.@X XV.iXC.B.ZXLXV.,XeX@X X@XN &X+X",
" XC.iXC.B.|.#X'.B.C.eXn.V.#X+X@XC.@X,X X[.+X[.F ` &XuX,X' a b H.H.H.a.S S a.H.H.A.M.N.[. X,X+XC.M.s.8XA M.A a.S s.M.) N.A.( a.f.( d.i.y $.4.8X@X.Xa.H.f.2.4.4.^ f.d.H.#XpXcX|.nXGXvX#XJ kXNXkXmXkX4XnXvXoXP.5XaXS.eXGXLXBXvXiX.XN.a.rXsXeX&XpXMXSXxXMXyX&X'.&XBXKXuX8 j S..XS.) N.;X.Xf.E.gXaXH.;XP.E.K.E.c.4.c.x.p.x.u 3.c.^ d.H.N.a.S n.H.w S V.V.[.A r X a H.S. XpXN.| cXiXC.F.S Z S G H.eX XS.) a.H.N.@XC.) n. XC.'.+XiXeXG M. XC. XS n.f H 3XG n.n.f f C.oXS S H.n.A S.@Xn.M.C.n.N. X XZ M.#XJ n.vXKXGXLXGXV.V.) n.H J @X+X",
"C. X,X#XB.#X'.&XB.G V ,XyX&X&X#X@X,X+X+XV.].[.` +X[.[.rX) ] s.H.H.8XH.z a.S z P.P.s.M.S.V.+X XC.D.b H.) z ) z z z a.j s..Xb s.P.d.f.i.g.<.f.S.H.N.J.d.d.j.i %.4.c f.N.@XkXeXG 3XFXKXmX#XkX#X&XeXnXZ. XH.N.N.x j..X XyXNXSXkXeX.X) a.:XvXiX#XSXmXBXjX'.kXuXzXK #X XA V [.H..Xs._ S.M.P.oX8X9X9X6XP.P.d.i.i.R.g.g.E.9Xp.j.c i.j.i.I.H.a.Z j S a.G G G Z A A.b h A.rXN.H.8Xn.@XC.n.F.} N.S N.Z.{ n.S.) n.a.C.H.M.S a.n.n.n.` C. XN.a.n.C.a.w H  X2 Z n.C.C. XG p a.s oXS.:XZ S.:X@XM. Xf Z C.n.[. XeXeXB.'.kXnXHXLX.XS.@Xn.n.Z n.eX",
"[.V.[.eX4X#XB.yX#X'.V  X'.V.#X[.@X Xf ` V.V.V.F :X,X` ` a N.s.r s.H.8XC. X:XA.n oX8XP.N.S H.8X.X8Xb z oXC.C.n.S b b ( s.9Xf.J.f.N.a.^ 3.4.g.2.x.~ Q 2.( c.*.& 7.x.A.F. XiXeXH.H.oX8X8Xd.;X X#X| #XnXd.A.8XA 7 s.( eXMXMXBXkX XA.P.S.S.ZXmX&XlXmXMXxXkX#X'.MXkX'.B.` n.+X,X,XS.N.s.f.^.gXgXgX9XE.j.j.R.~ 3.x g.K.0XgXP.gXH.^ H.I.H.d.S S Z G L H | H G a.) :XH.( S N.d.N.a.n.S.n.S H.N.S N.H.F. XS M.S.N.S.H.H.oXn.G S.+XC.M.C.S.S z S s ( z a.S z G f A vXC.n.Z.C.) C.H.M.n.8X@X.XS aXoXZ n.uX'.|.yXyX@X'.d zXuX` Z  Xn.@X XB.#X",
" XeXyXC.C.iXn.#X'.kXC.` zX'.` [.|. X XV.F F ` V.V.[.` j j H.S.N.oXoXn.C.z S 8XN.e I.mX8XM.N.H.;XM.j s.H.eX+XM.M.( z A.( ;Xz ( 5Xa.H.i.- < 1.4.0.; , l.H.<...* 3.H.H.H.pXeXoXP.H.N.3.i <.A.eXkXpX XXXP.( N.M.A ) @XkXkXMXcXkXfX;X^ s.8X:XiXkXMXMXKXMXiX,X'.kX<X'.eXzX,X` ` ` w s.fXaX9XaXE.gXaXi.x t <.z.~ 3.3.p.H.I.f.s.9X9XI.H.d.P.d.A.H.n.H Z.].n.G Z C.C.A ` n.S d.H.M.N.S.H.a.S H.( z a.Z n.Z S A H.N.N.a.f.H.H.@XS..Xn.S H.H.n e n f.N.z N.H.8X.Xf  Xn.G H. X) .XfXn..XoXM.) a.z S.N.n. XC.Z C.C.,XkXJ 8  X+X[.n.3XeXn.f eX",
"` Z '.C.f @X'.B.#X+X@XG ,XkX,X,Xn.C.C. XV.[.B H B.V V.) V.a.H.S.N.:X XeXf + A N.a.e H.s.S.S.A P.:XFXa.C. X Xn.M.M.M.N.M.M.) r A.H.J.p.2.3.u 3.<.: -.g.g.! = o.d.I.P. X@Xa.( H.A.H.q.:.$.j..XXX8XoXN.M.` F ].#XeXFXMXxXBXBXB.nX8X5XI.H.aXmXCXiX@X@XS.S.:XzXjX#XyX@X[.M.S.F d a M. XfXrXH.;XgX;XW.^ ~ Q y y u 3.2.f.H.f.S H.rXrX3X@XP.P.S a.Z { N N | n.Z C.+XV N G a.oXrXoX@Xa.H.a.N.S n f.a.S H.a.S S G S N.N.a.N.G a.S f S  XS a.oXn oXN.A N.S S a @XeXS.f Z @XN.H.n.nXn.S  X) Z z M.a.C.S. XiX@XeX,X XnX,X@X[. XC.Z G  X|.C. X",
"#X X'.n.g ,X#XB.MX@X'. XiX&XB.#XeXyX@XV.J J B.B g V.A n.G S.a.M.s..XS.rXN.2 z H.A.b S s.) H.a.) S.CXH. X) f n.Z .X XG S H.H.a.h A.N.S S 8X9Xj.i.$.Y %.Q , o.%.I.A.a.XX8Xa.p.i.d.I.:...:.R.oX8XgXI.( S.n.[.{.B.mXSXBXBXBXMXyX XnX7X5XH.8XP.P.sXeX:XP.:XrX&XmXmXmX@XS.P..XN.n.n.F n.8XrXN..XGXE.W.j.Q 3.<.Q 3.~ 2.d.a.H.fX5XN.mXnXeX{ oXa.f.z f f C.@X@XC.f G M.C.G H.H.a.n.G C.a.a.) H.s.s.N.H.a.oXa. X X) N.@XoXS H.n.H.N.:XP.d.N.S N.S G :XA j rX XA eX:XC.f C.H.a.G ) a.C.oXC. XC.n.) eXn.C.#XC.[.@Xn.&XvX#Xn.V.+XeXB.J C. Xn.",
"H &Xn.yX@XiXzXuX` [.#X X XmX+X#X&X X#X#X+X#XV.B V ` ) M.rX8Xa.S.M.( A fXrXd.n f.A.H.( ) S.S.:XS.S.H.C. XeXg j n.S.oXC.A .XH.N.w S N.) Z n..XN.i.Q , ! Q Q &.,.( ^ z N.f.2.4.3.c i.3.! , 2.I.N.f.J.H.S.:X XB.C.yXBXlX4XjXjXBX,XGXFX8XH.A.s.8X8X:X>XD.A.M.uXGXuX+XV.M.A M.sXmX,X) ( H.;X8XS.rXfXd.j.3.u y c t i.^.I.oXH.rX8XfXH.pX4X|.Z.n z r b a.n.n.N.oXC.s.N.d.N.N.oXM.n.Z C.H.( a.N.A.f.( d.( a.N.S N.H..XN.S.H.H.S.H.oXN.oXa.@X[.j n.G +X:X Xf G G oXM.f H { oXH.z z N.n.vXC.f n. XS.[.&X'.yXeXn.+X[.n.n.4 3 N ,X,X X'.J #XN ",
"J n.[.n.V.C.vXzX'.F ` n.C.n. XzXeXcX#XJ H V ,XuX) d j p H.C. XA h ;XA.P.P.b ( x d.;XA.oX) G V.uX&XC.C.'.iX` J @X@XM.oX.X XH.H.S s.5Xa.) N.M.A.( i.<.1.<.g.3.i.i.j.A.N.H.,.y 4.2.n A.A.x.2.} H.f.p.K.P.8XvXeXcX4X&X=XcX&X{.kX&XmXKXLXeX8X8X8X:XrX.XM.a.` #X].V.[.V.n.M.M.'.xXkX+XA b f.I.rX8X8XsX;X5Xf.r b d.A.oXH.8XgXI.I.H.a.XX|.@XP.a.n ( a.S G n.{ H.H.I.f.H.H.f.f.oXC.n.G a.N.A.I.I.H.d.a.( N.N.a.C.eXeX:X.XA A C.oXC.N.a.N.n. Xa.M.j p [.,Xn.) s H.oXS C.C.C.H.N.N.8XiX X@X@XC.@XvXn.#X,X X X,X#XvXyXiXp 4 V.B.V.[.kX` C.B.",
"#XC.[.) G f Z #XeXkXuXB.iX,XuX X#X&XMX&X` p +XHXCXS.S.z p w H.oXM.oXH.j ( b ^ ^ s.f.N.H.n.f H =X=X'.J #X<X'.C.@X8XS.M.G S.S.:XH.( N.( s.;XoX8XoXd.n 2.~ <.3.i.H.s.M.a.d.0.> Q c.d.H..XrXfXoX3XI.x.d. XoX XeXyX&X&XyXpXeX4XkXyXyXBXGXGXfX;XA.oX@XS.) G J #XB.F S.[.M.n.V.=XyX,X XuX XI.d.H.d.P.I.P.A.I.j.H.rXrX9X8XrXoXI.I.wXH.H.Z.H 8XN.s S z z C.F.n.eX7Xf.H.j.f.f.d.oX XS S S 8XI.a.oX;XP.A.N.S a.@XN.n.rXfXS.oXH.@X@XeX8XN.S.N.M.8XH.S.n.H.f iXa.N.N.H.Z s Z N.Z N.a.f 8Xn.j V  XiXZ.C.G n.f @XiXkXyX[. Xn.V.uX` V.<X[.'.'.iX",
"&XB.@XeX XyXg J kXeXvX@XF B.C.,X&X&XZ.'.'.f .X:XrX' ) S.S ) .X X X,X:XS.M.( ] ] H.H.A.H.[.H ' jXBXcX'.=X#X].{.yXV.` n.n.n.V ) H.a.) M.S.S.S.eX Xx a.a.x Q %.u i.d.a.S.i.Q ! Q K.H.S a.B.iXoXP.oXP.oX:XeX X@XiXkXkXeX X#Xn.Z.lXlXxXkXeXrX5X5X5XoXH.@XG [.N J V.V.,X[.yXBXxX=X&XC.kXMX8Xp.3.j.j.i.5XI.;X9XN.H.XXH.N.oXs.d.p.p.I.a.N.F.C.a.} S n S a.H.Z.eX3XN.a.H.H.5XI.n C.G A a.H.H.s A.8XS.n.a.N.Z.n.S.S S..X:XoXoXN. Xn.n.H.N.oXH.a.a.H.S p a.Z z ) s.rX X{ n.S ) a.@XH.j Z eXG ` #XF.@Xn. X[.J #Xn. X&X[.mXV.eX+X+XB.V.'.&XkX",
"@X#XyX'.<X#XiXV.n.V.Z Z M.C.n.4X#X4X X@XmXyXyX@X` F a V.F j M..X.XeX#X X) M.N..XN.n.Z n.@X XV.F ` B.B J '.'.B.=X+XC.M.S.A H.eXn.n.H.oX XS A.H.H.f.) s.u , Y ; 3.I.N.s.N.f.z s Z C. XG G Z C.C.,X@XiXvXXX@X@XF.@XoX;XoXS Z G &X4XyXkXvXvXrXoXP.5XP.S.G M.e @ @XkX,XB.&XkXkX@X) eX&XeXH.j.g.(.).qXgX8XoXoXd.d.6XI.H.H.j.p.c e n d.3XG.G.Z.z } f.n z H.e Z  XeXa.z G.3XH.z H.eXA A N.N.5Xn H.oXoXa.H.8XH.C. XC.C.eX@Xn.) eXS.a.N.oXF.S a.rX8Xa.a.s S.) M.S..XG |.n. XH.C.j C.@Xa.s eXA  X+XeX X X@XB.&X#X4XiX@XrXC.mX&X#X` V.V.` '.",
"@XvX,X<XmX#X XsXS.z S.n.H.Z.'.H B.&X&X#X@XyXn.'.` G ` V.S.) ) rX+X@X[.C.j s.) N.F.n.G [. XC.C.[.8 yX=X'.#X'.].{.G n..XrXA.mX@Xa.S G  XoXM.N.d.;X8XS.S.j.<.! Q 3.H.a.n N.a.G Z C. X'. XeXC.G C.&X#XC.@X X XeX@X@XH.f.d.a.S C.yX@X#X@XkXSXiXrX5XE.8XS.C.s a.S kXKXxX{.#X'.eXnX:XH.@XN.f.p.Y.Q z.R.K.5Xs.f.J.R.c.J.p.K.K.H.K.c p.z U.I.} H s n H.s.n d.n p B.B.) s h { a. XG @XN.z d.S I.n @ z H.8X8XN.G.F.a.S n.C. Xn.@XrX:X:Xa.oXXXM.A M.S.N.oXN.S.N.a.M.@X@X#XB.@X XC.f G C.n.S +XM.uXA G ,XC.@XyX+XeXmXB.#X Xj C.#X'.mXyXG [.@X",
"nXuX@X'.yX@XG a.sXoXiXH. XFXvXeX'.G C.B.n. XJ V V.` 8 d [.V.F ) M.F uX.Xk b A n.@X XC. X XV.F ` ` vXZXjX'.'.#X#X@Xj 2 oXHX;XN.H.M.+ S.8XoXH.oXH.H. XC.s.H.K.c.i.d.f.z N.a.n.C.G '.'.G  X X@Xn.C.eX@X X X XeX#X@XG.f.f.oXeXiX&X,XuX&XiXvXeXaX9Xd.a.S.C.s @ p  XMXGX,XiXiXiXnX8Xd.A b 2.c 4.7.v./.K.^.j.H.p.p.c.R.x.c p.p.x.p.c x.r d.H.G.f.z z e s S oXXXC.n.Z s z Z.Z.C.Z S.N.S a.b d.5XA.s a.H.9Xf.n oXN.a.S n.C.G C.n.a..XN.a.XXeX) N.oXoXH.s H.H.H.:X@Xn.eXn.V.@X'.+XF @X XG G n. XV.F Z iX` @X,X@X X@X XC.N.L +X+X XiXuXB.@X",
"'.@XeX,X+XC.M.f ) @X Xz p  XC.'.yX#XC.kXeX#XeXB.lXV.F 8 V.V.` S..X` V.C.,XS.@X XN B.C.C.#XV.J ` M. XkXyXG F B.*XiXoXH.P.CXFXFXoX8XN.A N.sXH.N.oXoXC..XeXA.I.H.( H.d.S S H.C.'. XB.'.+X XA n.N. X@X@X@X X XeX&X#XN.a.N.@XoX XuXyXzX@X X@XP.A.9XA.M.oXS.n.) f n.H C.zXnXeXH.d.j.h f.^ c.g.t ,.p.i.c x.^.x.3.g.c.g.u r ^ p.x.j.^ d.x.x.H.9XP.a.n z r w S n.C.n.S a.l eXiXiXeXn.f n.N.P.rXA.aXf.z m s I.I.H.S 7 A a.n.G G N.C. XM.C.oXP.N.h z oXs.N.H.N.S M.H.Z M. XG V.C.iXn.[.eXuX X XH  X[.n.eXiXmXuXeXeX'..XH.@X&XB.C.+X@X:Xn.J ",
"n.V.C.n.@XoXN.z oXA oXn.z f G J  XiX XG @XvX+XV.` V F 8 <XM.+X[.A  X'.n.C.C.C.pX@XC.Z. XC.#X&X&X:Xn.'.<XuX@XiXmXvXiX:XM.N.S a.H..Xa.7 M.C.H. X X8X@XH. XC.H.rXA.f.a.N.S a.@X X@X@X X&X+X@XS.N.n.H. XC.B.C. X,X#XS. X XrX@X:XoXrXnXsX:X;X;XP.I.gXS.oX:XM.N.n.C.C.H.@XN.z z e f.( i.i.~ ~ u c p.K.K.3.E.R.g.R.E.J.H.i.^ s.9X5XI.I.I.I.s.z n n f.z b a.s Z H n.w m G C.C.Z.H eXN.G a.M.A.A.s.H.d.H.oXI.s.( N.s @ Z ) C.n.n.N.a.z N.N.oXP.oXa.G.H.H.S H.a.G H.s S eXG @XiX` [. XuX'.'.#X#X X` ,XeX@X@XvXGXzXC. XG N.#XyX@XA ) z Z #X",
"kXC.M.+ S..X XM.n.n.S Z M.G eX X X@XC.n.n.n.J f V.` ,X+X+XS.+XdXS.G  X@X[..X X,X'.@X@XG ) ,X+X+X@X X].&X[.C.eX[.&XiX XN.N.:X XC.eX@X[.@X#X@XvX@XN.oXZ. XoXC.N.;XH.H. X.Xn.[.C.J C.M. XC.@XC.a.8XoX@X X X+X X X:X:X8X.XeXH.N.N.oXiXFX8XI.P.H.A.;XrX;X:XM. X` n.n.a.N.S f.H.d.f.J.j.R.i.3.c.g./.2.g.0XE.6X/.K.J.E.K.H.A.a.a.oXH.H.I.9X3Xf.z a.I.N.( H.S a.C.Z.a.} l a. XH.S. XeX Xa.S H.f.n I.d.f.k.n b ( ( P.( z a.G N.a.@XC.C.Z N.S..X:X8Xa.N.;Xa.Z  X@XM.@XH.sX@X'.+X,X@X+XiXiXB.@X&X X@X+X@X[.C.iXeXiXiX[.N.G C.G eX.X) 8X X X",
"iX,X@Xp Z rX:XrXn.p ) G C.a. X@XH.C.eX XeXV.[.[.,X+X<XV.V.}.D.>X8 G @X` ` ) ' ].{.B.+XA H.M..XGXvX+X].&X@X XC..X@XC. XoX) oXvX#XyXmX&X'.kXjXxXkX+XH.@X@XpX XH.a.z N.rXeX,X[.V.`  XS. X#XeXeX XoXI.8X8X8XeX@XeX@X( I.A.S.oXn.rXrXsXfX;XH.H.6XE.8X8XrXN..XeX,X XG ( S j.E.2.j.5X8X;XE.^ 3.g.Y.qXc.c.6XJ.g.3.3.3.J.K.H.5X8XH.8XN.oX3XI.oXI.H.d.d.d.^ j.5XN.{ n.a.N.a.S a.oXN.a.a.S.oXH.P.n z f.J.H.f.d.( A.s.a.A.b ) A G G G C. XC.C.N.rX XH a.z oX) n.z H.G 8Xa.fXkXeXf Z n.` n.'.+XuX XiXZ  XuX@XmX XuX+X+XzXeXn.Z.) C.eXH.oXz  X",
"n.f G oXa.a.G fXS.f C.n.S H.oXZ.F.n.C. X@X+X,X+X#XC.[.+XV.V 7 ) S.A [.[.C C _ F +XV.G 8XH.z h M.iX[.'.` n. XN.@X@XN. X.XoX@XiX#X4XkXjX'.#X{.].xXMXn.S.8XoXn.C.iXeX@XrXmX XeX@Xn.,X@X+XvXkXiXeXeXoXN.H. XH.a.S.8X;XJ.f.n s..X.X8X.XP.I.aXJ.6X5X;XP.M.sXzX,XC.M.:X8XP.9X0Xi.i.I.aXJ.J.R.J.3.u c.Y.R.qXj.g.7.R.g.p.p.H.I.8XoX3XH.H.P.N.s.f.G.5X5XH.b f.s.a.a.F.{ m H.G.s a.a.S.( s.S H.f.2.d.z p.x.d.f.z z z b j w a A G S a.a.a.n.n.Z N..XN.a.a.S.8X@XC.N.N.Z z S [.+X:XrXa.oX:X X@X X#XvXeX'.&Xn.iXrXeX+X&XV. XeX XZ n.n.S. Xf p ",
"C.S S oXG 3 #XB.[.` |.3X Xs a.8XpXZ.Z n.3 C.n. X+XH [.B.' ' 5 ` [.V.d F ) C ' 8 ` &XV j  XM.) j S.'.F F  X Xn.n.B.+XN.H.rX.XC.,XkXkXcXlX=XlXjX=X X XN.8XS.N.) F n.) f B.C.B.V.M.S. X'.yXMXBXyXyXeXiXeX XH.f.( P.oXH.d.2.n I..X.Xa.H.A.j.2.A.FXaX5XfXuXzXmXH.S.zXnXmXrXaX9X8XFXfXJ.j.6X0X(.7.z.R.K.9XwXR.< ~ g.E.oXH.8XC.a.H.a.S.k.d.H.d.3XoXP.8X8XH.N.H.oXF.F.F.F.H.H.n.C.S.oXH.f.z f.A.5Xd.d.d.H.;XA.s.A.A a.A j h z j S G F n.G j j oX@XN.) A.8X.XoXC.oXH.oXS a 8X8XrXiXn.N. XC.@X'.@XB.#XC.Z N.S.'.jXyXB.Z oX.XN.N..XZ M.S S ",
"oXH.N.S. X XuX@Xn.'.+ f C.M.4 F.fXeXeXiXuX X@X+XJ J yXB.' {.' =X` +X{.V.V.V.d C ` '.n.V Z M.M.) Z  X&X[.&X#XC.` n. X Xn.M.G ` @XkXxX].K *XBXmXlXB.C. XrX8XN.@X@XA A S.n.G G H.H..X@X X#XjXxX*X&X&X#X@XrX8XH.A.N.a.H.N.A.s.f.A.A.H.;XP.H.;XJ.H.rXP.:X+X,XsXS._ ' uXFXfXI.9Xi.p.x.6X;XP.E.6XJ.(.(.E.j.0XY.7.4.2.H.a.N.@XoXN.oXs.S K.H.U.I.oXF.N.F.d.z s.oXN.8Xa.F.H z H.N.G S H.f.S n ( I.I.oXf.2.H.I.a.H.N.S w a.S S z j a.s w { n.C.N.z a.N.s.fXrXfX8Xs.P.H.oXrX) ) H.n.n.G C.a.H.@X@X XJ iXiXn.Z .X[.&XMX#X3 C.@XrXa.a.C.M.) n.",
"a.N. Xa.S.G n. X'.cX+ . G C.a.2 j z Z M.[.@X#XV ` n.#X#X{.].J ` V.B.F +X[.V.J V.G B.V.` ` V.4 Z @X'.B.Z '.'.n.G H J C. XV.C.J ,XyX=X{.<X=X{.=XxX#X XC.oXiXeX X@XoXa.A @XN.a.N.N.H. XrXyXyXkX&X#XeX[.C.eX8XiXN.S A.s.N.S..XA.A.f.f.d.d.j.J.0XaXN.s.) V d D.dXD.a V.vXvX5XI./.p.t gX8XA.H.P.6X6X/.3.t g.Y.Y.z.j.s.S n.oX@Xn e z a.n k.H.S m H.C.Z.S n n a.N.N.Z.z G.Z.a.N.a.S z S f.d.f.n H.H.t n H.8X9XoXS S n.) a.S s z S { z a.z S N.G Z a.z N.fXFXmXP.M.Z C.@X8X8Xs a.f C.eX+XG H  XyX&X&X+X.XM.H.n.Z.eX&XG C.8X XiXn.N.a.z H.",
"oXoXN. XA N.C.n.N.nXN.p G rX.XS A S a.H.F G C.G C.G n.eX&X&XH F #X[.[.V.yX'.'.+X&X#X@X&XB.[.B.Z +XuX#XJ C.yXeX#X#X=X XG #X[.'.#XjXxX=XjXMXKXBXxX&X'.C.C.vXrX[.[..X:X) G N.) h A.H.a.S.eXeXyX&XkX&XeX Xn.C.@XS.H.H.E.A.s.( d.H.H.d.f.c c.K.^.HXoXa.M.) ` r ( j.t A sXfXI.E.j.J.2.5XA.H.:XaX9XE./.(.3.7.<.7.4.p.P.H.8XC.8XN.d.^.I.H.H.H.H.H.XX8XN.S f.d.d.Z.G.N.a.Z.l S N.H.f.n ( z e H.E.r 2.p.u t H.I.A.8X8XP.b oXS { G H f l H.a.N.S n.H.a.8X5XP.8XFXrX:XS.Z ) z oXH. XvX XiXiX XC.J B.n.` V.S.s S @XG G  XN.s p '.uXJ G eXH. X",
"3 n.FX8XH.n.G A S GXrXa.h b P.P.b S oXoXS p  X X,XB.p J #X{.B. XkX&XB.'.#X#X|.H &X#XyXyX@X'.#X'.V.'.V.` @X X'.eX#XkXmX&X@XeXLXkXyXMXMXBXGXKXLXjX].&XyXyXeX X+XFXeX@XeX[.n.@XM.S eXC.C.:XiXyX&XkX+X+X.Xn.M.Z N..XoXA.s.j.d.A.8XoXoXa.2.4.v.x.fXuXM.) j S.j j b r n oX8X8XP.A.n ( z t i.s.;XJ.6XJ./.3.<.<.Q z.I.oXoXa.iX XH.f.t c } 3XN.N.oXN.H.N.f.S s.N.S H.P.a.H.s.z S H.z f.z f.b n j.t u v.c.K./.j.f.( J.P.A.A.S H.H.S S f S a.l F.oXH.H.H.mXP.;XrX.XrXrXH.N.S b oX@Xn.p [.,X+X@X@Xn.#XeX` N.a.S 8XoXA C.n.G ` @X'.J V.N  XC.",
"G 2 N.a..Xs j ;X) ( f.z ( ^ A.H.H.oXN.@Xn.n.&XC.+X&X XB.B.{.#X'.mXyX` N '.B.&Xg N d '.J &X=XyXyX[.C.V. X XZXB.G &XyX X@XeX&XLX&X&XnXmXlXjX*XKXBXJ #X'.yX,X+XC.eXC.B.+XyXyXn. XS.iX XH.n.Z  X'.eXC.C.G n..X.XC.[.S.A.f.2.p.n a.S N.8X5X2.(.I.oXuXrXa.z S S s.A.d.I.rXeXfXH.( b z ^ z ^ s.d.P.5XE./.3.~ c.,.R.5XH.F.H.n.@Xa.d.d.2.S } 8XF.H.H.H.S z S S a.z S N.S S H.a.z f.d.f.I.n n N.d.4.<.,.R.Y.AXwX6X^ ^ ] D.I.H.s.a.) ) :XS z } N.N.H.H.H.9XfXP.a.N.j N.oXH.z a.a.C.oXz p Z f n.@X@X|  XzX+Xa.) z a.j A n.n.C.#X&XmX+X. f ) ",
"XXz p G 8X;XA.H.a.s S z b b oXa.@X XZ B.B.[.#XB.V.C.yX#X=X*X=XJ K &XyX'.mX#X&X#X  J yX].'.&X{.J #X#XB.g H [.yXzXkX&X@Xn.@X XiXn.#X@XB.kXyX<XyXmXNXyXH G kX XC.S.@X X#X'.&XyX XV.=X&XC.G G '.'.4X@X XH.M.) 8XrX.X;XP.;XP.A.n f.n d..XiXrX;X;XrXrXaXfX^.P.N.N.b ^ f.@XyXvXH.n z n.b t n d.H.8X9X8Xj.i.^ R.Q u H.fXZ. XC.n.G z n d.H.s.rX8X8XI.N.P.H.N. Xn.C.N.s P.{ S N.d.z d.f.d.K.d.d.j.g.z.4.3.c.g.K.x.c.E.qXg.g.c.E.s.s.a.H.rXH.s s s a.a.z ( P.oXoXrXf f oXH.N.) H.G Z a.Z a.@XM.eX@Xn.Z B.+X@X X8XA j ) C.G Z @XC.@X,X+ 2 H.",
"oXH.z M..X) M..XH.XXA S ;XoXH.Z.n.C.'.H V.'.'.{.'.J #X'.B.K xX'.].&X<X'.yX=X+X'.<XjX#X&XB.'.#X'.&XB.G C.J B.#X&XkXC.|.@X4XiXnX@XF &X#X,XzX<XyXyXZXkX{.#XmXiX) n.eXn.#X#XB.pXeXiX*X'.n.V.n.B.yXB.|.|.eXeXM.S.N.) I.aX:X:X8XI.I.c d.8X.X+X[.H.d.0XaX6X6X8XrXs.b ( b H eXiXH.f.w z z x ^ j.i.8XaXrXs.^ ^ u ~ ~ I.oXoXoXeX4Xa.f.e H.P.G.3Xs.N.H.s.3XH.Z.N.G n.F.F.H.8Xa.s.H.d.i.j.i.c p.J.x.l.7.<.g.4.x.x.H.K.5X0XE.T./ g.c.s.J.A.s.n S N.f.n oXN.( A.S z 3Xl 2 H.oX8XC.z z n.a.n.N.@X XN.C. XC.V [.[.@XoX8XsX.XC.C.C.G f  XFXH.b z ",
"f.P.b h oX.X:XrX.Xa.) a.G N.G G H ` [.V.,X'.xX#XK '.#X'.#XJ  XyX*X<X=Xg =XkXB.J '.&XkXGX#X#X[.+XM.C.f f C.#X&XJ '.#X'.'.@X4X4X XC.yXmX=XmXyX X@XMXmX*XxXjXmXkX+X XS.[.#X#XN n.n.'.#XJ G ` C.@X,X4XeX@XiX XN.oXM.) P.8XP.aXoXd.,.[ I.8X;XA.E.x.K.8XgX6X;X;XM.s z d..XS.oXs.2.n r u x i.J.I.I.8X.XA.b i.p.2.n d.s..XeXC.iXZ.G.I.n 8XoX5X8Xs.H.n n f.) S G F.Z.N.N.7Xm n H.j.d.d.i.f.^ i.3.z.q.q.q.-.z.^.x.x.x.J./._.~.7.z.Q g.E.g.p.j.( N.H.I.H.N.N.d.z s H.a.N.H..XiXs z n.Z S.H.N.N.Z.N.@XC.mX+X) n.s.f.s.S oX#XG  XM. XsXa.b x ",
"f.h N.S.M.oXM.M.8XA 2 z f n. XJ J '.n.` [.C.B.&XJ {.mXB.J B.'.G =XNXxX].F jXjXN J ` ` V.[.mXGXzX) uXM.A eX XC.` yX#XyX&X X#Xn.` J &X&XlXyX&XyXiXuXxX&X<XmXmX,XnXrX@X&X{.*X Xp p L | '.Z G @X,X[.@XiXS. X:X.XN.8XA k aX8X8X;X^ 3.p.d.P.d.J.x.j.A.I.9XaXE.P.8Xh n f.;XsX.XJ.j.d.i.~ p.( H.5X8XoX.X:Xn r t 2.j.n 8XrX@XC.F.P.s.k.P.4XvXoXoX3XH.N.b d.N.a.n.N.@XF.n.d.n e z ( x n f.H.d.K.z.z.T.&.-.-.8.c.H.0Xp.x.R.q.~.q.7.<.4.7.<.c t ( n S n s.r a.oXS s N.n.7 z S. Xn.C.:X@Xz a.@X XoXl G V [.S.G S.z n b a.f '.#X@X.XZ z S x ( ",
"h @ z H.S ( s.j eXC.G Z A Z n.#XB.'.n.F ` ` ` B.#XJ J G g B B H J K =X&XN J &XV.yXyXuX[.F FXGXZXV..XC.`  XeX XH B.#X'.'.yX+X@X[.N  XeX&X&XyX+X@XmXzXmXkX=XzXZXmX.X@X,X'.J J g g B.C. XB. X X&X XC..Xn..XH.rXS..XdXD.;X8XdX;Xd.p.p.t n i.J.j.s.S.P.0Xp.c.E.I.;Xi.H.a.) s.d.f.x d.x n d.a.3XeX3X#Xa.f.i.2.p.i.d.oXf n. XP.3Xf.d.fXpXvXP.d.oXXXN.( S S N.Z H H.F.{ N.oXs.e f.9XH.f.b i.~ y / &.T.! t.<.R.5XH.^./.R.T.> q.1.7.T.q.7.z.j.x.;XA.f.A.s.z N.P.S z a.N.@XuXn.n.Z 3  XS.w s mXiXoXiX#Xn.V.#XuXn.S.C. XB.'.#XyX@XvXZ S S.j ",
"H.H.a.M. XC.N.S G n.uXC.@X XN H B.B.B.n.B.#X[.N B.&XH B.'.J B B K B {.xXyXyXn.yX&XJ kX+X[.n.@X) A d [.,X|.G  XzXiX&X X#XC.,X@X&XC.Z '.eX[.,X,X@XzXuXeXGXvX'. XsX:XG &X&XJ H p G #X'.n.M.iXiX X#XM.8XoXS.;X.XfXM.A.qXA.P.>XdXP.j.4.~ - u g.i.s.oXA.aXx.l.(.g.K.^.H.f.( S s.d.( d.n f.oXN.@X@X3XeX.Xs.K.x.,.x.I.z G s z a.z } a.eXiX8XoXH.H.H.N.b z ) S w s XXa.N.S m d.H.z H.H.I.j.R.~ 7.Q > 1.! 9.~.g.6XI.x.R.z.).> Q <.7.8.! T.q.T.Y.R.5XH.b fXN.z S A.) G z S +XC.@XN.. w a.H.2 z S { G XXeX4XC.yXZ C.@X&X&XyXcXC.+XnX|.G n..X",
".X.XC.` uX[.A .X+XB.V.B.[.eXC.'.#X&XB.#X'.H g d H  XyX'.&XK J {.J #XyX#X'. XV J BX].[.J n.C.G C.+X@XC.M.B.p B.,XiX XC.eX)  X@XmXmX:X X@XeXiX,XV.@XoXeXvXvXrXsXrX@XeXyX&X#X'.H B.&X@XF n.C.@X@XeXS.:X.XS.) ) .XrXP.P.;X;X;X>X;XP.g.4.! , <.c.H.oX.X;XaX3./.R.l.K.f.d.P.S H.oXs.f.i.n d.A.P.oXoX8X:XA.i.x./.K.f.z { n.l s.U.f.N.iX8XH.H.d.z H.a.) j h S S s w n.H.a.z n d.n n s.i.^ E.(.q.z.y , -.9.~.<.R.E.j.g.l.c.K.(.Y.R.z.8.1.$.$.Y y r n ( d.gXP.s.N.A.N.) A  X) eX3X2 w .X;Xa.z z z a.N.Z F.n.n.S f @X X#XyXB. X,XvXC.'.S..X",
".XV.#XyX,XuXV V.B.#XB.'.#X'.&XkXB.V.'.{.].#X#XkX{.B.B.4 N &X].B.*X'.=XB.'.f N '.&X'.<XjX'.eXeXM.&X[.eXJ G vX@XV. X@XC.N.N. XrXzXuX+XC. X+XiX,X[.M.C.iX@X@XeXHXmX@XeX XyX=X{.B.J =X#Xn. Xn. X,X+XM.S.:X:XrXM.M.) A.D.D.] >XE.>XP.J.g.8.$.&.z.x.j.6X6XE.c.v.(.v.E.[ K.H.S H.rXN.z c H.H.H.oXoX;X8XoXf.n 2.j.j.z s G H.H.N.n f.H.oXiXH.d.H.z z ) S S z z z s s N.S f.a.d.f.e s.z t t 3.c.Y.W 1.T.~.&.8.q.g.gXaX0XR.E.5X^.gXaXAXwX<.9.:.-.8.~ f.;X^ x.d.5X9XH.P.P.N.S p ;XFXN.S s P.H.S z N.H.N.9 Z Z.8X@X4 p yX5 Z '. X:X) Z p iXzX",
"+XC.&X'.#X'.3 M.yX].'.B.eX'.#X#XJ F kX].*XkXB.=XkX*X#XB.g B #X5 =XmX&XeX'.V.` ` kX{.].B.V.'.yX` n.n.C.n.kXvXJ `  XrX.Xa.C.@XkX X+X'.C.eX@XeX XeXkX#X Xn.iXvXvXiX X@X XyX4X&X&XK {.J '.C.C.:X.X+XrXD.M.] A.M.rX.XM.D.>Xs.s.8X;X;X] z.:.X.-.8.3.c.b.z.c.K.2.K.^.H.x.p.f.N.n.@XoXN.p.f.H.N.5X5XH.8X8Xs.n n n f.d.f.s.} z d.x.f.f.f.oX5XK.f.I.f.) N.N.b z z a.z f j N.z z z z n 2.n n j.g.Q ! q.t.9.9.&.-.Q p.6XJ.c.I.I.d.d.K.K.g.z.z.~.t.~.g.t z n 2.c n n 7 s.s.@ S.N.d.H.z N.S ( oXA.N.N..XoXj 3X X X@X#Xd C.eXf @XeXGXa C.iXC.,X",
"+X XiX'.B.nX:Xd B.4XH '. X#X#XB.+X'.J ].{.K K K *XxXyX*XjXH N B.#X#XyXyX'.` ` ` eX#X=XxXB.` J V.+XiXM.G 5 uXmX#X` V.:XM.F H #X,X=X,X@X#X#X#X+XB.#X#X&XyX@X@XeX+X X[.B.|.4X'.J B {.B H N.S N.oX.X>X.X) M.s.) H.:X:XA :X:XM.H.;X;X>Xj.! o.X., <.7.*.:.z.l.l.p.I.I.I.j.H.I.[.iX@X} f.n a.oXH.7X3X3X8XH.a.a.f.n a.s.z f.s.f.K.j.n d.oXb ^ ^ z z a.H.b s d.d.w r ( ( z f.f.x i.r n f.a.x c.z.Q ! -.$.T.! -.0.l.K.H.H.I.gX8XI.K.K.qXc.i.(.q.~.~ t p.2.f.c c f.h d.;XN.a.H.e s z z b A.s.d.8XA.M.:XS oXf L C.eX,Xp Z  XZ S.GXs..XmX XeX",
"@X XH |.yXkX#XF d C. XC.,X&X=X].=X#XH #XB.D #X' ].*X{.#X#XjX5 6 C.&XjXjXyX#XB.#XmX&XF yX'.'.&XJ ,XyXzXG n.vXS.C.,X+X) .X:X[.M.kX#X#X#XiXeX'. X'.[.@X@X&X#XuX+X@XoXrXB.n.@X[.H K B.Z p H.N.a..XH..X:X:XS..XV.M.:XdX}.:X:XS.s.J.P.E.8XR.7.-.: -.-.=.-.8.q.8.v.j.H.8Xx.2.9XrX@XC.oXa.f.^ H.d.5X5XH.H.8XM.N.a.( f.f.S S d.^ g.K.J.H.iXG S n z x f.s.A s H.a.P.n d.d.f.f.t - t 2.p.z n 2.4.7.y 1.T.t.q.$.$.1.7.Y.K.P.5XoXoXI.Q.gX5X9Xv.p.4.4.qXi.J.d.2.t f.e n ;XS.s.P.P.H.s.s A.N.H.H.N.H.G 3 z ) S a w C.f '.J | '.) P.oXoX@XG V.G ",
"J &X'.&XB.#X+XzXnX@X&XzXxXmXB.jX&XH 5 B.B.'.B.#X[.jXkX&X*X&XkX[.'.yX#X].&X&XJ N H iX#X@X#X'.yX&X#XiX+XZ G M..X) :X[.V [.:X[..X X XuX#X&X@X@X@X,XrXiXV. X XzXvX XS.C.H B.eXC.d N G g p Z S..X8XA.@X XS.M.+XS.) :X:X.X.X>XA.s.P.J.j.>XE.3.<.&.! 1.$.9.t.$.o.8.3.H.E.K.(.5X8XeXH.oXd.a.I.H.5XoXoX8X9XrX:X:XoXd.^ ( f.n f.4.l.l.x.gXrX;XI.6XJ.i.a.A ) ( N.A.^ J.p.x.H.x.~ Q <.- t z r 2.7.7.7.T.Y.-.8.~.$., ! 7.l.P.H.8XfX^.4.5XH.I.x.c 2.2.c.y t x t e K.n r d.oXs.8X:XP.A a.b H.a.S s s f j S H.:XrXZ z n.G  X#X#X+XS.a.C.N.n.M.rX",
"` mX#XH '.B.zX#XzXMX&XyXyX,Xn.B.B.J K H ].B.jXF Z C.yX=X#X*X#X&X#X&XK ].#X@XB.J 5 H yX#XV.V.'.'.#X'.F n. X&X#X@X[.V. XS.eX[.,X XV. X@X@X[.+XeX[.+X@XyXyXB.F @X@XS.B. X'.C.V.'.f Z C.C.S n.H..XoX:XrXP.oX>X,XV.M.S..X>X.XM.s.j.D.( A.s.J.g.g.3.j.-.-.:.X.X.$.v.p.2.^.K.5XoX@XXXH.H.H.8XI.hX8XoXI.8X;XoXS.5Xj.H.d.r x u 3.%.<.x.5XaXp.~ l.4.j.M.S.M.S z i.t 4.,.c.I.t i 8.q.< 3.J.y , q.T.T.&.8.T.T.9.X.&.$.-.Q 9XH.@XfXE.c.wX^.x.2.2.u <.7.q.! z.K.j.c f.A.^ 8X.XP.P.H.7 z f.# w w n H..X Xa.n.N.a.n.n. Xf G 4XB.zX,XC.G C. XC.H.",
"+ [.[.C.'.&XkXH 3 '.yX{.kXuXiXPXLXyX'.*XK B #X XA G n.N 5 '.kXkXeX<X{.jX'.B.[.=X X'.vXB.+X'.B.'.,XB.B.#X#XyXmXyXmXuX,X[.V.n.[.) [.n.) S.C.uXeX X@XuXiXeXG G ) .XoXn.#XeX.XM.M.F G iXeXC.C..X:X[. XM.M.:X.XV.+XS.:X.X:XsXdX;XD.s.A.D.s.j.J.^ ( ;Xl.> : =.T $.Y.3.- ^.K.I.I.@X8X3XoXoXoXoXH. XoXH.( H.P.d.P.i.^ j.g.g.R.l.v.0XgXaX6Xc.8.q.< r f..X:XS ( 2.- l.q.<.3.Q &.-.: ! 7.7.T.9.t.-.! 1.q.~.q.>.o.$.-.Y 7.j.rXrXoXwXc.i.^.wX/.v.7.&.~.~.! t 2.c @ @ A.j.z A.h ;X8XS s z n N.s.S N.) j a Z H.C.H C.n.G n.n.G Z n. X XJ C.Z N.",
") S.C.#X'. XB.[.&XN '.K &XiXC.oXLXkX'.xX'.5 G n.eX Xd 4 5 MXyX].N &X=X=XyX[.[.GXvXH ,XV.H N '.#XB.H &XB.B.<XkXyXzXNXxXuX[.F F .XC.n.M.M.C.sX,XuXrXS. XiX@X@X.XH.a.z G C.8X;X8XH. X XG ) M.C.@XV.` M.8XsXmXuX:XrX_ M.:X.X>X' D.D.D.A.s.>X8Xs.s.P.E.v.%., , 0.z.u n p.K.H.5X8XrXoX3XP.8X3X@X8X XA.S d.rX5Xj.^ t t j.x ~ ^ j.j.I.5XR.R.&.1.T.<.u 2.P.( n ^ ,.b.8.! 8.7.T.q.9.t.t.~.:.>.-.1.T.q.Y.7.8.y.*.$.-.t.).E.A.:X8X6XqXg.E.K.wX(.(.~.9.R ! 3.t r x f.^ i.( H.w # N.8Xn z w n 7 s.s a S N..XG n.l s XXa.n.C.p S oX@X&X].J C.s ",
"sX XS.eXvXJ yXF '.J J &X&XkX@Xf H #X#X#XjX#Xd d Z Z C.uXiXyX&XK d V =XxX<X#XB.yXyXG F #X` n.V.J + g &X#X{.#XJ #X&XxXkX<XmX,XF V.@XvX@X) H. XC.[.rX.XrX:XZ A H.rX.X) n.H..XH.5XH.f A  XS..XM.S.@X.XM.H..XS..X[.}.) S.S.A ) D.D.S.s.8X>Xk D.;XH.;X;XH.g.R.z.R.g.x K.x.H.J.f.d.A.A.N.N.rXiXeX XoXP.f.A.s.d.J.j.d.f.s.( ^ d.f.s.b J.g.<.<.8.&.> q.> 3.j.u u b.q.:.9.-.-.T.T.q.-.=.+.+.t.-.-.q.&.Y.c.1.t.>.8.& =.T.c.I.P.oXE.DXwXgX^.b.x.v.).q.T ! c.t K.d.^ ( E.;Xj.gXw j H.M.a.z w z oXrXs.z N.N.2 p F.9 f n. XC..Xb S eX X&XmXB.A ",
"HXmXC.Z 5 H ` H H B.].J K &X'.N #XmXyX'.#XeXV.J g Z C.V V.,X#X&XiX,X{.{.#X'.&X].J &X@X@XGX,XG F Z Z uXyX'.B.#XC.B.J &XjXyXyX+X,XLX+XM..XrXS.d M.A.b S.@XoXS.M.:X;X@X+X,XS P.H.S eXa. X X.XN.H.M. XM.M.` :XD..X` M.>X:X.XD.D.] ] .X:XD._ ^ E.;XI.oXA.j.p.c.wX(.4.c.^.E.x.p.3.j.b f.A.a. XiX XiX8XH.d.s.A.d.j.H.H.s.H.p.x.n f.f.3.<.7.z.q.&.: ! , , , < ! ! &.&.&.! &.q.q.&.T X.>.>.=.9.-.T $.8.0.Q q.T.! : 9.$.1.^.5Xi.l.l.(.d.l.x.^.H.g.T.t.t.<.r p.K.E.A.d.E.d.H.8XC.C.n.oXsXa.# z H.z 7 n s f.h { a.Z G f F mXS.G G  XzX,XV V.",
"A.:XF @XB.&X,X=X'.yXyX#XkXB.kX].N #X4Xn.G  X&XkX@X#X[.n.p [.GXyXzX,X&XKX{.[.,XMX[.@XkX` ,XeX` F Z n.+Xf n. XZ.J #X&X#X=XkX#XeXiX.X.XM..X.XA .XmXoXA rXoXS.S.S.S.S.` V.zX@XM.N. XnX@XM.C.C.:XrXoX+XoXsX:XuX,XD.M.S.' ) ) ;XD.) D.M..XrXA.b ^ 6XJ.E.I.E.E.x.qX).(.K.^.0XJ.c.g.g.j.i.d.z n.eX@X@X8Xn x f.A.H.j.d.N.f.f.2.p.2.x v.7.%.&.i Q 1.! ; $.Y : $.Y : Y -.$.&.8.9.9.-.9.>.>...X.R Y Y & -.T.7.q.-.> -.9.9.8.l./.g.4.l.v.v.v.^.9X5XE.z.t._.&.- - x j.i.i.^ f.b a.a.j N.z oXH.h l N.z s e z f.H.z N.C.8X XG  X@XM. X@XM.:XHXS.",
"Z @X@X#XeXeXeX+XM.F B.=XNXB.'.<X XB.N ].&X].kXjX&X#XV.C.p #XGXK V ` F PX[.H ` '.J ` N J Z d n.[.C. XyX&XH K #XB.J {.yX].'.B.j ,X,X@XuX@XC.S.:X X:XmXvX:X+XG S.S.M.M. XrXS.G G eXeX@XeX+XS.a.H..XV.V.) ) ' }.}.` .X.X:X) M.S.D.D.s.P.P.P.( _ D.j.P.A.j.i.2.~ K.g.d.J.I.E.0X/.W.c.p.c.i.p.f.a.a.s.A.H.^ f.2.p.d.n ^ c n f.c 2.b.0.-.> &.&., -.-.=.-.-.& Y R =.r.T : &.&.$.:.:.t.=.= * X.>.=.=.:.9.).).T.-.-.T.T.1.0.l.^.K.^.aXH.x.J.J./.v.l.&.-.8.7.E.t - x.t b A.S a.H.S.d.z @ S pXS m s.H.n F.H.z M.S G s @XiXH.f f 8X;Xa.( CXoX",
"n.eX'.'.H p @XvXuXvXxXjX=X&XyXJ C. X=X=XMX&XJ '.N n.V.yX[.B.+XmX+XG 4 zX Xf V '.'.yX#XC.V.8 J F C. XG B.#X#X#X#X'.J #X&X'.B.a G @XH.@X:XM.S.M.sXmXmXuXmX:X XsXCX) :XrXoXM.S..XH. X X,X@XiXrXS.+X[.eXj M.:X+XsX[.M.S.M.D.M.D.D.D.D.D.>X;Xs.s.J.P.A.5X;Xj.g.i.x.p.p.f.b j.J.R.J.3.u ~ g.i.j.E.d.f.j.J.x.n n 2.p.x.2.n e z c - y (.8.> $.-.9.Y -.-.9.$.-.$.t.:.:.t.*.8.! t.=.t.t.r.r.+.= >.t.:.>...>.>.y.y.:.9.8.7.Y./.x.K.K.d.H.5Xp.g.0X/.R.).z.! y 3.I.f.I.E.J.n oXz 2 a.I.z w M.XXfXw N.5XH.z f @Xa.a eX@XG @XeX|.p  XoX# a.f.d.",
"C.[.n.f f 4  Xn.f F kXMX'.MXLXzXGX,X].B.#XB.yX&X&XG n.n.C.eX&X#XV.V.+ S f z 3 p g H '. XV f G d 4 + 3   g J B.yXeXV.#XB.'.,X.XS.M.oXrXa.a.N.H.S.rXS.G  XV.G eX@X.X8X Xa.N.C.H.C.S :X:XC.oX:X:X:X+XrX,XS.sX+X[.zX>XS.' S.:X>XD.] S.k .X;XP.P.A.A.^ b J.2.2.R./.qXc.i.z x i.3.c.i.~ u g.c.j.K.E.x.p.c 2.d.p.f.i.^ n n c n t v.r 4.0.$.X.=.X.>.Y & : : -.9.=.:.X.T &.Q y q.>.T >.+.#.+.I t.U I r.+.....>.r.t.-.7.).).R.aX8XJ.5X5XP.I.^.5X0X5X5XqXY.1.$ r H.P.H.9Xc N.b z b H.f.e I.@X XS 2 a.S S.S  XvX:XZ G n..XS.p Z Z @XH.S s S ",
"N. X XC. Xa.rXPXZ H 5 #X&X+XkXZX XC.yX&XmX@XC.'.C.| #XB.n.FXkXyXV f a p 3 S C.a H B.Z J  XZ Z C.V 3 n.G 5 3 G |.eXB.#X#Xn.C.@XsXC.n.M.C.S.a.@X) S.@X@X` C.eX@XM.:XoXN.a.N.M.G M.N.@X@XS.N..XrXV.M.S.` V..XeXG [.>X}.M.M.A.D..XP.D.D.>XD.r A.8XA.s.h b 2.3.l.(.qX/.K.i.x x.E.x.i.3.4.3.p.p.g.v.,.u 4.2.c c x.^ x.d.H.c 5.t 2.t r <.t.=.+.= % -.-.& Y ! Y T +.:.>.! Q / ! >.=.+.r.t.>...#.I = +.#.O.O.I @.t.~.(./.p.p.I.I.j.H.8X;X8X9XI.9X8XI.^.).b.(.~ c x e f.d.n b FXA.@ f.^ @ z @ h r z ( ( S 3  XrXN.n.a N.8XZ C.H.C.H.G n.N.",
"@XeX+XH + z 7 S.vXn.J N n.#X[.` #X&XjX'.V.C.zX@X|.'. X'.N +XiX&X+Xn.Z G G Z G #X@XV V.B.C.` f G eXFXG C.n.@Xp ) 4XeX@XiXV.Z M.) @XG ) n.C.C.[.yXC.` ` #XZ J V.N.N.N.H.a.a.oXH.N.H.N.S.S.N.N.@XV.V.sX.XM.[.V.@X XeX[.' }._ M.( s.J.D.A.s.] s..X.Xi.s.f.p.p.^.v.b.).v.j.x.x.K.R.c z.R.v./.c.0.T.Y.T.Y.l.c t p.x.x.H.K.t t r - t ^ r b.t.X.:.*.; -.$.Y Y Y $.:.=.:.T 4.Y._...+.+.O.y.r.@.@.r.+.+.r.+.>.r.;.U ; <.wX0Xx.x.0X^.t H.5XN..X8XoXoXE.J.c.c./ c.<.3.^ ^ 8Xz x d.fX^ t f.E.s.H.9X;X;XH.N.H.H 8Xz :XH.) H.H.G 9 Z Z.N. Xa.M.",
"@XeXn.V S M.PXa.p C.n.B.J Z eX'. XB.&X#XiXG C.C.#XvX&XvX&X'.&XC.J J p G ` G G '.C.5 C.@XJ G C.Z  XGX Xn.M..XN.p  X#X@X@X.XM.S.)  XA ) @X XG B.V. X+X[.&XeX[.C.C.) N.eXN.S C.oXmXH.n.eXM.H.N.:X.XV.:X.XA V.[.[.[. X.X) M.M.) M.N.A.h P.A.] M.) M.8X^ b ^ 2.(.b.0.T.z.,.g.J.x.x.~ 7.z.g.z.4.! $.-.q.~.(.,.t r c 4.2.c ,.4.,.c c 2.c - :.X.:.y.Y & >.$.$.:.:.=.t.X.: ! ; T +.I r.O.r.r.+.I t.R = +.>.U U ! : ; 0.0.v.0Xx.k.^.wX^.fXrX:XH.rXrX5XgXwXJXAX1.7.y x @ e p.I.i.H.J.c ( d.h ;X;XP.;XA f XXa.w a.S z a.S 9X8Xn.Z 4 p G C.G ",
"2 p ` Z  XHXPXHX) :XC.d eXG  X'.g N kXeX#Xn.@XC.n.B.=X#XkXkX#X[.7 A w w G #XH n.G J ,X,XG n.) Z p s S G f @XeXp G G G N.S S S.H.M.N.sXoXn.V V.#X'.F V.[.n.iX@Xn.M.) n.H.S Z f Z.@X XM.a.fXrXN.@X[.iXeXn.A rXV.V.S.S.M.D.) :X:XA..XM.P.D.^ s.P.A.;XP.s.^ p.Y.b.b.1.0.u 2.c.g.~ ~ 7.z.7.z.0.<.-.-.9.q.b.,.u y u u u y l.2.$ ,.,.t t $ > : = =.:.=.$.: Y $.X...X.-.T : : T >.@.+.+.+.+.r.>.-.;.X.+.y.r.: * 8.q.1.%.!.I.x.f.l.K.x.^.9X5XI.oXoXN.H.I.6Xc.0.z.g.wXaXx 2.c K.6X2.K.H.5XP.;X8X8XfX@XeXpXn.N.w G N.w p 3 a.8XS 3 9 G oXrX",
"p p  XG H.z A M.vX.X@XN ` C.5 [.@XkXeX@X Xn.kX&XyX'.&X{.K H #X,X4 p a   f GXJ J n.G V.&Xf f n.@XZ Z  XG n.pXeXrXF.n.C.C.a.S A a.s.( H.( M.C.J &XB. XyXB.G F  X.XN.n.G C. XC.a.G  XiXoXM.a.H.N.C.Z M.eX,XC.[.:X,X+X.X:X}.d M.A.)  XS._ ( h ^ j.j.s.i.s.j.r 1.8.:.b.(.R.3.c.g.<.Q <.b.l.z.1.0.9.t.t.&.(.4.c - y u y - 4.4.y $ > y c - i >.+...T : : > Y Y >.X.X.-.>.Y & =.+.@.r.+.U O ..r.t._.).:.:.t.X.& $.&.8.b./.5X0X/.^.,.p.K.Q.k.k.U.hX8XI.H.H.).v.2.0XwXJXt - 2.2.c 2.5Xs.S A.H.P.:XsXiX#X&XC.M.C.p z 3 f Z S N.a. X Xn.4 ) ",
"n.p 9 z 3Xe N.+X+  X XB.V.uX&X,Xn.C.`  XiXN.N.N.S f H *X4X XJ '.N 3 V.V.+ eXZ G V.J J H G {  X X&X#X#XV C.A M.n.V.eX:X.XsXrX) M.S.A n.f G  X'.B.#Xn.#X[.V.V.C.G C.{ Z N.n.H.H.a..XsXvXB.eX XuXV.` A eX#XuX[.#XV.:X:X X+X` A S.A..X.XS.;XJ.r j.^.r x i.;Xc.z.:. .T.1./.i.t t / 7.z.z.~.Y.0.:.:.9.q.q.8.Q u ~ u <.! 8.&.i %.; < , < Q 8.y.>.+.X.-.9.Y Y =.>.X.* Y X.$.% : U * >.>.=.>.#.O.r.~.q.q.* X.t.X.: 0.0.(.4.x.^.^.K.!.x.wX9XI.P.3X@X3X3X^.gX8X9XK.x.x.p.gXp.p.j.d.z z H.d.N.S :XoX X X'.cX@XM.@XC.z S eX XN.N.4 B.@XeXC.3 ",
"#XH { } H.5X+ N.n.|  XeXF yXvXC.Z f a. XFXrXH.mXG f G '.@X XZ B.,XF Z H.+ a j S.@XC.&X Xn.S n.4X@XyXyXG G N.H.G ) eX) G .XfX.X.Xn.n.+XG C.n.n.H ,XzXB.[.V.G p f n.p H G C.a.a.z ) @X XC.4X&X XC.C.S.#X[.uXyX<X].[.,XzX&X XS.S.M.:XrXP.;XD.^ J.aXE.j.J.J.i.v.b.q.1.u p.p.Q / 1.<.1.z.).wX~.l.T.&.1.q.8.i ,.c c x.i 8.-.-.-.-.! &.8.$.-.X.+.=.9., Y -.t.X.+.X.X.>.X.=.:.X.:.T & +.=.I +.#.I % % > $.>.;.: Y ~.~.1.4.v.x.x.x.^.K.I.5XG.G.H.eXiX9XH.5XI.oXK.u ,.2.K.c r t 2.@ t e 2.d.w S a.M.eXvXC.N.oXC.iXn.G H.3 2 Z f L H n.@X8X",
"=XH C.G l l l S B.n.f l G g G G N.eXG H.:XN.H.vXa.N.Z 9 H N.C.` zXS.s # A S.S.N.n.yX#X|.w .XZ oXvX+Xn.H G M.G V. XG Z A  X.XS.M.M.G C.C.G C.'.n.&XuXxX=XV.F H H n.Z 8Xa.M. XG G Z Z n.|.eXyX@X@Xn.eX&X+X{.=XyXjXzX,XyXyXB.[.` j .XS.A S.P.^ x E.D.E.E.^ / /.7.7.Y.,.3.3./ ! ! 1.7.Q l.c.x.3.c.7.%.&.! < u p.3.t > 8.>.>.o.>.$.-.:.-.:.>.=.X.&.o P , =.+...T I +.O...T Y *.t.T T -.>.@.= U 8.z.z.-.t.9.9._.t.8.<.<.z.R.wX0XI.5X3XH.oXcX X3XmX9X9XgX5XH.f.,.u u 4.~ u t - p.c - 2.q @ q   @ a.m z n s  XmXG + # # X w .XA Z j G rX",
"|.'.#XJ p G Z f H  X XH G eXZ # Z Z G C.p S ) N.C.S F.a.h S f #X@X Xf H.H.8X.XZ | 0 H B.j f 8XHXHXG G J p G Z Z  XC. Xf  XM.n.) C.n.G @Xn.J B.#X'.].=XkX#X&XJ G  Xn.C. XA :XN.S @XiXyX'.B.C.n.{ n.&XeXyXB.<X=X[.,X<X+XzXeX+X,XS.@X:Xa.P.8Xj.] j.^ j.D.p.4.4.4.z.(.R.p./ ! 1.W ! 7.<.~ 4.g.,.x.R.1.-.q.Q ,.x.x.u y > * * ..* T o.X.: X.=.=.=.$.: <.7.o.y.>.* O ..+...& $.% Y *.& $.9.+...:.8.c./.~.t.9.;.;.~.T.i z.v.K.^.H.9X9XN.rXrXH.eXiXoXgXrXI.gXFX^.x.p.,.l.g.R.t ,.u j.p.0X# q f.r # @ e @ I.H.f S n.f X Z @ S # b z sXn.f ",
"s  XZ 5 p G N 5 Z.G iXH.f G p 4 p p J &XB.n.GXnXN.n.{ pXz N.,XyXn.f w S @X.X@Xn.Z.#Xg Z a N.rXI.N. X XZ.G n.Z.|.@XC.4 G C.C. XH.f G H C. XB.B.B.*XyXB.J J &Xn.Z C.)  XC.C.@XeX XuXzX,X{.#XC.:Xn. X@X+X=X'.&XxX,X+X,X' D.) S.D.D.C.:X.Xs.A.D.j.j.E.] / T.4.3.<.<.g.g./ Q Q ! ! , y ! <.4.Q ,.,.4.q.:.1.; y v.p.3.- : Y X.=.=.:.T : :.=.=.=.X.=.X.1.q.! T * ..I +.;.-.> , T.% -.t.9.9.:.:.:.i ~ 2.0.8.9.$.~.-.).! ! (.K.gX^.d.oX8X8XFXiX X8XrX;XrX8X X@XgX0XK.x.0Xv.).(.u @ e S rXf.H.f.z j.n # w p 8Xz f.s.fXn.V.N.z f.# s n..Xf ",
"z s z N.Z + C.'.G n.G oXA S n.Z   + | '.L p z mXG C.J G G G ,XeXC.G A a.j p G '.J H J 4 . s h # @ Z Z @Xn.C. XN n.#X3 G '.G Z.C. XG H n.'.| B.].g B.{.B H B.V Z w w f M.Z G  X X` yX'.[.zX+X+X) n.eX#X{.#XyX<XzXuX>XV.] _ s.s._ N..Xs.) ;X>XD.] D.j.E.j.i.3.7./.g.~ p.Q 1.1.8.q.y i 1.7.<.<.b.8.&.t.&.i - 5.,.; > -.9.$.t.:.I +.T X.*.$.9.t...T T -.; $.=.+.+.:.:.8.y q.).9.Y :.-.% $.: & 1 t 2.i &.-.$.~.t.1 % y - x.I.gX5X9XI.oXmXiX XoXoX8X:XoXiX8XoXH.^.K.p.(.v.(./.R.x h # z r ^ n z f.H.@ 3 oXH.e e d.j .Xb f.;XP.a.S .XA ",
"rXP.oXd.N.N.3 Z.Z 2 I.aXN.z a.H.7 S Z 3 p eX.Xs.N.n.B.f z #   w H.s A.S.z n.p + G | ].J p # 2 S z Z J f f 4 n.Z F C.#XZ |.C.L f C.C. XG 4X&X{.#XH H '.*X'.C.Z p s 2 z w a. XN J N H yX#XmXyX&XiX:X,XV.{.jXyX+X&X+X[.M.M.D.s.D..X.X8XS.z P.8XA.b ^ j.s.A.6XJ.3.R.J.x Q ~ <.T.z./ ,.%.<.q.q.8.z.T.-.-.T.0.5.5.4.; > > & : & $.X.X.+.T X.$.t.:.....I +.X.Y >.:.= O X.: , q.&.-.! -.Y ; % $ 1.b.p.U.5.i %.: : 8.% i ).R.5X9XgXgXI.9Xa.N.pXeXrXH.oXeX@XzXvX8XH.H.5XH.p.l.3.(.Y.R.K.x.x.r - r q f.;XN.w S @X) n b z S t 8XsXiXvXsXz G ",
"A s d.f.e s H.oXa.s.n e z N.+ s ;X;Xw z H.fXgXh 9 n.G + z 2 z z S a s.aX8Xs.@X@XJ J ].J Z s + 3 s + 4  Xf C.G  X@XJ #Xn.3 g |  XiX|.n. XG H yX*X{.*X&X| pX&Xn.@XH.q a.a.G @X| N J H kXjX#X#X,XeX X[.V.' {.jXjXyX{.{.` ) M.s.V.M.) S..XP.;XE.;X^ ^ A.A.;XgXP.^ 3.p./ Q / ! T.c.g.~ 4.<.&.8.8.&.9.T.q.8.0.[ p.%.> , -.:., T & & I +...>...> $.X.I ....= ..& R X...= * % ! -.: -.q.$.; y 0.i 0.e.0X5.1.~.&.! 8.1.&.v.g.J.5X} 9XhX9XoXoX3XXXpXoXH. XH.@XiX@X8X0X9Xd.r 2.qXl.z.1.g.y 7.z.t - t c n r t z @X,XC.H.t - f.b b j M.@X:XM.",
"s.r b S s.oX8Xn.2 S oXz a.N.3 z 5XH.z 7 H.gXJ.7  X3 l s 8X# @ a p # h HXFXiX XV.| N  X#Xn.H 7 f '.'.4 '.n.C.d 3 p j 2 p ` f g p C.B.N J n.4 + V V.G 3 H J 5 N C.C.a.G M.{ w Z L { Z.@X&XkX[.C.+XuX[.uXxX=XVX*XyX,X:XuX+XS..XD.) ) S.:XS.' _ >XA.] A.] ] A.D.3.3.t u y / 1.Q 4.l.j.j.z.&.-.&.8.$.;.;.T ).<.,.i , q.1.!.4.0.8.: X.T ..>.X.X.= I I =.>...I * T T T = I t.R +.U T 9._.7.Q ).4.%.; & o.& Y ~.<.! 8.1.<./.^.I.U.0XFXrX;XH.f.a.P.fXfX8X@XoXH.H.H.I.5XaXg.g.p./.wXwX; ; , (.).0XaXj.^ t r z w S.V.G f.2.z z h s z M.S M.",
"s.P.7 7 N.8X.X.XH.f.8X5Xq 2 N.oXz z f 2 r A.# H.iXn.@Xa.s w P.# a S # N.fXC.C.3 J eX@Xn.yX@Xf p f | p Z.'.'. XC.) G iXZ C. X#XH C.H | G N S Z [.V.Z g F H ' Z n.S C.'.G z s # H @X@XvXJ &X` #X&X@X,XjX<XNXVX{.=X' ) ' A _ _ D.M.S.S.}..XD.A ] D.k ( ( s.s.s.g.<.u ~ / / ~ p.x.c f.c.<.&.-.9.&.$.=.-.=.$.Y.Y.q., 0.4.H.G.k.v.1.-.X.I >.I ..= = I X.+.O.O = = I = T X.-.>.R >.>.-.8.8.W - %.$.=.=.T =.$.$.1.7.q.~.- x.0XK.^.^.9XgXI.I.gXI.H.I.rX8XP.A.A.8XI.I.H.aXl.K.H.H.U.qXwXqXz.(.c.J.I.J.f.x 2.p.t @ r 2 a.f.f.q @ n w S s s ",
"j 7 # q n 7 S.vXrXI.q n f.d.S s s F.#X Xa.G 8XeX| f ` V mXsX( @ z e # # p a G p s oXC.5 J n.C.p 4 Z f d G  X X'. Xf G eXZ p '.Z.| C.B.B.f G V.[.[.@X&X,X#XmXJ g G 4 f H.G H s G |.&X#X@X#X=X=XjX&X[.jXUX].ZX=X'.C 8 V.C a A k D.M.[..X' S.S.] ( M.( b b ( s.3.t 3.R.~ / j.i.i.j.^ <.8.-.R :.:.*...X.=.: ; %.T.! y f.H.@X3XQ.l.e.$.: +.O...+...= I I E @.I ..I I % o ; ).t.+.U ! W 1.t.8.8.! Y ..=.T 9.~.8.(.b.(.- u K.^.K.K.0X5X5X5XwXFXFXK.f.9X9XH.j.d.I.P.5XgX,.R.Q.H.P.a.fXrXFXFXH.H.^.9X9XH.2.,.t x.r S z rXoXq z I.n x z n ",
"S.( j.n H.b 2 s S n z z U.f.z G @ f B.nX Xa.A 2 8XeX3 [.vXoXq p.w n f p ` G p G n.a.N.7 4 Z G Z 4 Z G V d 5 Z @Xn.+ N #Xn.p 4X&XJ &XB.C.n.n.6 F kX#XuXuXJ {.'.C.n.w 4 a.H l 4 s n.'.n.#XkX{.].*X=X=XjXNX=X=XxX{.+X) A C k ] _ S..XS.V.V..XS.D.P.) M.A.b t ( 3.u u u u u 3.j.H.f.p.<.-.:.=.T X.=.X...=.T &.1 % >.q.c.5XH.k.k.v.p.y > = ..I >.>.I X.>.O ..r.r.r.R : $ ,.JX_.R * T , 1.q.~.&.-.$.& >.-.Y T.b.(.4.l.(.v.aXgXgX0XI.5X5XwX0XqXgXwXp.2.K.R.j.J.x.x.aXJXR.t 0XG.H.a.oX8XH.N.5X0Xk.H.H.5Xc.c.3.4.K.p.q ( oXd.r t t t r S ",
"j z @ P s z z b a.r e z n s a.n.z HXvXM.H.S w a.z C.p p @XH.q n q s S C.` eXp f w ) :X X` G | @XM.7 n. XJ f @XC.#XG 4 N N p p B.pX#X|  X X#XC.C.&XH '.kX'.' g J n.G # S XXs S w p f n.f B.&X=XVX{.jXxXlXNXxXjX{.V.V.D.d k ] C k S.` ` F ' S.D.M.M.S.A.] s.i.^ c.i.t Q 1.> 3.H.oXl., $...>.X.=.-.* = O * ; , : >.9., ! i i 0.2.p.v.*.O O = = ....X.I ..= I I U r.% y c v.wX-.-.&.<.1.! q.z.<.Y =.& ~.$.z./.K.x.0X!.hX^.[ Q.0Xx.I.I.^.2.4.(.).DXhX0X0XK./.wXwXv.y u K.K.U.s.k.P.3X8XH.f.Q.5Xk.8XI.wX2.c.Y.4.c.n @ z @ q @ # q A.a ",
"( n ( e # 2 z h q e z q N.f.rX2 z rXFXa.s.b w a.z I.2 @ b s n q a.z Z 4XG B.n.n.w @ j 8Xd Z G n.A + V d + G G #XZ.B.H p 3 L g + H #X#XC.g f eX X&Xp + J B.B.H g 3 Z d.e @ w F.s Z J Z.B.jXBXBX=X=XlXMXlXNXBX{.UX{.' }.}.) ) C ) M.S.S.M.V.M.D.D.) M.s.j.P.;XJ.i.3.Q &.&.8.u d.oX4.&.T I I & ;.-.T =.X.R Y T.9.;.t.+.T :.>.Y <.2.4.1.$...O I ..O O +...O I ..O I ! - z.%., -.=.& 0.T.! % l./.> : & o $.0.4.I.I.I.0XK.hXI.x.^.0X5Xx./.c.^.wXv.^.K.gXaXqXR.b.b.8.&.).x.J.f.f.[ [ m I.oXH.d.7XH.8X8XJ.aXR.l.Y.4.x.r w n s.e ( w a.A ",
"S z n e S s n d.2.q d.S z @ @ n U.s.a.j 7 S # s q H.q N.N.. w # f N H s C.p '.&Xf G 3 p 3 7 Z S G f 3 V.M.S.j Z G eXC.f p 3 3 + 4 f Z '.C.2 ) [.&X XC.J H N f C.G S q @ n 9 # s.P.n.g K xXjX*X{.K ].lXlXlXBX*XUXB.V.C ) C d V.{.) ) ) C ' ) k D.D.j.j.j.] i.D.j.7.0.<.7.4.K.U.G.0.-.+.r.#...-.~.-.9.X.& , ! t.t.r.`.y.r.y.+.=.~.-.q.q.>.O.= = = >.>.= I r.>.I I =.: o : & o * Y $.q.-.8.~ /.q.=.= * -.0.4.H.U.k.7XI.N.I.H.I.5XI.I.K.v.,.(.(.K.^.K./.qX,.% :.~.-.3.j.aXQ.x.k.5X5XP.I.9XFXmXiXnXrXI.I.x.~ l.,.3.q d.t # # w 2 w w ",
"n J.z @ s w # 2.K.- n s.z n f.r M s.9 l s S r S z e s d.@ @ w + f 4 | p C.Z n.J S N. XC.G F 4  X4X` f Z @XZ M.M..XC.Z @X Xf 4 Z f p + p s 4 3 G n.@XeX&X&X,X'.n.p s q e r s z q z s '.=X=XBXBXBXjXjX].VXBXlX=X' &X+X4 7 d +XbX{.S.' ) d ) D._ _ j.W.j.j.W.j.^ 3.b.0.,.j.x.H.k.z 1.=.I @.I ..9.T.9.t.R $.&.8.~.X.t.t.t.=.+.>.>.:.X.$.q.9.O.= = o X.T * & =.=.>.@.U =.X.& = >.U >.9.:.y.).g.3.&.+.I X.: ~.K.c f.[ n P.H.9X5XK.H.I.0Xx.2.~ ~ gX0XhX0X(.wX,.P > -.$.@ FXI.I.5Xd.N.sXE.E.S.@XuXkXmXiX3XH.9XK.4.0.g.2.@ r n z # # G.h "
};
