/* XPM */
static char *wall_south[] = {
/* columns rows colors chars-per-pixel */
"256 256 185 2 ",
"   c #8F8984",
".  c #908A85",
"X  c #918B86",
"o  c #918B87",
"O  c #928C87",
"+  c #928C88",
"@  c #938C88",
"#  c #938D88",
"$  c #938D89",
"%  c #948D89",
"&  c #948E89",
"*  c #948E8A",
"=  c #958E8A",
"-  c #958F8A",
";  c #958F8B",
":  c #968F8B",
">  c #968F8D",
",  c #96908B",
"<  c #97918B",
"1  c #96908C",
"2  c #97908C",
"3  c #97918C",
"4  c #96908D",
"5  c #97908D",
"6  c #97918D",
"7  c #97908E",
"8  c #97918E",
"9  c #97918F",
"0  c #98918D",
"q  c #98928C",
"w  c #98928D",
"e  c #99938D",
"r  c #98918E",
"t  c #98918F",
"y  c #98928E",
"u  c #99928E",
"i  c #99938E",
"p  c #98928F",
"a  c #99938F",
"s  c #9A938F",
"d  c #9A948E",
"f  c #9B958E",
"g  c #9A948F",
"h  c #9B958F",
"j  c #9C968F",
"k  c #989190",
"l  c #989290",
"z  c #999290",
"x  c #999390",
"c  c #999391",
"v  c #9A9390",
"b  c #9A9391",
"n  c #9A9490",
"m  c #9B9590",
"M  c #9A9491",
"N  c #9B9491",
"B  c #9B9591",
"V  c #9B9690",
"C  c #9B9592",
"Z  c #9B9493",
"A  c #9C9591",
"S  c #9C9690",
"D  c #9D9790",
"F  c #9C9691",
"G  c #9C9791",
"H  c #9D9791",
"J  c #9C9592",
"K  c #9C9692",
"L  c #9D9792",
"P  c #9C9693",
"I  c #9D9793",
"U  c #9E9793",
"Y  c #9D9794",
"T  c #9D9795",
"R  c #9E9794",
"E  c #9D9890",
"W  c #9E9891",
"Q  c #9E9991",
"!  c #9E9892",
"~  c #9E9992",
"^  c #9F9992",
"/  c #9E9893",
"(  c #9F9993",
")  c #9F9A92",
"_  c #9F9A93",
"`  c #9E9894",
"'  c #9F9894",
"]  c #9F9994",
"[  c #9E9895",
"{  c #9F9995",
"}  c #9F9A94",
"|  c #9F9896",
" . c #9F9996",
".. c #9F9897",
"X. c #A09A93",
"o. c #A09B93",
"O. c #A09A94",
"+. c #A09B94",
"@. c #A19B94",
"#. c #A09A95",
"$. c #A19B95",
"%. c #A09997",
"&. c #A09A96",
"*. c #A19A96",
"=. c #A19B96",
"-. c #A09A97",
";. c #A19A97",
":. c #A19B97",
">. c #A29B96",
",. c #A19C94",
"<. c #A19C95",
"1. c #A29C95",
"2. c #A29D95",
"3. c #A39D95",
"4. c #A29C96",
"5. c #A29D96",
"6. c #A39D96",
"7. c #A29C97",
"8. c #A29D97",
"9. c #A39D97",
"0. c #A39E96",
"q. c #A39E97",
"w. c #A49E96",
"e. c #A49E97",
"r. c #A49F97",
"t. c #A19A98",
"y. c #A19B98",
"u. c #A19B99",
"i. c #A29B98",
"p. c #A29C98",
"a. c #A39D98",
"s. c #A29C99",
"d. c #A39C99",
"f. c #A39D99",
"g. c #A39E98",
"h. c #A39E99",
"j. c #A39D9A",
"k. c #A49E98",
"l. c #A49F98",
"z. c #A49E99",
"x. c #A59F99",
"c. c #A49D9A",
"v. c #A49E9A",
"b. c #A59F9A",
"n. c #A49E9B",
"m. c #A59E9B",
"M. c #A59F9B",
"N. c #A69F9B",
"B. c #A59E9C",
"V. c #A59F9C",
"C. c #A69F9C",
"Z. c #A69F9D",
"A. c #A5A099",
"S. c #A6A099",
"D. c #A5A09A",
"F. c #A5A09B",
"G. c #A6A09A",
"H. c #A7A19A",
"J. c #A6A09B",
"K. c #A6A19B",
"L. c #A7A19B",
"P. c #A6A09C",
"I. c #A7A19C",
"U. c #A6A09D",
"Y. c #A7A09D",
"T. c #A7A19D",
"R. c #A7A09E",
"E. c #A7A19E",
"W. c #A8A29C",
"Q. c #A8A29D",
"!. c #A9A39D",
"~. c #A8A19F",
"^. c #A8A29E",
"/. c #A9A39E",
"(. c #A9A39F",
"). c #AAA49E",
"_. c #AAA49F",
"`. c #A9A2A0",
"'. c #A9A3A0",
"]. c #AAA3A0",
"[. c #AAA4A0",
"{. c #ABA5A0",
"}. c #ABA5A1",
"|. c #ACA6A1",
" X c #ADA7A2",
/* pixels */
"p.=./ L =.J.!.!.!.J.p./ L L =.p.p.p.p.p.p.p.p.p.p.p.p.p.p.p.J.!.J.J.J.!.!.J.p.p.p.p.p.p.p.p.p.p.p.p.p.p.=.=.=.p.p.p.p.p.p.p.p.p.p.p.=.p.p.p.p.p.J.!.J.J.p.p.p.=./ p.p.p.=.=.p.p.p./ L L / =.=.p.=.=.L L L / L L / / =.=.p.p.p.p.p.p.J.!.J.p.p.p.p.J.J.p.p.p.p.p.p.p.p.=.p.p.p.p.J.!.!.!.p.p.=.p.J.!.!.!.J.p.=./ L / =.=.p.p.=./ =.p.J.J.p.p.p.p.p.p./ / =.p.p.=.=.p.p.J.!.J.p.J.!.!.!.!.J.p.p.J.J.J.p.p.=.=.p.=./ / / =.=.p.p.p.p.p.p.J.J.J.p.=.p.p.=./ =.=.p.J.!.!.!.!.!.J.!.!.!.!.!.[.[.!.p.p.=.p.p.J.J.J.!.!.!.J.J.J.!.!.[.!.",
"p.=./ / =.p.J.J.J.p.p.=./ / =.p.p.p.p.p.p.p.p.p.p.p.J.p.p.p.J.J.J.p.p.J.J.p.p.p.p.p.p.p.p.p.p.p.p.p.p.p.p.p.p.p.p.p.p.p.p.p.p.p.p.p.p.p.p.p.p.p.J.J.p.p.p.p.=./ / p.p.p.=.=.p.p.p.=./ / / =.p.p.=.=./ L / / L L / =.=.=.p.p.p.p.p.p.J.!.J.p.p.p.p.J.J.p.p.p.p.p.p.p.p.=.p.p.J.J.J.!.!.J.p.p.=.p.J.!.!.!.J.p.=./ L / =.p.p.p.=.=.p.p.p.p.p.p.p.p.p.p.=./ =.p.p.p.p.p.p.J.!.J.p.p.J.J.!.J.p.p.p.J.J.J.p.p.=.=.p.p.=.=.=.=.p.p.p.p.p.p.p.p.J.p.p.=.p.p.=.=.=.p.p.J.!.!.!.!.J.J.!.!.!.J.!.!.!.J.p.p.=.p.p.J.J.J.!.!.!.J.p.J.!.!.!.!.",
"p.p.=.=./ / =.p.p.p.p.=.=.=.p.p.p.p.p.p.p.J.p.p.p.p.J.J.p.p.p.p.p.p.p.=.=.=.=.p.p.p.p.p.J.J.J.J.J.p.p.p.p.J.J.J.J.J.p.p.J.J.J.J.p.p.p.p.p.p.p.p.p.p.=./ / / / / / p.J.J.p.p.p.J.p.p.=.=.=.p.p.p.=.=.=.=.=.=./ L / =.=.=.=.=.p.p.p.J.J.J.J.J.J.p.p.p.p.p.=.p.J.p.p.=.=.=.p.p.J.!.!.!.J.p.p.=.p.p.p.p.J.!.J.p.=.L L / p.p.p.p.p.p.p.p.p.p.p.p.p.p.p.p.=.=.p.J.p.p.p.p.p.J.J.p.p.p.p.p.J.J.p.p.p.p.J.p.p.=.=.p.p.p.p.p.p.J.p.p.p.p.p.p.p.p.=.=.=.=.p.p.p.=.=.p.p.J.!.!.!.!.J.J.!.!.J.p.p.p.p.p.p.p.p.p.p.J.J.J.J.J.J.p.p.J.!.!.!.J.",
"J.p.p.=./ L L =.=.p.p.p.p.p.J.J.p.p.p.p.p.J.J.p.=.p.J.J.p.p.p.p.=.=.=./ / / =.=.p.p.p.J.J.!.!.!.J.p.p.J.J.!.!.!.J.J.p.p.J.!.!.J.p.p.p.p.p.p.p.p.p.=.L y y L L L / p.J.J.p.p.J.J.J.p.p.=.=.p.p.p.=.=.=.=.p.=./ / / =.=.=.=.=.=.p.J.!.J.J.J.J.J.J.p.p.=.=.=.p.J.p.=./ =.p.p.p.J.!.!.J.p.p.=.=.p.p.=.=.p.J.J.=./ L L =.p.p.p.p.p.p.p.=.=.p.p.p.p.p.p.p.p.p.J.!.J.J.p.p.p.p.p.p.p.p.=.p.p.p.p.=.=.p.p.p.=.=.=.p.p.J.J.J.!.!.J.p.=.p.p.p.p.=./ / =.=.p.p.p.=.=.p.p.J.!.!.!.J.J.J.J.J.p.=./ =.=.p.p.p.p.J.p.J.J.J.J.p.p.p.p.J.!.J.J.J.",
"=.=.=./ L L L / =.p.p.p.p.J.J.J.p.p.p.p.p.J.p.p.=.p.p.p.p.p.p.p.=.=.=./ L / =.=.p.p.p.J.!.!.!.!.J.p.p.J.!.!.!.!.J.p.p.=.p.J.J.J.J.J.J.p.=./ / / =.=.L y y y L =.=.p.p.p.p.p.p.J.J.p.p.=.=.p.p.=.=.=.=.=.=.=.=.=.=.=.=.=.=.=.=.p.J.J.J.p.J.J.p.p.p.p.=.=.=.p.p.p.=./ =.p.p.J.J.!.J.p.=.=.=.p.p.p.=.=.=.p.p.p.=.L L =.p.p.p.p.p.p.p.=.=.p.p.p.p.p.p.p.p.p.!.!.!.J.J.J.J.p.p.p.p.=.=.=.p.p.p.=.=.=.=.=.p.p.p.p.p.J.!.!.!.J.p.=.=.=.=.=.=.=./ / =.p.p.p.p.p.p.p.p.J.!.!.!.!.J.J.J.p.=./ L / =.p.p.J.J.J.J.J.J.!.!.J.p.p.p.J.!.!.!.!.",
"L L L L L L L L / p.J.J.J.J.J.p.p.=.=.p.p.p.p.p.p.p.p.p.p.p.p.p.=.=.=./ / =.=.p.p.p.p.J.!.!.!.!.J.p.p.J.!.!.!.!.p.p.=.=.p.p.p.p.p.J.J.=.L y y y / =./ L L y L p.J.=./ / =.p.p.p.p.p.p.=.=.p.p.=./ / =.=.=.=.=.=.=.=.=.p.p.=.=.p.p.J.J.p.p.p.p.p.p.p.p.=.=.=.=.=./ / =.p.p.J.J.J.p.=.=.=.p.p.p.p.=.=.=.p.p.p.=./ L =.p.p.p.p.p.p.=.=.=.=.p.=.=.p.J.J.p.J.!.!.!.J.J.J.J.J.p.p.=.=./ =.p.J.p.=./ L / p.J.J.p.p.p.J.!.!.J.p.=./ / / =.=.=.=.=.=.p.p.p.p.p.p.p.p.p.J.J.!.!.!.J.p.p.p.=.L L =.=.p.J.!.!.!.J.J.!.!.!.!.J.p.p.!.!.!.!.!.",
"L L y y L L L L / p.J.!.!.J.J.p.p.=.p.p.p.p.p.p.p.p.p.p.p.p.p.p.=.=./ L / =.=.p.p.p.p.J.J.!.!.!.J.p.p.J.!.!.J.J.p.=.=.=.p.p.p.p.p.p.p.=.L y y y / =.=./ L L L p.p.=.L / =.=.=.p.p.p.=./ / =.=./ L / =.=.=.=.=.=.=.=.=.p.p.p.=.p.p.p.p.p.p.p.p.p.=.=.=.=.=.=.=.=./ / =.=.p.J.J.p.p.=.=.=.p.p.p.p.p.=.p.p.p.p.=.=./ =.p.p.p.p.p.=.=.=.=.p.p.p.p.p.J.J.J.J.!.!.!.p.p.p.p.p.p.p.=.=.=.=.p.J.p.=./ L / p.J.J.J.J.J.J.!.!.p./ L / / / =.=.=.=.=.p.p.p.p.p.p.p.p.p.p.J.J.!.!.J.p.p.p.p.=.=.=.=.p.p.J.J.!.J.J.J.J.!.!.!.J.p.p.J.!.!.!.!.",
"/ L y y L / / / =.p.J.J.J.J.J.p.p.p.p.J.J.p.p.p.p.p.J.J.p.p.p.p.=./ L L / / =.=.p.p.p.p.J.J.J.J.p.p.p.J.!.J.p.p.=.=.=.=.p.J.p.=.=.=.=./ L L / / =.=.=.=./ L L / =./ / / =.=./ / =.p.=.L L / / L y L =.=.=.=./ / / =.=.p.p.p.=.p.p.p.p.p.p.p.p.p.p.=.=.=.=.=.=.=./ / =.=.p.p.p.p.=.=.=.p.p.p.p.p.p.p.p.J.J.p.p.p.p.p.p.J.J.J.p.=.=.=.=.p.p.p.p.J.!.!.J.J.!.!.J.p.p.p.p.p.p.p.p.p.p.p.p.p.p.=.=.L / p.!.!.!.!.J.J.!.J./ y y L / =.=.=.=.p.p.p.p.p.p.p.p.p.p.p.p.J.J.J.J.p.=.=.=.p.p.p.J.J.J.J.J.J.J.J.p.p.J.J.!.!.J.p.p.J.!.J.J.J.",
"=./ L y L =.=.=.p.p.p.J.J.J.J.p.p.=.p.J.J.p.p.p.p.J.!.J.p.p.p.p.=./ L L / / =.=.p.p.p.p.p.p.p.p.p.J.J.J.J.J.p.p.=.=.=.p.p.J.p.L L L / / L / =.p.=.=.=.=.=./ / / / / =.=.=.=./ / =.=.=.L L / L L y L =.=.=.=.=./ =.=.p.p.p.p.=.=.p.p.p.p.p.p.p.p.=.=./ =.=.=.=./ / L / =.p.p.p.=.=.p.p.p.p.p.p.p.p.p.J.J.J.p.p.p.p.p.p.J.J.J.p.=.=.=.p.p.p.p.p.J.!.!.J.J.J.!.J.p.p.=.=.p.p.p.p.p.p.p.p.p.p.=.=./ =.p.!.!.!.J.p.p.J.p.L 3 3 L / =.=.p.p.p.J.J.p.p.p.p.p.p.p.p.p.p.J.J.J.p.=.=.=.p.J.!.!.!.!.J.J.J.p.p.p.p.p.p.J.!.J.J.J.J.J.J.p.p.",
"/ L L / =.p.p.p.p.p.p.p.p.p.p.p.=.=.=.p.p.p.p.p.J.!.!.!.p.p.=.=.=.=.=./ / / / / =.=.p.p.=.=.=.p.J.!.!.J.J.p.p.p.=.p.p.J.J.J.=.y 3 L / / / =.p.p.=.=.=.=.=.=.=.=.=.=.p.p.p.=./ / =.p.p.=.=.=./ L L L =.p.p.p.p.p.p.p.p.p.p.=./ / =.p.p.p.p.p.p.p.=.L L / =.p.=.=./ L / =.=.=.p.p.p.J.J.p.p.p.J.J.p.p.J.!.!.J.p.p.p.p.p.p.J.J.J.p.p.p.p.p.p.p.p.J.J.J.p.p.p.J.J.p.=.=./ / =.p.J.J.J.p.p.=.=.p.=.=.p.J.!.!.!.p./ / =.p./ y y L / =.p.p.p.p.p.p.=.=.=.p.p.p.=.=.=.p.p.p.p.p.=.=.p.p.J.!.!.!.!.!.!.J.J.p.p.p.p.p.p.J.J.J.J.J.J.p.p.p.",
"L L / =.p.p.J.J.!.J.J.p.p.p.p.p.=.=.=.=.=.p.p.J.!.!.!.J.J.p.=.=.=.p.p.=./ / / / / =.=.=.=.=.=.p.J.!.!.J.p.p.p.p.p.p.J.!.!.p./ 3 = L =.=.=.p.J.p.=./ / =.p.p.p.p.=.p.p.p.p.p.=./ =.p.J.J.J.p.=./ L / p.p.J.J.p.p.p.J.p.p.=./ L / =.=.p.p.p.p.p.p./ L L / p.p.p.=./ L L / =.=.p.p.J.!.!.J.p.p.J.J.p.p.p.!.!.J.p.p.p.p.p.p.p.J.J.J.J.J.J.p.p.p.p.p.p.p.p.p.p.p.p.p.=./ L L / =.J.J.J.p.p.=.p.p.p.p.p.!.!.!.J.=.L y / p.=./ L / / =.p.p.p.p.p.=./ / =.=.=.=.=.=.=.=.p.p.p.p.p.=.p.p.J.!.!.!.!.!.!.!.!.J.p.=.=.p.p.p.J.!.!.J.J.p.p.J.",
"=.=.p.J.J.J.J.!.!.!.J.J.J.p.p.p.p.p.p.=.=.p.p.J.J.J.p.J.!.J.p.=.=.p.=./ / / / / / =.=.=.=.=.=.p.J.!.!.J.J.J.J.p.p.p.J.!.J.p./ y y L =.=.=.=.p.p.=./ =.p.p.p.p.p.=.p.p.p.p.p./ / =.p.J.J.J.J.p.=.=.=.p.p.p.p.p.p.p.p.p.=./ / / =.=.=.p.p.p.=.p.p.=.L L =.p.J.p.=./ / / / =.=.p.p.p.J.!.J.p.p.J.J.p.=.p.p.p.=.=.p.J.J.J.J.p.p.p.J.J.J.J.p.p.p.p.p.p.p.p.p.p.p.p.p.p.=./ L L =.J.J.p.p.p.p.p.p.p.p.p.J.!.J.p.=.L L =.p.=.=.=.p.p.p.p.p.p.p.p.=./ L / =.=.=.p.p.p.p.p.p.p.p.p.p.p.J.J.!.J.J.J.J.!.!.!.J.p.p.p.p.p.p.p.J.!.!.J.J.p.p.",
"p.J.!.!.!.J.J.J.!.!.!.!.J.J.J.J.J.J.p.p.p.p.p.p.p.p.=.p.!.[.J.p.=.=./ L L =.=.=.=.=.=.p.=.=.p.p.p.J.!.J.J.J.p.p.=.p.J.!.J.p.=.=./ =.=.=.=.=.p.p.=.=.p.J.J.J.p.=.=.=.p.p.p.=./ / =.p.J.J.J.J.J.p.=.=.p.p.=.=.=.=.=.=.=./ / =.=.=.=.=.=.=.=./ =.p.p.=.=.p.J.J.p.p.=.=./ =.=.p.p.p.p.J.J.p.p.p.p.p.p./ / / / L / p.J.!.!.J.p.p.p.p.J.J.J.p.p.p.J.p.=.=.=.p.p.p.J.p.p.p.=./ L =.p.p.p.p.J.J.p.p.=.=.p.p.J.p.=.=.=.=.p.p.p.p.p.!.!.J.p.p.J.J.p.p.L L L / =.p.p.J.J.p.p.=.p.p.=.p.p.!.!.J.J.p.p.p.J.J.!.!.J.J.J.J.p.p.p.J.!.!.J.J.p.p.",
"J.!.!.!.J.p.p.J.J.!.!.J.J.J.J.J.!.J.J.p.p.p.p.p.p.p.=.p.!.!.J.p.p.=.=./ / =.=.=.=.p.p.p.p.p.p.J.J.J.J.J.J.J.p.p.=.p.p.J.p.p.p.p.p.p.p.=.=.p.p.p.=.=.p.J.J.p.p.p.=.p.p.p.p.=.=./ =.p.p.p.J.J.J.J.p.p.=.=.=.=.=.=.=.=.=./ / =.=.=.=.=.=.=./ / =.=.p.p.p.J.J.J.p.p.=.=.=.=.=.=.p.p.p.J.p.p.p.p.p.p.=./ / / / / =.p.J.!.!.J.p.p.p.p.p.J.J.p.p.p.J.p.=.=.=.=.p.p.p.p.p.p.p.=./ =.p.p.p.p.J.J.p./ L / =.p.p.p.=.=.p.p.J.J.p.p.J.!.!.p.p.p.J.J.p.=./ L / =.=.p.p.p.J.p.p.p.p.p.=.=.p.J.J.p.p.p.p.p.p.J.p.J.J.J.!.J.p.p.p.p.J.J.J.J.p.p.",
"J.J.J.J.J.p.p.p.J.J.J.p.p.p.p.J.J.J.J.p.p.p.p.p.p.p.p.p.p.J.p.p.p.=.=.p.p.=.=.=.p.p.J.J.p.p.J.J.J.p.p.J.J.J.p.p.=.p.p.J.p.p.p.p.J.p.p.p.p.p.p.p.=.=.p.p.p.p.p.p.p.J.J.J.p.=.=.=.=.p.p.J.J.J.p.p.p.=./ / =.=.=.=.=.=.=.=.=.=./ / =.=./ / =.=.=.=.=.p.p.J.J.p.p.p.=.=.=.=.=.=.=.p.J.J.p.p.=.p.p.p.=./ / / =.p.p.p.p.p.J.p.p.=.p.p.p.J.p.p.p.p.p.p.p.p.=.=./ / =.p.p.p.p.=.=.=.=.p.p.J.!.p./ y 3 y L =.p.p.p.p.p.J.J.J.J.p.p.p.p.p.p.p.J.J.p.=.=.=.=.p.p.=.=.=.p.p.J.J.J.p.=.=.=.=.=.p.=.=.p.p.p.p.=.p.p.J.J.!.J.p.p.p.J.J.J.p.p.p.",
"J.J.p.p.p.p.p.p.p.p.p.=.=.=.p.p.J.J.p.p.p.p.p.p.p.p.p.p.p.p.p.p.p.=.=.p.p.=.=.=.p.p.J.J.J.p.J.!.J.p.p.p.J.J.p.p.p.p.p.p.p.p.p.p.J.p.p.p.J.J.p.p.p.=.p.p.p.p.p.p.p.J.!.J.p.=.p.p.=.=.p.p.J.p.p.p.p.=./ / =.p.=.=.=.p.p.p.=./ / / =.=./ / =.p.=.=.=.=.p.p.p.p.=.=.=.p.p.p.=./ =.J.!.J.p.p.=.=.p.p.=./ / =.p.J.J.p.p.p.p.p.=.=.=.p.p.p.p.p.p.p.p.p.p.p.=.=./ / =.p.p.p.p.p.p.p.=.=.p.J.p.p.L = = y L =.=.p.p.p.p.J.J.J.J.p.p.=.=.=.p.p.J.p.=.=.=.=.p.J.J.p.=.=.=.p.J.!.!.J.=.=.=.=.=.=.=.p.p.p.p.p.=.=.p.J.J.!.J.p.p.p.J.p.p.p.p.p.",
"p.p.p.p.p.p.p.p.p.=./ L L L / =.p.p.=.=.=.=.=.p.p.p.p.p.p.p.p.p.=.=.=.=.=./ / / =.p.p.J.p.p.p.J.J.p.p.p.p.p.=.p.p.p.p.p.p.p.p.p.p.p.p.p.p.p.p.p.p.p.p.p.p.p.p.p.p.J.J.J.p.p.p.p.p.p.p.p.p.p.p.p.J.p.=.=.p.p.p.=.p.p.p.=.=./ / / =.=.=.=.p.p.p.=.=.=./ =.=.=./ / =.p.p.p.=.=.=.p.J.p.p.=.=.=.p.p.=.=.p.p.J.!.J.p.=.p.p.p./ L / / =.=.=.p.p.p.p.p.J.p.=.=.=.=.p.p.p.p.p.p.p.p.=.=.=.=./ L y y L L =.=.p.p.p.p.p.J.J.J.J.p.p.=.=.p.J.p.p.p.=.=.=.=.p.J.J.J.p.p.p.p.p.J.!.J.p.=.p.p.p.p.p.J.J.p.p.p.p.p.J.!.!.!.J.p.J.J.J.p.p.p.p.p.",
"=.=.=.=.=.p.p.p.=./ L L y L L / =.=./ L L / =.p.p.p.p.p.p.p.p.=./ / / =.=./ L / =.p.p.p.p.=.p.p.p.p.p.p.p.=.=.=.p.p.p.p.p.p.=.=.=.p.p.p.p.p.p.p.J.J.J.p.p.p.p.p.p.p.p.p.p.p.p.p.p.p.p.=.=.=.p.p.J.p.=.=.p.p.p.=.p.p.p.=./ / / / =.=.=.=.p.p.p.=.=./ L L / L L / =.p.p.p.p.=.=.p.p.p.=.=.=.=.=.p.p.p.p.J.J.J.J.p.=.p.p.=.L L L L / / =.J.J.J.p.J.J.p.=.=.p.p.J.J.p.p.p.p.p.p.=.=./ L y y L L =.=.p.p.p.p.p.p.p.p.p.p.p.p.p.=.p.J.J.p.=.=.=.=.=.=.p.J.!.J.J.p.p.=.=.p.J.!.J.p.p.J.J.J.J.!.!.J.p.p.!.!.!.!.!.J.J.p.J.J.J.p.p.p.p.p.",
"=.=.=.=.p.p.p.=.=./ L L L L / =./ / L L L / =.p.p.p.p.p.p.p.p.p.=./ / / =.=.=.=.p.p.p.p.=.=.=.p.p.p.p.p.=.=.=.p.J.J.p.p.=.=.=.=.=.p.J.p.p.p.p.J.J.p.p.p.p.p.p.=.=.p.p.p.=.p.p.p.p.p.p.=.=.=.=.p.J.p.=.=.=.=.=.=.p.p.p.=./ =.=.=.=.=.=.=.=.p.=.=./ L L L L L L L =.=.p.p.p.p.p.p.p.p.=.=.=.=.p.p.p.J.J.J.J.p.p.p.=.=.=./ L L L / =.=.p.!.!.J.p.p.J.p.p.p.p.J.!.!.J.p.p.p.p.p.=.=.=./ L L L =.=.p.p.p.p.p.p.p.p.p.p.=.p.p.p.p.p.J.p.=./ / =.p.=.=.p.p.J.p.p.=.=./ / =.p.J.J.J.J.p.J.J.!.!.!.J.J.J.!.!.!.J.J.J.J.p.p.J.J.p.p.p.p.p.",
"=.=.p.p.p.p.=./ / / =.=.=.=.=.=./ L L L / =.=.p.p.p.p.p.p.p.p.p.=.L L =.=.p.p.p.p.p.p.=.=./ / / =.p.p.p.=.=.=.p.J.!.J.p.=./ / =.p.J.J.p.p.p.J.J.p.p.p.p.p.p.p.p.=.=.=.=.=.=.p.p.p.p.p.p.=.=.=.p.J.p.=./ L / =.=.p.p.p.=.=.=.=.=.=.=./ / / / / / / L L L L L L L / =.=.p.p.J.J.p.p.p.=.=.=.=.p.p.J.J.J.J.p.p.p.p.=./ L L L / / =.p.J.!.!.!.J.p.p.J.p.p.p.J.J.!.!.J.p.p.p.p.=.=.=.p.=.=.=.=.=.p.p.p.p.p.J.J.J.J.p.=./ =.p.p.J.p.p.=./ L / p.p.p.p.p.p.p.=.=./ L L / =.p.J.J.J.p.p.p.!.!.!.!.!.!.!.!.J.p.p.J.J.p.p.p.p.p.p.p.p.p.p.",
"=.=.=.p.=.=.=./ / =.=.p.p.p.=.=./ / / / =.=.=.p.p.p.=.p.p.p.p.p.=./ / =.p.p.J.J.p.p.=.=./ / / / =.=.p.p.=.=.=.p.!.!.!.J.p.=.=.=.p.p.p.=.=.p.!.!.J.p.p.p.p.p.p.p.p.=.=.=.=.=.p.p.p.p.p.p.=.=.=.p.J.p.=./ / / =.=.p.p.p.=./ =.=.=.=./ / / / / / / / / / / / / / / / =.=.=.p.p.p.=.=.p.p.p.p.p.p.J.J.J.J.p.p.p.=.=.=./ L / =.=.=.p.p.J.J.J.J.p.p.p.p.p.p.p.J.!.!.!.!.J.J.p.p.=.=.=.=.=.=./ / / =.p.J.J.J.J.J.J.J.p.=.=.=.p.p.p.p.=./ L L / =.p.p.p.p.p.p.=.=.=.=.=.=.p.p.J.p.p.=./ =.J.!.!.J.J.!.!.J.p.p.p.J.J.p.p.p.p.J.J.J.J.p.p.",
"=.=.=.=.=./ / =.=.=.p.p.p.p.=./ =.=.=.=.p.p.p.=./ =.=.=.=.=.p.=.=./ / =.=.p.p.p.p.=.=./ =.=./ L =.=.p.p.p.=.=.p.J.!.!.J.p.=.=.p.p.=.=.L L =.!.[.!.p.J.J.J.p.p.p.p.p.=.=.=.p.p.p.p.=.=.=.=.=.=.p.p.p.p.=.=.=.p.p.p.p.=./ / / / L L / =.=.=.=.=./ / =.p.p.p.p.=.=.=.=.=.=.=.p.=./ =.p.!.J.p.p.J.J.J.p.p.p.p.p.p.=./ / / =.p.J.p.p.p.J.p.p.=.=.=.p.p.p.p.p.J.!.!.!.!.!.!.J.p.p.=.=.=./ L L L L =.p.!.!.!.J.J.p.J.p.p.p.p.p.=./ L L L / =.=.=.=.p.p.J.J.J.p.J.J.J.J.J.!.!.J.p.=.L L / J.!.J.p.J.J.J.p.p.p.p.J.J.J.J.J.J.J.J.J.J.J.J.",
"=./ =.=.=./ / =.=.p.p.p.p.p./ / =.=.p.p.p.p.p.=.L / =.=.=.=.=.=.=./ =.=.p.p.=.p.p.=./ / =.=.=./ =.p.p.p.p.=.=.p.J.!.!.!.J.p.p.p.=.=./ L L =.!.[.!.J.J.!.J.p.p.J.J.p.=.=.=.p.p.p.=.=.=.=.=.=.=.=.=.p.p.p.p.p.p.p.p.p.=./ / L L L L / =.=.p.p.=./ =.p.p.J.J.p.p.=.=.=./ =.=.=.=./ =.J.!.!.p.p.J.J.p.p.p.p.p.p.p.=.=.=.=.p.J.J.J.J.p.p.p./ / =.=.=.=.p.p.p.J.!.!.!.!.!.!.J.p.p.p.=./ L L y y L / p.!.!.!.J.p.p.p.p.p.p.p.p.=.L L L L =.=.=.=.=.p.p.J.J.J.J.!.!.!.!.!.!.!.J.p./ L L =.J.!.J.p.p.J.p.p.p.p.J.J.J.J.J.J.J.!.!.!.!.!.!.",
"=.=.p.p.=.=./ =.=.=.=.=.p.=.=./ =.=.p.p.p.p.=./ L L / / / / =.=.=.=.=.p.p.p.p.p.p.p.=.=.p.p.p.=.=.p.p.p.p.p.=.p.p.J.!.!.p.p.=.=.=.=.=./ / =.J.!.J.p.J.J.J.p.p.J.J.p.=.=.p.p.p.p.=.=.=./ / =.=.=.=.p.p.p.p.p.J.J.p.p.=.=./ / L / / =.=.p.p.J.p.=.=.p.p.J.J.p.=.=./ / / / L L / p.J.J.J.J.p.p.p.p.p.=.=.=.=.=.p.p.p.p.p.p.p.p.J.J.J.p.=./ L / =.=.=.p.p.p.p.J.J.J.J.J.J.p.p.p.p.=.L L y y L / =.p.J.J.p.p.p.p.p.p.p.p.p.=.=./ / =.=.=.=.=.=.p.p.p.J.J.J.J.J.p.p.J.!.!.!.J.J.p.p.p.J.!.!.J.p.p.p.p.J.p.p.p.J.!.!.J.J.J.J.!.!.!.!.!.",
"=.p.p.p.p.=.=.=.=.=./ =.=.=.=.=.=.=.p.J.p.=./ L L L L L L L / =.=.=.p.p.p.p.p.p.p.p.p.p.J.J.p.p.=.p.p.p.p.p.p.p.p.p.J.J.p.=.=.=.p.p.=.=.=.p.p.p.p.p.p.p.p.p.p.J.J.p.=.=.p.p.p.p.=.=.=./ / =.=.=.=.=.=.p.p.p.J.J.p.p.=.=.=./ / =.=.=.=.p.J.!.J.p.p.p.p.J.J.p.=.=./ L L L L L =.J.!.!.p.p.p.p.p.p.p.=.=.=.=.=.p.p.J.!.!.J.p.p.p.J.p.p.=./ / / =.=.p.p.p.p.p.p.p.p.p.p.p.p.p.p.J.p.L y L L / =.=.p.p.p.=.p.p.p.=.=.=.=.=.=.=.=.=.p.J.p.p.p.p.p.p.p.J.J.!.!.p.=./ =.J.!.!.!.!.!.!.!.!.[.!.p.p.p.p.J.!.!.p.p.J.!.!.J.p.p.p.J.!.!.!.!.",
"=.p.p.=.=.=.=.=.=.=.p.p.p.p.=.=.=.p.p.J.p.=.L L y y y y L / =.p.p.=.p.p.J.J.J.p.p.p.p.p.J.J.p.p.p.p.p.J.J.p.p.p.p.p.p.p.=.=.=.p.p.p.p.p.p.=.=.=.=.p.p.p.p.J.J.J.J.p.p.p.p.p.p.=.=.=.=.=./ / / / =.=.=.p.p.p.p.p.p.=.=.=.=.=./ =.p.p.p.p.p.J.p.p.p.p.p.J.J.p.p.=.=./ / =./ L =.p.!.J.p.p.p.p.p.J.p.p.p.p.p.=.p.J.!.!.J.J.J.J.p.p.p.=.=.=.=.=.=.p.p.p.p.p.J.J.J.p.p.=.=.=.p.p.p.=./ / / / / =.=.=.=.=.=.p.p.p.=.=.=.=.=./ =.=.=.p.p.p.p.p.p.p.p.p.p.J.!.!.p.=./ =.p.J.!.!.J.!.!.!.!.!.J.p.p.p.J.!.!.!.J.p.J.J.J.J.p.p.p.J.!.!.J.J.",
"p.p.=./ / =.=.=.=.p.p.p.p.p.p.p.p.p.p.p.p./ L y y 3 3 y L =.p.p.p.=.p.J.J.!.J.p.p.p.p.p.p.p.p.p.p.p.J.J.J.p.p.=.p.=.=./ / =.p.J.!.J.J.p.=.=.=.=.=.p.p.p.p.J.J.J.J.p.p.p.p.=.=.=.=.=.=.=.=./ L L / =.p.p.p.p.p.=./ / / =.=.=.=.p.J.J.p.p.p.p.p.p.p.p.p.p.p.p.p.=.=.=.p.p.=.=.=.p.p.p.p.p.p.J.J.J.J.J.J.J.p.p.p.J.!.J.p.J.!.J.p.=.=.=.=.p.p.p.p.p.J.J.J.J.!.!.J.p.p.=.=.=.=.p.p.=.=.=.=.=.=./ / =.=.=.=.p.J.p.=.=.=.p.=./ / =.=.=.=.p.J.J.p.p.=.p.p.J.!.!.J.p.=.=.p.J.J.J.J.p.p.p.J.J.p.p.=.J.!.!.!.!.J.p.p.p.p.p.p.p.p.p.J.p.p.p.",
"p.=.=./ / / =.=.p.p.J.p.=.p.p.p.p.=.=.p.=./ L L L L L L / =.=.p.=.=.=.p.J.J.!.p.=.p.p.J.p.p.p.p.p.J.J.J.J.p.=.=.=.=./ / / =.p.J.!.J.p.=.=.=.=.=.=.p.=.p.p.p.p.p.p.J.J.p.p.=.=./ =.=.=.=./ L L L / =.p.p.p.p.=./ / / =.=.p.=.=.=.p.p.p.p.p.p.p.p.p.p.p.p.p.p.=.=.=.p.p.p.p.=.=.=.p.p.p.J.J.J.J.J.J.J.J.J.p.p.p.p.p.p.p.J.!.J.p.=.=.=.p.p.p.p.p.J.J.J.J.J.J.J.J.p.p.=.=.p.p.p.p.p.p.p.p.=.=.=.=.=.=.=.=.p.p.p.=.=.=.=./ L L / =.=.=.p.!.J.p.=.=.p.p.!.!.!.J.p.p.=.p.p.J.J.p.p.p.p.p.p.p.p.p.J.!.!.!.!.J.J.p.p.p.p.p.p.p.p.p.p.p.p.",
"=.=.=.=.=./ =.p.p.p.p.=.=.=.p.p.=.L / =.=.=.=.=./ =.=.=.=.=./ / / =.=.=.p.J.J.p.p.p.J.J.J.p.p.p.J.J.J.p.p.=.=.=.=.=.=./ / / p.J.!.p./ / / =.p.p.p.p.p.p.=.=.=.p.p.J.!.J.p.=./ / / =.=./ / L y L / =.p.p.=./ L L / =.=.p.J.p.=./ / / =.p.p.p.p.p.p.p.p.p.p.p.=.=.p.p.=.=.p.p.p.p.=.p.p.J.!.J.p.p.p.p.p.p.p.p.p.=.=.p.J.J.J.J.p.=.=.=.p.p.J.J.J.J.!.J.J.J.J.p.p.p.p.=.p.p.J.!.J.J.p.p.=.=.p.p.p.p.=.=.=.=.=.=./ / =.=.L L L / =.=.p.J.!.J.p.=.=.p.J.!.!.!.!.J.p.=.=.=.p.p.p.p.=.=.=.=.p.p.J.J.J.J.J.J.J.p.p.p.p.p.p.p.p.p.p.p.p.p.",
"=.=.=.p.=./ =.p.p.p.=./ / =.p.p.=.L L =.=.p.p.p.=.p.p.=.=./ L L / =.=.=.=.p.J.p.p.p.J.!.J.p.p.p.J.J.J.p.p.=.=.=.=.=.=.=./ / =.J.J.=./ / / =.p.J.p.p.p.p.=.=.=.=.p.!.!.!.p.=./ L / =.=./ L L y L =.=.p.=.=./ / / / =.p.p.J.p.=./ L L =.p.p.=.=.p.p.p.p.p.p.=.=.=.p.p.=.=.p.J.J.p.p.p.J.J.!.J.p.p.p.p.p.=.=.p.p.=.=.p.J.J.J.p.p.p.p.p.p.J.!.!.J.J.J.J.J.J.p.p.p.p.p.p.p.p.!.!.!.J.p.p.p.p.p.J.J.p.p.=.=.=.=./ / =.=.=./ L L / =.=.p.J.!.J.p.p.p.p.J.!.!.!.!.J.p.p.=.=.=.p.p.=.=./ / / =.J.J.J.p.p.p.p.p.p.p.p.p.p.p.p.J.J.p.p.p.p.",
"=.=.=.=.=.=.=.p.p.=.=./ / =.p.p.p.=.=.=.=.p.J.p.=./ L L / / / L / =.=.=.p.p.p.p.p.p.J.J.p.p.p.p.p.J.J.p.p.p.p.p.p.p.p.p.=./ =.p.J.p.=.=.=.p.p.J.p.p.=.p.=.=.p.p.p.J.!.!.p.p./ L / =.=.L L L L / =.=.p.=.=.=.=.p.=.=.=.p.p.=.=./ L L =.p.=.=.=.p.p.=.=.p.p.p.=.=.p.p.=.=.p.J.J.p.p.J.J.J.J.p.p.p.p.p.p.p.p.J.p.p.=.p.J.J.p.p.J.J.J.J.J.J.!.!.J.J.p.J.J.J.p.p.p.J.p.p.p.p.p.J.!.J.p.p.p.p.p.p.p.p.p.=.=.=./ / / =.p.J.p.=.=./ / =.p.p.p.p.p.p.J.J.J.J.J.!.!.!.J.p.=.=.=.=.=.=.=./ / =.=.p.p.p.=.=.p.=.=.=.=.p.p.p.p.J.!.!.J.J.p.p.",
"p.p.=.=.=.=.p.p.p.=./ / / =.=.p.p.p.p.=.p.J.J.p.=.L y y L / / / / =.=.p.p.=.=.=.p.p.J.J.p.p.=.=.p.J.J.p.p.p.p.p.J.J.J.J.=.L / =.p.p.p.p.p.p.p.p.p.p.=.=.p.p.p.p.p.J.J.J.J.p.=./ =.=.=.L L L / =.=.=.p.=.=.=.p.p.p.=.=.=.=.=.=.=./ / =.=.=./ =.p.p.=.=.p.p.p.=.=.p.p.p.=.p.J.J.J.p.J.J.p.p.p.p.p.p.=.=.p.p.J.J.p.p.p.p.p.p.p.J.J.J.J.J.!.!.!.J.p.p.p.J.J.p.p.p.J.J.p.p.p.p.p.J.p.p.p.p.J.p.p.p.p.p.p.=.=./ / =.p.J.!.!.J.p.=./ =.=.=.=.p.p.J.!.!.J.p.J.J.!.J.J.p.p.=./ / =.=.=.=.=.=.p.=.=.=.=.=.=.=./ / =.p.p.p.p.J.!.!.!.J.p.p.",
"p.p.=.=.=.=.p.p.p./ L L / =.=.=.p.p.p.p.p.p.p.=./ L y y L / / / / / =.=.p.=.=.=.=.p.p.p.p.p.=.p.p.p.p.p.p.p.p.p.p.J.!.J.=.L L / =.=.p.p.J.J.p.p.p.p.p.p.p.p.p.p.J.J.J.p.p.p.=.=.=.=./ L L / =.=.=.=.=.=./ / =.p.p.=.=.=.=.p.p.p.=./ / / =.=.p.p.p.=.=.p.p.p.p.p.p.p.p.p.p.J.J.p.p.J.J.p.p.p.p.=.=./ =.p.p.p.p.p.=.=.p.=.=.=.p.J.J.J.J.J.J.J.J.p.p.p.J.J.p.p.p.p.p.p.p.p.p.=.=.=.p.p.J.J.J.J.p.p.p.p.p.=.=.=.p.p.!.!.!.J.p.=.=.=.p.p.p.p.p.p.J.!.!.J.J.J.J.J.J.J.J.p.=.=.p.p.p.=.=.p.p.=.=.=.p.p.=.=.L L =.p.p.p.p.J.J.J.p.p.p.p.",
"p.p.=.=.=.p.p.p.=./ L / =.=.=.=.=.=.p.J.p.p.=./ / L L L L / =.=./ / / =.=.=.p.=.=.=.p.p.p.p.p.p.p.p.p.=.=.=.=.=.p.p.J.J.=.L y L L / =.p.J.J.p.p.p.p.p.p.p.p.p.J.J.J.p.p.p.p.p.p.=.=./ L L =.p.=./ / / / L L L / =.=.=.=.p.p.J.J.p.=.L L / p.p.J.J.p.=.=.p.p.p.p.p.p.p.p.J.!.J.p.p.p.J.p.p.p.=./ / L / =.p.p.=.=.=.=.=.=./ / =.p.J.p.p.p.p.J.J.p.=.p.p.J.p.p.p.=.=.p.p.p.p.=./ =.p.p.J.J.!.!.J.p.p.p.p.p.J.J.p.J.!.!.p.p.p.p.p.p.p.J.J.p.=.=.p.!.!.J.J.p.p.p.p.J.J.J.p.p.!.!.p.=.=.p.p./ / =.p.p.=./ L L =.J.p.p.p.p.p.=.=.p.p.J.",
"p.p.p.=.=.=.=.=.=.L L / =.=.=.=.=.=.=.p.p.=./ / L L / / / / / / / / / =.=.p.p.=.=.=.p.p.p.p.p.p.p.p.p.=.=.=.=.=.=.p.p.p./ L L L L / =.p.J.J.p.p.J.J.J.p.p.p.p.p.p.p.=.=.=.=.p.p.p.=./ L / =.p.=./ / / / L L / / =.=.=.p.p.J.!.J.p.=./ / =.p.J.J.p.p.=.=.p.p.p.p.p.J.J.J.J.J.J.p.p.J.J.J.p.=./ L / / =.=.p.p.=.=.=.=.=.=./ / =.p.p.p.p.=.=.p.J.p.=.=.p.p.p.p.=./ / p.p.p.p.=./ =.p.p.J.J.J.J.J.p.p.p.p.J.J.J.p.p.J.J.p.=.=.p.p.p.p.J.J.p.=.=.p.J.J.J.J.p.p.p.p.J.J.p.p.p.J.J.p.=.p.p.p.=.=.p.J.p.=./ / =.p.J.J.p.p.p.p.=.=.p.p.J.",
"p.p.p.p.=.=.=./ / L L / =.=.=.=./ / =.=.=.=.=./ L / / =.=.=./ L / =.=.=.=.p.p.p.p.p.J.J.J.p.p.p.p.p.p.=.=.=./ / / =.=.=./ L L / =.=.=.p.p.p.p.J.!.!.J.p.p.p.p.p.p.=./ =.=.=.p.p.p.p.=.=.=.=.=./ / / =.=.=.=.=.=.=./ / p.J.J.J.J.p.p.p.p.p.p.p.J.p.=.=.=.=.p.p.p.p.J.J.J.J.p.p.p.J.!.!.!.p.=.L L / =.p.p.p.p.=.=.=.=.=.=.=.=.=.p.p.=./ / / p.p.p.=.=.p.p.p.=./ L / =.p.=.=.=.=.p.p.p.p.p.p.p.p.p.p.p.p.p.p.p.p.p.p.p.p.p.=.=.=.=.p.J.J.J.p.p.p.p.p.p.p.J.!.!.J.p.p.p.=.=.p.p.p.p.p.p.p.p.p.p.J.=.L L =.p.J.J.J.p.p.J.J.p.p.p.p.J.",
"p.p.p.p.p.=.=.=./ / / / =.=.=./ / / =.=.=.=.=./ / / / =.=.=.L L / =.=.=.=.p.p.p.p.p.J.J.p.p.p.p.p.p.p.=.=.=./ / / / / / / / / =.=.=.=.p.p.p.p.J.!.!.!.J.p.p.p.p.=.=.=.=.=.p.p.p.p.p.p.=.=.=./ L L / =.p.p.p.p.p.=./ =.p.J.!.J.J.p.p.J.J.J.p.p.p.p.=.=.=.=.p.p.p.p.p.J.!.J.p.p.p.J.!.!.J.p.=./ / =.p.p.p.p.p.p.=.=.=.=.=.p.p.p.p.p.=./ / =.p.p.p.=.=.p.p.p.=.=./ / =.=.=.=.=.=.p.p.p.=.=.=.p.p.p.J.J.p.p.p.p.p.p.=.=.p.p.=.=.=.p.p.J.J.J.p.p.p.p.p.p.J.!.!.!.J.p.=.=.=.=.=.=.p.p.p.p.p.p.p.J.J.p.L / p.!.!.J.J.p.p.J.J.p.p.p.p.J.",
"p.p.p.p.=.=.=.p.p.=.=.=.=.=./ / / =.=.=.=.=.=.=.=.=./ / / / L L L / =.=.=.=.=.=.=.p.p.p.p.=.p.p.p.p.=.=.=.=.=.=.=./ / L L / =.=.p.=.=.=.p.p.p.p.p.p.J.J.J.p.p.p.=.p.p.p.p.J.J.J.p.p.p.=.=./ L y y L / =.p.p.p.p.p.p.p.J.J.J.J.J.p.p.J.J.J.J.J.p.p.p.=.=.=.=.p.p.p.p.J.!.!.J.p.p.p.J.!.J.p.=.=.=.p.p.p.=.=.=.p.=.=.=.=.p.p.J.J.p.p.p.p.p.p.p.p.p.=.=.=.p.p.p.p.=.=.=.=.=.=.=.=.=./ / =.=.=.p.p.J.!.J.p.=.=.=.p.p.p.=.p.p.p.=.=.p.J.J.J.p.p.p.p.p.p.J.!.!.!.!.p.=./ / =.=.=.p.p.p.p.p.=.=.p.J.J.p.=.p.J.!.J.p.p.p.p.p.p.p.p.p.p.J.",
"p.p.p.p.=.=.=.J.J.p.=.=.=.=./ / =.=.p.p.p.=.=.p.p.=./ L / / / / / / =.=.=./ L / =.=.p.=.=.=.p.p.p.=.=.=.=.=.=.=.=.=./ / / =.=.=.p.=.=.p.p.p.p.=.=.=.p.J.J.p.p.p.p.p.J.!.J.J.J.J.p.p.=.=.=.L L y y L / =.p.p.p.p.J.J.J.J.p.p.p.p.p.p.p.p.J.J.J.p.p.=.=.=.=.p.p.p.p.p.J.!.!.!.p.=.=.p.J.p.=.=.p.p.p.p.p.=.=.=.=.p.p.=.=.p.J.J.J.J.J.J.!.!.J.J.p.p.=.=.=.p.J.!.p.p.=.=.=.=.=.=.=.=.L L / =.p.p.J.!.!.J.p.=./ =.p.p.p.p.p.p.p.p.p.J.!.J.p.p.p.p.p.p.p.J.!.!.!.J.p.=./ =.=.p.p.p.p.p.p.=.=.=.=.p.J.J.J.J.J.J.J.p.p.p.p.p.p.p.p.p.p.J.",
"p.p.=.=.=.=.p.J.J.p.p.=.p.=.=.=.=.p.p.p.p.=.=.p.p.=.L L / =.=.=./ / =.=.=./ L / =.=.p.=.=.=.p.J.p.p.p.=.=.=./ =.=.=.=.p.p.p.p.p.=.=.p.p.p.p.p.=.=.=.p.p.p.p.p.p.p.p.J.J.J.J.J.p.p.p.=.=.=.=./ L L L / =.p.p.p.J.p.p.p.p.p.p.p.=.=.=.p.J.p.p.p.p.=.=.=.=.p.p.J.J.p.p.J.J.p.p.=.L L / =.=.=.p.p.p.p.p.p.p.p.p.=.=.p.p.p.p.p.J.J.J.p.p.J.J.J.p.p.p.=.=.=.=.p.J.p.p.=.p.p.p.p.p.p.=./ =.=.p.p.p.p.J.J.J.p.=./ =.p.p.p.p.p.J.J.J.J.J.!.J.p.p.p.p.p.p.p.p.J.J.J.J.p.p.p.=.p.p.p.J.J.p.p.p.p.p.p.p.J.J.J.J.J.J.p.p.p.p.p.p.p.p.p.p.J.J.",
"=.=./ L / =.p.p.p.p.=.p.p.=.=.=.p.p.p.p.p.=.=.p.J.=./ / =.=.p.p.=.=.=.=.=./ / =.=.p.p.p.p.p.J.J.J.J.p.p.=.=./ / =.=.p.J.!.J.p.p.=.=.p.p.p.p.p.p.=.=.=.p.=.=.=.=.p.p.J.J.p.p.p.p.p.p.=.=.=.p.p.=.L / =.=.=.=.p.J.p.=./ p.p.p.=./ L / p.J.p.=.=.=.=./ / p.J.J.J.J.p.=.p.p.=./ L y y L / =.=.p.p.p.p.p.p.p.p.p.=.=.p.p.p.p.p.p.p.p.p.p.p.p.p.p.p.p.p.=.=.=.=.p.p.=.=.p.p.J.J.J.p.p.p.p.p.p.p.p.p.p.p.p.p.=.=.=.p.p.p.p.J.!.!.!.!.!.J.p.p.p.p.p.p.p.=.=.=.p.p.J.J.!.!.J.p.p.J.!.J.J.J.J.J.p.p.p.p.J.!.!.J.p.p.p.p.p.p.p.p.p.p.J.J.J.",
"=.=./ L / =.p.p.=.=.=.=.=.=.=.=.p.p.p.p.p.=.=.p.J.p.=.=.p.p.p.p.p.=.=.=.=./ / =.p.p.p.p.p.p.J.!.!.J.J.p.p.=.=.=.=.p.p.J.J.J.p.p.=.=.p.=.=.=.=.=.=.=.=.=.=.=.=.=.=.p.p.p.p.p.=.=.p.p.p.=.=.p.p.=./ / =.=./ / p.J.p./ / =.p.p.p.=./ =.p.!.J.p.=./ / / =.p.!.!.J.p.=.=.=.=./ L L L L L / =.=.p.p.p.p.p.p.p.p.=.=.=.p.p.J.p.p.p.p.p.p.=.=.p.p.p.p.p.p.p.=.=.=.=.=.p.p.p.p.p.J.p.p.p.p.p.p.p.p.p.p.p.p.p.p.p.=.=.p.p.p.p.J.J.J.J.J.p.p.=.=.p.p.p.p.p.=.=.=.p.p.p.J.!.!.J.p.p.J.!.J.J.J.!.!.J.p.p.p.J.!.!.J.p.p.p.p.p.p.p.p.p.p.p.p.p.",
"=.=.=.=.=.p.=.=.=.=.=.=.=.=.=.=.=.p.p.p.p.=.=.p.p.p.p.J.!.!.J.p.p.p.p.=./ =.=.p.p.p.p.p.p.p.J.J.!.J.J.p.p.p.p.p.p.p.p.p.p.=.=.p.p.=.=.=.=.=.=.=.=.=.=.=.p.J.p.p.=.p.p.p.=.=.=.p.p.J.J.p.p.p.p.=./ / / L y y / =.=./ / =.=.p.J.p.p.p.J.!.!.J.=./ L / =.J.!.J.p.=./ L L L / / =.p.p.p.=.=.=.p.p.p.p.p.p.p.p.=./ =.p.J.J.J.p.p.p.p.p.=.=.p.p.J.J.J.p.p.p.=./ / =.p.p.p.p.p.p.p.=.p.J.J.p.p.p.p.p.p.p.p.p.p.p.=.=.=.p.p.p.p.p.p.p.=./ / / =.p.p.p.p.p.=.p.p.J.p.p.J.!.J.p.p.J.!.J.J.J.!.!.!.J.J.J.!.!.!.J.p.J.J.J.p.p.p.p.=.=.=.p.p.",
"p.=.=.=.=.p.p.=.=.=.=.=./ / =.=.=.p.=.=.=.=.=.p.J.J.J.J.!.!.!.J.p.p.p.=.=.=.p.p.p.p.=.=.p.p.J.J.J.p.p.p.p.p.J.J.p.p.=.=.=.=.=.p.p.=.=.=.=.=./ =.=.=.=.p.J.!.J.p.=.p.p.p.=.=.p.p.J.J.J.p.p.p.p.=.=.=.L L y y L =.=./ / =.=.p.J.J.p.p.J.J.J.J.p./ L / =.p.J.p.=./ / L / / / =.p.J.J.J.p.p.=.p.p.p.p.J.J.p.p.=./ =.p.J.J.J.p.=.p.p.p.=.=.p.p.J.J.J.p.p.p.=./ / =.p.p.p.=.=.=.=.=.p.J.J.p.p.p.p.p.p.p.p.p.p.p.p.p.p.p.p.p.p.p.p.p.=./ / / =.p.p.J.p.p.=.p.J.J.p.p.p.J.J.J.J.J.J.J.J.J.!.!.!.!.!.!.!.!.!.J.p.J.J.p.p.=.=.=.=.=.=.=.p.",
"p.=.=.=.=.p.p.p.p.p.p.=.=.=.=.=.=.=./ L L / =.p.J.p.p.p.p.J.J.J.p.p.p.p.p.p.p.p.p.=.=.=.p.p.p.p.p.=.=.p.p.p.J.J.p.p.=./ =.p.p.p.p.=./ / / / L L =.=.p.J.J.!.J.p.p.p.J.p.p.p.p.p.p.p.p.p.p.p.p.p.p.p.=.L y y / =.=.=.=.p.p.J.J.J.p.p.p.p.p.p.=./ L / =.=.=./ L L / =.=.p.p.p.p.J.J.J.J.p.p.=.p.p.J.J.J.p.p.=.=.=.p.p.J.p.=./ =.=.=.=.=.=.p.p.p.p.p.p.p.p.=.=.=.p.p.p.p.=.=.=.p.p.J.J.p.p.p.p.p.p.p.p.p.p.p.p.p.p.J.J.p.p.p.p.p.p.p.=.=.p.p.J.J.p.p.p.p.p.J.J.J.p.p.J.!.!.J.p.p.J.J.J.J.!.!.!.!.!.!.J.J.p.p.p.=./ / / =.p.p.p.p.p.",
"p.p.=./ =.p.p.p.p.p.p.p.=.=.=.=.=.=.L y L / =.p.J.p.=.=.=.p.J.J.p.=.=.p.J.p.p.p.=.=.=.=.=.p.p.p.=./ / =.p.p.J.J.p.=./ / =.p.p.p.p.=./ / / L L L =.p.p.J.J.J.J.J.J.J.J.J.p.p.J.J.p.p.p.p.p.p.p.J.!.J.=./ L L =.p.p.p.p.J.J.p.p.p.p.p.=.=.p.p.p./ / / / / / L L L =.p.J.J.J.p.p.p.p.J.J.p.p.p.=.=.J.J.J.p.p.=.=.=.=.p.p.=.L L / =.=.=.=.=.p.p.p.p.=.p.J.J.p.p.p.=.p.p.p.p.=.p.p.J.J.J.J.p.p.p.p.p.p.p.p.p.p.p.p.J.J.J.p.p.p.p.p.J.J.J.p.p.J.J.J.p.p.p.p.p.J.!.!.p.p.p.!.!.p.p.p.p.p.J.J.!.!.!.!.!.!.J.p.p.p.=.=.L L / =.p.J.J.p.p.",
"p.p.=.=.=.p.p.p.p.p.p.p.=.=./ / =.=./ L L =.p.p.p.=.=.=.=.=.p.p.=.=.=.p.p.p.p.p.=.=.=.=.=.p.p.p.=.=./ / =.p.p.p.=.=./ =.=.p.p.p.=.=.=./ / / / / =.p.p.p.J.J.J.J.J.J.J.J.p.p.J.J.p.p.p.p.p.p.p.J.!.J.p.=./ / =.p.J.J.p.p.p.p.p.p.J.p.=.=.=.p.p.=.=./ / L L L / / p.p.J.J.p.p.p.p.J.J.J.J.p.p.=.=.p.p.p.p.p.p.p.p.p.p.=./ L L / =.=.=.=.p.p.J.p.p.p.p.J.J.J.p.p.p.p.p.p.p.p.p.J.J.p.p.J.J.p.p.p.p.p.p.J.p.p.p.J.J.J.J.p.p.p.p.p.p.J.J.J.J.p.p.J.J.J.J.p.p.p.!.!.J.p.p.J.J.p.p.p.p.J.J.!.!.!.!.!.J.p.p.p.p.=.=.=.=.=.=.p.J.J.p.p.p.",
"p.p.=.=.p.p.p.=.=.=.=.=.=.=./ / =.=.=./ =.p.p.p.=.=.=.=.=.=.=./ =.=.=.p.p.p.p.p.=.=.=.=.=.=.p.p.p.=.=./ / =.p.=./ / =.=.=.=.=.=.=.p.=.=.=.=.=.=.p.p.p.p.p.p.p.J.!.J.J.J.p.p.J.p.p.p.p.=.=.=.=.p.J.J.p.p.=.=.p.p.J.J.p.=.=.=.p.J.J.J.=.=.=.p.p.p.p.=./ L L / =.p.p.p.p.p.p./ =.p.J.J.J.J.p.p.p.=.=.=.=.=.=.p.p.J.J.=.L y L L / =.=.=.p.J.J.!.J.J.p.p.p.J.J.p.p.p.p.J.p.p.p.J.!.J.p.p.J.J.p.p.p.p.p.J.J.J.p.p.J.J.J.J.p.p.p.p.p.p.p.J.J.p.p.p.J.!.!.J.p.p.p.J.!.J.p.p.p.p.p.p.p.p.J.!.!.!.J.!.J.p.p.=.=.=./ / =.p.J.!.!.J.J.p.p.p.",
"p.p.p.p.p.p.=.=.=.=.=.=.=.=.=.=.=.=.=.=.=.p.p.p.=.=.=.=.=.=.=./ =.=.=.=.p.p.p.p.=.=.p.p.=.=.=.p.p.p.p./ L / =.=.=./ =.=.=./ L / =.p.p.p.=.=.p.p.p.=.=.=.=.p.p.p.J.J.p.J.J.J.J.J.p.p.=.=.=.=.=.p.J.J.p.p.=.=.=.p.p.J.p.=.=.=.p.J.!.J.=.=.p.p.p.p.p.=.=./ L =.p.p.=.=.p.p./ L / p.J.p.p.p.p.p.p.=.=.=.=.=.=.=.p.J.!.p.L L L / =.=.=.=.p.J.!.!.!.J.p.p.p.J.J.J.J.J.p.p.p.J.J.J.!.J.p.p.p.J.p.p.p.p.p.p.p.p.p.p.J.J.J.p.p.p.p.p.p.=.p.p.J.p.p.p.J.!.J.J.p.p.p.J.J.J.p.p.p.p.p.p.p.p.J.!.!.!.J.J.J.p.p.=.=.=.=.=.p.J.!.[.[.!.J.J.p.p.",
"p.J.J.p.p.=.=.p.p.=.=.=.=.p.p.p.p.p.p.p.p.=.=.=.=.=./ =.p.p.=.=.=.p.p.=.=.=.=.=.=.p.p.p.p.=.=.p.p.p.p./ L L / =.=.p.p.p./ L L L =.p.p.p.p.p.p.p.=.=./ L / =.p.p.p.p.p.J.J.!.J.J.p.=.=./ / / =.p.J.J.p.p.=./ / =.p.p.p.=.=.p.p.J.J.J.p.=.p.p.p.p.p.p.=./ L / =.=./ / / / L L / =.p.=.=.=.p.p.=.=.=.=.=.=.=./ =.J.!.p.=./ =.=.p.p.p.p.p.J.!.!.!.J.p.p.p.p.J.J.J.J.J.J.J.J.J.J.J.p.p.p.p.p.p.p.p.p.p.p.=.=.p.p.p.p.p.p.p.p.p.p.p.=.=.p.p.p.p.p.p.p.p.p.p.p.p.p.p.p.p.p.p.p.J.J.p.p.J.!.!.J.J.p.p.p.p.p.=.p.p.J.J.J.!.[.[.[.!.!.J.J.",
"p.J.p.p.p.=.=.p.p.=.=.=.=.p.p.J.p.p.p.p.p.=.=.=.=.=.=.=.p.p.=.=.=.p.p.p.p.=.=.=.=.=.p.p.=.=.=.=.p.p.=./ L L / =.p.p.p.p./ y L / =.p.p.p.p.p.p.p.p.=./ L / =.=.=.=.p.p.J.J.!.J.J.p.p.=.=.=.=.=.p.J.J.p.p.=./ / / =.p.p.p.p.p.p.J.J.p.=.=.p.p.J.J.p.p.=./ L / =.=.L L L / / / / =.=./ / / =.p.=.=.=.=.=.=./ / =.p.J.p.=.=.p.p.p.p.p.p.p.J.J.J.J.p.p.p.p.p.p.p.J.J.J.J.J.J.J.J.p.p.p.p.p.p.=.=.=.p.p.=.=.=.=.p.p.p.p.p.p.p.p.p.p.p.p.p.p.p.p.J.p.p.p.p.p.p.p.p.p.p.p.p.p.J.J.J.J.p.p.J.J.J.p.p.p.p.p.p.p.p.J.!.!.J.!.[.[.!.!.!.!.J.",
"=.p.=.=.=.p.p.=.=.p.p.p.p.p.p.p.p.p.p.p.p.p.=.=./ =.=.p.p.p.=./ =.p.p.J.p.=./ / / / =.=./ / / =./ / L L L L / =.p.p.p.=./ L L =.=.p.p.p.J.J.p.p.J.J.p.=.=.=.=.=.=.=.p.p.J.J.p.p.p.p.p.p.p.p.p.p.J.J.p.p.=./ / / =.=.p.p.p.p.p.p.p.p.=./ p.J.J.J.p.=./ / / =.=.=.L L / =.=.=.=./ L L L L / =.p.p.=./ / / / =.=.=.=.=.=.=.p.p.J.J.J.J.J.p.p.p.p.p.p.p.p.p.p.p.J.J.J.J.J.J.!.J.p.p.p.p.=.=./ L L =.=.=.=./ / =.p.p.p.p.p.p.p.p.p.p.J.p.p.p.J.J.J.J.J.J.J.J.J.J.J.J.J.J.J.!.!.!.J.p.p.p.p.p.p.p.=.p.p.p.p.p.J.!.J.J.J.!.!.!.J.J.!.!.",
"=.=.=./ =.=.p.=.=.p.p.p.p.p.p.p.=.=.p.p.p.p.=.=.=.=.p.p.p.p.=./ =.p.J.J.p.=./ / / L L L L L L / L L y y y L / =.=.p.=.=.=./ =.p.p.p.p.p.J.J.p.p.J.J.p.=.=.=.=.=.=.=.=.p.J.p.p.=.p.J.!.!.!.!.J.J.J.p.J.p.=.=./ / =.p.p.p.p.p.p.p.p.=./ / =.J.!.J.p./ L L / =.=.=.L L / =.p.J.p.L y y L L L =.p.p.p./ / / =.=.=./ L / =.=.p.J.J.J.J.J.J.p.p.p.p.p.p.p.J.J.p.p.p.p.p.p.J.J.!.J.J.p.p.=.=./ L y y / =.=.=./ L / =.p.p.p.p.p.p.p.J.J.J.J.p.p.p.J.!.!.!.J.J.J.J.J.J.J.J.!.!.!.!.!.p.p.=.p.p.p.=.=.=.p.p.p.p.p.J.!.J.p.J.!.!.p.p.p.!.!.",
"=.=.=.=.=.=.=.=.p.p.p.p.p.p.p.p.=.=.=.=.=.p.p.p.p.p.p.p.p.p.p.=.=.p.p.p.p.=./ / / L y y L L / / / L L y y L =.=.=.=.=.=.=.=.p.p.p.p.p.p.J.J.J.J.J.J.p.p.=./ / =.p.=./ =.p.p.=.=.p.J.J.!.!.!.J.J.p.p.J.J.p.=.=.=.=.p.J.J.J.p.=.p.p.=./ / p.J.!.!.p./ L L L / =.=.L L / p.J.!.p.L y y y L / =.=.p.p.p.p.p.p.p.=./ L / =.p.p.J.J.J.J.p.J.J.J.J.J.p.p.p.p.J.p.p.p.p.p.p.J.J.!.!.J.p.=.=.=./ L L L / =.=.=./ L / =.p.p.p.p.p.J.J.J.p.p.p.J.p.p.p.J.!.J.p.p.p.p.p.J.p.p.J.!.!.!.J.p.p.p.p.p.=.=.=.=.p.p.p.J.J.J.!.!.!.!.!.J.p.=.p.J.p.",
"p.p.p.=.=.=.=.p.p.p.p.p.p.p.p.=.=.=./ L / p.J.J.p.p.p.p.p.p.p.p.p.p.=.=.=.=.=.=.=./ y y y L / / =.=./ L y L =.=./ / =.=.p.p.p.p.p.p.p.p.p.J.J.J.p.p.p.p.=./ / p.p.=./ / =.=.=.=.p.p.J.J.!.!.J.p.p.p.J.J.p.p.=.=.p.J.!.J.J.p.=.=.p.=./ / p.J.!.J.p.=.L L L / =./ L L =.p.J.!.p./ y y y L =.=.=.=.p.J.!.!.J.p.=./ L / =.p.p.J.p.p.p.p.p.J.!.!.J.p.p.p.p.J.J.J.p.J.p.p.J.J.J.!.!.p.=./ / =.=./ =.=.=.=.=./ L / =.p.p.p.p.p.J.J.J.p.p.p.J.p.p.p.J.J.p.p.=.=.=.p.p.p.=.p.J.J.J.p.p.p.p.J.J.=.=.=.p.p.p.p.J.!.J.J.!.!.!.!.J.p.=.=.p.=.",
"p.p.p.=.=.=.=.p.p.p.p.p.p.p.=.=.=.=./ / / =.p.p.p.p.p.p.p.p.p.p.p.=.=.=.=.=.p.p.p.=.L L L / =.=.=.=./ L y L =.=./ / =.p.p.p.p.p.p.p.p.p.p.p.J.J.p.=.=.=.=./ =.p.p.=./ / / =.=.=.p.p.p.J.J.J.p.p.p.p.J.J.p.p.p.p.p.J.J.J.J.p.=.=.=.=.=.=.p.p.p.p.p.=./ L L / =.=./ / p.J.p.p.=./ L L / =.p.p.p.p.J.!.!.!.!.p.=.=.=.=.p.p.J.J.p.p.p.p.p.J.!.!.J.p.p.p.p.p.p.p.p.J.p.p.J.J.J.!.!.p.=.=.=.p.p.=.=.=.=.=.=./ / / =.p.p.p.p.p.p.p.p.p.=.p.J.J.p.p.J.J.p.p.=.=.=.p.p.=.=.p.p.p.p.p.p.p.p.J.J.p.=.p.p.p.=.p.J.J.!.!.!.!.!.!.J.p.=.=.=.=.",
"p.p.p.p.=.=.=.=.=.=.=.=.=.p.p.p.=.=.=.=.=./ / =.=.p.p.p.p.=./ / =.=.=.=.=.p.p.p.p.=.=.=.=.=.=.=.=.=./ L y L / / / / =.=.p.p.p.p.p.p.p.p.p.p.p.p.p.p.=.=.=.=.=.=.=.=.=.=./ / / / p.p.J.p.p.p.p.=.=.p.J.J.p.=.p.p.p.p.p.p.p.=.=.=.=.=.p.p.p.=.=.=.=.=.=.=.=.=.=.=.=.=.p.J.=.L L L =.p.J.!.!.!.J.J.!.!.!.!.J.p.p.p.p.p.p.p.J.J.p.p.p.p.p.J.J.J.J.p.p.p.p.p.p.p.p.p.p.p.J.J.J.J.J.J.p.p.p.J.J.p.p.p.=.=./ / / =.p.p.p.p.p.p.p.p.p.p.p.p.p.p.p.p.J.J.p.p.=.=.=.p.p.p.p.p.p.p.p.p.p.p.p.p.p.J.J.p.p.p.=.=.p.J.J.!.!.!.!.J.J.p.p.p.=.=.",
"=.p.p.p.p.p.=.=.=.=.=.=.=.p.p.p.=.=.=.=.=./ / =.=.p.p.=.=./ L L / =.=.=.=.p.J.p.=.=.p.p.=.=.=.=.=.=./ L L L L L L / / =.=.p.p.p.p.p.p.p.p.p.p.p.p.p.=.=.=.=.=.=.=.=.=.=./ / / =.p.p.p.p.p.p.p.=.=.p.J.J.p.=.p.p.p.p.p.p.p.p.p.=.=.=.p.p.=.=.=.=.=.=.=.=.=.=.=.=.=.p.p.p./ y L =.p.J.!.!.!.!.!.!.!.!.!.J.p.p.p.J.J.J.p.p.J.J.p.p.p.p.p.p.p.p.J.J.J.J.p.p.p.p.p.p.p.J.J.p.p.p.J.J.J.J.J.J.J.J.p.p.p.=./ / =.=.p.p.p.p.=.=.=.=.p.p.p.p.p.p.p.p.p.p.p.p.p.p.=.p.p.p.p.p.p.p.p.p.p.p.p.p.p.J.!.J.p.=.=.=.p.J.J.J.J.J.J.p.p.J.J.p.=.p.",
"=.=.p.p.p.p.=.=.=.=.=.=.p.p.p.p.=.=.=.=.=.p.p.p.p.p.=.=./ L L L / =.=.=.p.p.p.=.=.=.p.p.=./ / L / =.=.=./ / L L L L L L / =.p.p.p.p.=.=.p.p.J.!.!.J.p.=./ / =.=.=.=.=.=.=.=.=.=.p.p.p.J.J.J.p.p.p.p.J.!.p.p.p.=.p.p.p.=.p.p.p.p.=.=.=.=.=.=.=.=.p.p.p.p.=.=./ =.=.p.=.=.=.=.=.J.!.!.J.p.=.p.J.!.!.!.J.p.p.=.=.J.!.!.J.J.p.p.p.p.p.p.p.p.p.p.J.!.!.!.p.p.p.p.p.p.p.J.J.p.p.p.p.J.!.!.J.J.p.p.p.p.p.p.p.=.=.p.p.p.p.p.=./ =.p.p.p.p.p.p.p.p.p.p.p.p.=.=.p.p.p.=.=.=.=.p.p.J.J.J.J.J.p.p.J.!.J.p.=.=.=.p.p.p.=.=.=.p.p.p.J.J.p.=.p.",
"=.=.p.p.p.p.=.=.=.=.=.p.p.p.p.p.p.p.=./ =.p.J.J.p.p.=./ L L L / / =.=.=.p.p.=.=./ =.p.p.=.L L L L / =.=.=./ L L L L y y L =.p.p.p.=./ =.p.J.!.!.!.J.p.=./ L / =.p.=.=.=.p.p.p.p.p.p.p.J.J.J.p.p.p.p.!.!.J.p.p.=.=.p.p.=.=.p.J.p.=.=./ L / =.=.p.p.p.p.p.p.=.=.=.=.=.=./ =.p.J.!.!.J.p.=./ =.J.!.!.J.p.p.=.=.=.p.!.!.!.J.p.p.p.p.p.p.p.p.p.J.J.!.!.!.p.p.p.p.p.p.p.J.J.p.=.=.p.J.!.!.J.p.p.p.p.p.p.p.p.p.=.p.p.p.p.p.=./ =.p.J.p.p.p.p.p.p.p.p.p.=.=.=.p.p.p.=.=.=.=.p.p.J.!.!.J.J.p.J.J.!.J.p.=.=.=.p.p.=./ L / =.p.p.p.p.p.p.p.",
"p.p.p.=.=.=.=.=.p.p.p.p.J.p.p.p.p.p.=./ =.p.p.p.p.=.=./ L L L / / / / =.=.=.=.=.=.=.p.=.=.L L L L L L L L L y L L L L L / =.p.J.p.=./ =.=.p.J.J.J.p.p.=./ L L =.=.=.=.p.p.p.p.p.p.p.p.J.J.J.p.p.p.p.J.J.J.p.p.p.p.p.=.=.=.p.p.p./ L L L / p.p.=.=.=.=.p.J.p.p.p.=.=./ L / =.=.p.p.p.p.=.=.p.p.J.J.J.p.p.p.=.=.p.J.J.!.J.J.J.J.J.J.p.p.p.p.J.!.!.J.J.p.p.p.p.p.J.J.J.p.=.=.p.J.!.!.!.J.J.p.p.p.J.J.p.p.=.=.=.p.p.p.=./ / =.p.J.p.p.p.p.p.p.p.=.=.p.p.p.p.p.p.p.p.p.p.p.p.J.J.J.p.p.p.p.J.!.J.p.=.=.=.p.p.=./ / / =.=.p.p.p.p.p.p.",
"J.J.=./ / =.=.p.p.J.J.J.J.p.p.p.p.p.p./ =.=.p.=.=./ / L L L / / L L L =.=./ / =.p.p.=.=.=./ / / L L y y y y y L / =.=.=.=.p.p.J.J.p./ =.=.=.p.p.p.=.=./ L L L / =.p.p.p.p.p.p.p.p.p.p.J.J.J.p.p.p.p.J.J.p.p.J.!.J.p.=./ / =.p.=.L y y L =.p.p.=./ L / p.!.!.J.p.p.=./ L L L L / / =.=.p.p.p.J.J.J.p.p.p.p.p.p.p.p.J.J.!.J.J.!.!.J.p.p.p.p.J.!.J.p.p.p.p.=.=.p.!.!.J.p.=.=.p.!.!.!.!.!.J.J.p.J.!.J.p./ / / =.p.p.=./ / =.=.p.p.p.p.p.p.p.=.=.=.=.p.J.p.p.p.p.J.J.J.p.p.p.p.p.p.=.=.p.p.J.!.J.p.=.=.=.p.p.=./ =.=.=.=./ =.p.p.p.p.",
"p.p.=./ / =.=.p.p.J.!.J.p.p.J.J.J.p.p.=.=.=.=.=.=./ / / / / / / / / / =.=.=./ =.p.p.=.=.=.=.=./ L y y y L y y L =.p.p.=.=.=.p.p.J.p.=.=.=.=.=.=.=.=.=./ / / / =.=.p.p.p.=.=.=.p.p.p.p.J.J.p.p.p.p.p.J.J.J.J.J.J.p.=.=.=.=.=.p.=.L L L / =.p.=.=./ / / p.J.J.J.J.p.=./ / L L L / =.=.=.p.p.J.!.!.J.p.p.p.p.p.p.p.p.J.!.!.!.!.!.!.J.p.p.=.p.J.!.J.p.p.p.p.=.=.p.!.!.J.p.p.p.J.!.!.J.J.J.J.J.J.J.!.J.p.=.=.=.p.p.p.=.=.=.p.p.J.p.p.p.p.p.p.=.=.=.=.p.J.J.p.p.p.J.J.J.p.p.p.p.p.p.=.=.p.J.!.!.J.p.=.=.=.p.p.p.=.=.p.p.=.=.=.p.p.J.J.",
"=.=./ L / =.=.p.p.J.J.p.p.p.J.!.J.p.p.p.p.p.=.=.=.=.=.=.=.=.=.=.=.=.=.=.=.=.=.=.=.=.=.=.p.p.p./ L y y L / L L / p.J.p.p.=./ / p.p.J.p.p.p.=.=.=./ / =.=.=.=.=.=.p.p.p.=./ L / =.p.p.p.p.p.p.p.p.p.J.J.!.!.!.J.p.=.=./ =.=.p.p.=./ / p.p.=./ =.=.=.=.=.=.=.p.J.p.=.=.=.=./ L / p.p.=./ =.p.!.[.[.!.J.p.p.p.p.p.p.p.J.!.!.!.!.J.J.p.p.=./ / p.J.p.p.p.p.p.=.=.p.!.J.p.p.p.p.p.p.J.J.p.p.p.J.!.!.!.J.p.p.p.p.p.J.p.p.p.p.!.!.!.J.p.=.=.=.=.p.p.p.p.p.p.p.p.p.p.p.p.p.p.p.p.J.p.p.=.p.J.!.!.!.J.p.=.=.=.p.p.p.p.p.p.p.p.p.p.p.J.!.J.",
"/ L L L / =.=.p.p.p.J.p.p.p.J.!.J.J.p.p.p.p.=.=.=.=.=.=.=.p.p.p.p.p.p.p.p.=.=.=.=./ / =.p.J.p.=.L L L / =./ L =.p.J.p.=./ L / =.p.J.J.J.p.=.=./ / / =.=.=.=.=.p.p.p.=./ L y L / =.p.p.p.p.p.p.p.p.p.p.J.!.!.J.p.p.=.=.=.p.p.p.=./ =.p.J.=./ =.=.p.p.p.=./ p.J.J.p.=.=.=.=./ =.p.p.=./ / p.J.[.[.!.J.J.p.p.p.p.J.J.!.!.!.!.J.p.p.p.p.=./ / =.p.p.p.p.p.p.p.p.p.J.J.p.p.p.p.p.p.p.p.p.p.p.J.!.!.J.J.p.p.p.p.J.J.J.p.p.J.!.!.!.J.p.=.=.=.=.=.p.p.J.p.p.p.p.J.J.J.p.p.p.p.p.p.p.=.=.p.!.!.!.J.J.p.p.=.=.p.p.p.p.p.p.p.J.J.p.p.J.!.J.",
"L L L L / =.=.=.=.p.p.p.p.p.p.J.J.!.J.p.p.p.p.=.=.=.p.p.=.=.p.J.J.p.p.p.p.=./ / L L L / =.p.p.p.=./ / =.=./ L =.p.J.p./ L L / =.p.J.!.J.p.=.=./ =.=.=.=.=./ =.=.p.=./ L y y L / =.=.p.p.p.p.p.p.p.=.=.=.p.J.J.J.J.p.=.=.p.J.J.p./ L =.p.=.=.=.p.p.p.=.=.=.p.p.J.p.=.=./ / =.=.p.p.=./ L / =.!.[.!.J.J.J.J.J.!.!.!.!.!.!.J.J.p.p.p.=.=.p.=.=.=.=.p.p.J.J.J.p.J.J.J.J.J.J.p.p.p.p.p.p.p.p.J.!.!.J.p.p.p.p.p.p.J.J.J.p.J.J.J.J.p.p.=.=./ / =.p.J.!.J.p.p.J.J.!.!.!.J.p.p.p.p.p.p.p.J.!.!.J.p.p.p.p.p.p.p.J.J.J.J.p.J.J.!.J.p.p.p.p.",
"/ L L / =.=.=.=.=.=.p.p.p.p.p.p.!.!.!.J.p.p.p.=.=.=.p.p.=.=.p.!.J.p.p.p.p.=./ L L L L / =.p.p.p.p.=.=.=.=./ L / p.p.=./ L L / =.p.J.!.J.p.=.=.=.=.=.=.=./ / / =.p.=./ L y y L / =.=.=.=.=.p.=.=.=.=./ =.p.J.!.!.!.p.p.=.p.J.J.p./ L =.=.p.p.p.p.p.p.=.=.=.p.p.p.p.p.=./ / =.=.p.p.=./ L L =.p.!.!.J.J.J.!.!.!.!.!.!.!.J.J.p.p.p.p.p.p.p.p.=./ =.p.p.J.J.J.J.J.p.p.J.J.p.p.p.p.p.p.p.p.p.p.J.J.p.p.p.p.p.p.p.J.J.J.p.p.p.p.p.p.p.=.=./ / =.p.J.!.J.p.p.J.!.!.[.!.!.p.p.=.=.=.p.J.!.[.!.J.p.p.p.p.p.p.p.J.J.!.J.J.J.!.!.J.p.p.=.=.",
"=.=.=.p.=.=.=.=.p.p.p.p.p.p.J.!.!.[.!.p.p.p.p.=./ / =.=.=.p.J.!.!.!.J.J.J.=./ / / / =.=.p.p.=.=.=.=.=./ / L y L =.=./ L / / =.=.p.J.!.J.p.p.=.=.=.=.=.=.=.=.=.=.=./ L L L L / =.=.=.=.=.p.p.p.=.=.=.=.p.p.J.!.!.J.p.p.p.p.p.J.p.=.=.=.p.J.J.J.J.J.p.p.p.p.p.p.p.p.=.=.=.=.p.p.p.p.p.p.=.=.=.p.J.!.!.!.!.J.p.p.p.p.p.p.p.p.p.p.=.p.p.p.p.p.=.=.p.J.J.p.p.J.J.J.J.p.=.=.=.=.p.p.p.p.p.p.p.p.J.p.p.p.p.p.J.J.J.J.J.J.p.p.p.p.p.p.p.=.=.=.=.=.p.J.J.J.J.p.p.J.!.!.!.J.p.=.=.=.p.p.J.!.!.!.J.p.p.p.J.J.J.J.J.!.!.!.!.!.!.!.J.p.p.p.p.",
"=.p.p.p.p.p.=.p.p.J.J.p.p.p.J.!.[.[.!.p.p.p.p.=./ L L / =.p.J.!.!.!.!.!.J.=.=./ =.=.p.p.p.=.=./ / =.=.L L y y y L / / / / =.=.=.=.J.!.J.p.p.p.p.p.=.=.=.=.=.=.=.=./ L / =.=.=.=.=.=.=.p.p.p.p.=.=.p.J.J.!.!.!.J.J.p.p.p.p.p.p.p.p.p.p.J.J.!.!.!.!.J.J.p.p.p.=.=.=.=.p.p.p.J.J.p.p.J.J.J.p.p.p.J.!.!.!.!.J.=./ / =.=.p.p.p.p.=.=.p.p.p.p.p.p.p.J.!.J.p.p.p.J.J.J.p.=./ / =.p.J.J.J.p.p.p.p.p.p.p.p.p.J.J.J.J.J.J.p.p.p.p.p.p.p.p.=.=.=.=.p.p.p.p.J.J.p.p.p.J.!.!.J.p.=.=.p.p.p.p.J.!.!.J.p.p.p.J.!.!.!.!.!.!.!.!.!.!.J.J.J.p.p.p.",
"=.p.p.p.p.p.=.p.p.J.J.p.=.p.J.!.!.!.J.p.p.p.p.p.=./ L / p.p.J.J.!.!.J.J.p.=./ / =.p.p.J.p.=./ L L / / / / L y L / =.=./ / =.=.=.=.p.J.J.J.p.p.p.=.=.=.p.p.p.=.p.p.=.=.=.p.p.=.=.=.=.=.=.p.p.p.p.p.p.J.!.!.!.J.p.p.p.p.p.p.p.p.p.p.J.p.p.J.J.!.!.!.J.p.p.=.=.=.=.p.p.p.J.p.p.p.p.J.J.!.!.!.J.p.p.J.!.!.!.p.=.L L / =.=.p.p.p.=.=.p.p.p.p.p.p.J.J.p.p.p.p.p.p.p.p.p.=./ =.p.J.J.J.p.p.p.p.=.=.=.p.p.p.p.J.p.J.J.p.p.p.p.p.p.p.p.J.p.p.p.p.p.p.p.p.p.p.p.p.p.J.J.J.p.p.p.p.p.J.p.p.J.J.J.J.p.p.p.J.!.!.!.!.J.J.J.p.J.J.!.!.J.J.p.J.",
"L / =.=.=.=.=.=.p.p.p.p.=.p.p.p.p.p.p.p.p.p.p.p.p.=.=.=.p.p.J.J.p.p.p.=.=./ / / =.=.p.p.=./ L L L L / p.p.=./ =.p.p.=.=./ / =.=.p.p.p.J.J.J.p.=./ L =.J.J.p.=.p.p.p.p.p.p.p.p.=.=./ / =.=.p.p.J.J.J.J.J.!.!.p.=.p.J.J.p.p.p.p.p.p.p.p.p.p.p.J.!.!.p.=.=./ / =.p.J.J.!.J.p.=.=.p.!.!.!.!.!.J.p.p.J.!.!.!.p./ L / =.=.=.p.p.p.p.p.p.p.p.p.p.J.J.p.=.=.p.p.p.p.p.=.=.=.=.p.J.J.!.J.p.=.=.=.=./ =.p.p.p.p.p.p.p.p.p.p.p.p.p.p.p.J.!.[.J.p.=.p.p.p.p.=.=.=.J.J.J.p.p.p.p.p.p.J.J.p.p.p.p.p.p.p.p.p.J.J.J.J.p.p.=.=.=.p.J.!.!.J.J.p.p.",
"L L / =.=.=.=.p.p.p.p.p.p.p.p.p.=.=.=.=.p.p.p.J.J.p.=.=.p.p.p.p.p.=.=.=./ L L L =.=.p.=.=./ L L L / =.p.J.p.=.=.p.J.p.=./ / / =.p.p.p.J.J.J.p.=.L L =.J.J.p.=.p.p.J.J.p.p.=.=.=./ / / / =.=.p.J.J.J.p.p.J.!.p.=.p.J.J.p.=.=.p.p.p.p.p.p.p.p.J.!.J.p.=./ / =.p.p.J.!.!.J.p.=.=.J.!.!.!.!.!.J.p.p.J.!.!.J.p.=.=.=.=.=.=.=.p.p.p.p.p.p.p.p.J.!.!.p.=.=.p.p.p.=.=.=.=.p.p.J.!.!.J.p.p.=.=.=.=.=.=.p.p.p.p.p.p.=.=.=.=.p.p.p.p.p.J.[.[.J.=.=.=.p.p.=./ L =.p.J.p.p.p.p.p.p.p.J.J.J.p.p.p.p.p.p.p.p.p.p.p.p.p.=.=./ =.p.!.!.!.J.p.p.p.",
"y L L / =.=.p.p.p.p.p.p.p.p.p.p.=.=.=.p.p.p.p.J.p.p.p.p.p.p.p.p.=.=.=.=./ L y L =.=.=.=.=.=.=.=.=.=.=.p.J.p.=.=.p.p.p.=.=.=.=.=.=.p.p.J.J.p.=.L / / =.p.p.p.p.p.p.J.J.p.=.=.=.=./ L L L / =.p.p.J.p.p.p.p.p.p.p.p.J.p.p.=.=.=.=.=.=.p.p.p.J.J.J.p.p.p.=.=.=.p.J.J.J.J.p.p.p.p.J.J.J.J.J.p.p.p.J.J.J.J.p.p.p.p.p.p.=.=.=.=.=.p.p.p.p.p.J.J.!.!.J.p.p.p.=.=.=.=.=.p.J.!.!.!.J.p.=.=.=.=.=.p.p.J.J.J.p.p.p.J.p.=./ =.p.p.p.p.p.p.!.!.p./ / =.p.p.=./ L L =.p.p.p.p.J.J.J.J.J.J.J.J.p.p.p.p.p.p.p.p.=.=.=.=./ / =.p.J.!.[.!.J.p.=.=.",
"y y L L / =.p.p.p.p.=.p.p.J.J.p.p.=.=.p.p.p.p.p.p.p.=.=.p.p.p.p.=.=.=.p.=.L y L =.=.=.=.=.p.=.=.=.p.p.p.p.=.=.=.p.p.=.=.=.=.=.=.=.p.p.J.J.p.L L / =.=.=.=.p.p.=.p.J.!.p.=.=.=.=./ L L L / =.=.p.p.p.=.=.=.p.p.J.J.J.p.p.p.=.=.=.=.=.=.p.J.J.J.p.p.p.p.p.p.p.p.J.J.J.J.p.p.J.J.J.J.J.J.p.p.p.J.J.p.p.p.p.J.J.J.J.p.p.=.=.=.=.p.p.J.J.J.J.J.J.!.!.J.J.p.=.=./ =.p.p.!.!.!.!.J.=.=.=.=.=.p.J.!.!.J.J.p.=.p.J.p.=./ =.p.p.p.p.p.p.p.p.=.L / =.=.p.=./ L L / =.=.p.p.J.J.J.J.J.J.J.J.p.=.=.p.p.p.p.=.=./ / / / / =.p.!.!.!.J.p.p.=.=.",
"y y y L L / =.=.p.=.=.p.J.J.!.J.p.=.=.=.=.p.p.p.p.p.=.=.p.p.J.J.p.p.p.p.p./ / =.p.p.=.=.=.p.=.=.p.J.J.p.=.=.p.p.p.p.=.=.=.p.p.p.p.p.p.p.p.=.L L L L L L / =.=.=.=.J.!.J.p.p.p.p.=.L / =.=.=.=.=.p.=.=.=.=.p.J.J.!.J.J.J.p.p.p.=.=.=.p.p.p.J.p.=.p.p.p.p.p.p.p.J.!.!.J.J.J.J.J.J.J.J.J.p.p.p.J.J.p.=.p.J.J.J.p.J.J.p.=.=.p.p.p.p.J.J.J.p.p.p.J.!.!.!.J.p.p.=.=.p.p.!.!.J.J.p.=.=.p.p.p.p.J.!.!.p.p.=.=.=.=.p.p.p.p.p.p.p.p.p.p.p.=.=.=.=.=.=.=.=.=./ / =.=.=.=.p.p.p.=.p.J.!.J.p.=.L / p.p.p.p.p.=.=.p.p.=.=.p.J.J.p.p.p.p.=.=.=.",
"3 3 y y L L / =.=.=.p.p.J.!.!.!.J.p.=.=.=.=.=.p.p.p.=.=.p.J.J.!.J.p.p.p.p.p.p.p.p.p.=.=.=.p.=.=.p.!.J.p.=.=.p.p.J.p.=.=.p.p.J.J.J.p.=.=.=./ / L y y y y / =.=.=.=.p.!.!.!.!.J.J.=./ =.p.p.=.=.=.=.=.=.=.p.p.J.!.!.!.!.!.J.J.p.p.p.p.p.p.p.p.p.=.=.p.p.p.p.p.p.J.!.!.!.J.J.p.p.J.!.!.!.J.p.p.J.J.p.=.p.!.!.p.p.p.J.p.p.p.p.p.p.p.J.J.J.p.=.p.p.J.!.!.!.J.p.p.p.=.p.J.J.p.p.=.=.p.J.J.p.=.p.!.J.p.=./ L L / =.p.J.p.=.p.p.J.p.p.=./ =.p.p.p.=.=.=.=.=.=.=.=.=.=.=.=.=./ =.J.!.!.p./ L L p.p.p.p.p.p.p.J.J.J.p.p.p.p.=./ =.=.=.=.=.",
"= = y L L / =.=.=.p.p.p.J.J.J.J.p.p.p.=.=.p.p.p.p.=.=.=.p.p.J.J.J.p.p.p.p.p.p.p.p.p.=.=.p.p.=.=.p.J.J.=./ =.p.J.p.p.p.=.=.=.p.p.p.=./ / =.=.=./ y 3 y L / =.=.=.=.p.J.!.!.J.J.J.p.p.p.p.p.p.p.p.=.=.=.=.p.J.!.!.!.J.J.!.!.J.J.p.p.p.p.p.p.p.p.=.=.=.=.p.p.J.p.J.J.J.J.J.p.p.p.J.!.!.!.p.=.=.p.J.p.=.p.J.J.p.p.p.J.p.p.p.p.p.p.J.J.J.J.p.p.p.p.p.p.J.J.J.p.p.=.=.=.p.J.p.=.=.p.p.J.J.p.=.p.J.p.=./ / / / / =.p.J.p.=.=.p.p.p.p.=.=.=.p.p.p.p.p.p.p.=.=.=.=.=.=.=.=./ / =.J.!.!.p.=.L / p.p.p.p.p.p.J.!.!.!.J.J.p.p.=./ =.=.p.p.p.",
"O = y L / =.=.=.=.p.p.J.J.J.p.p.p.p.p.=.p.J.J.J.p.p.=.=.=.p.p.p.p.p.=.=.=.=.p.p.=.=.=.=.p.p.p.=.=.p.p./ / =.J.J.J.p.p.=.=./ / / L y y L =.p.p.=.L 3 y L / =.=.=.=.p.p.p.p.p.p.p.p.J.p.p.p.J.J.p.=.=.=.p.!.!.!.!.J.J.J.J.!.J.J.p.p.p.p.p.p.p.p.p.=.L L =.J.!.J.J.p.p.p.p.=.=.p.J.!.!.!.p.=.=.p.p.p.p.p.p.p.p.p.p.p.p.p.p.p.p.J.!.J.J.J.J.J.p.=.=.=.=.p.p.p.=./ L / p.p.p.p.p.p.p.p.p.p.=.p.p.=./ / =.=.=.=.=.p.p.=./ =.=.=.p.p.=.=.p.J.J.p.p.J.J.p.p.p.p.p.=.=.=.=.=.=.=.p.J.J.J.p.=.=.p.p.p.p.p.J.!.!.!.!.!.J.p.p.=.=.=.p.p.p.p.",
"= 3 y / =.p.=.=.=.p.p.p.p.p.p.p.p.p.p.=.p.J.!.J.p.p.p.=./ =.=.p.p.=.=./ / =.p.p.=.=.=.=.p.p.p.p.p.p.=.=./ p.J.!.p.p.p.=./ L L L y y y L p.p.p.p.L y L L / =.=.=.=.=.=.p.p.p.p.p.J.!.J.p.p.J.!.p.=.=.p.p.!.!.!.J.J.p.p.J.J.!.J.J.p.p.p.J.p.p.p.p.p./ L =.J.!.!.J.J.p.=.=.=./ =.p.J.!.J.p.=.=.p.p.p.p.p.p.p.p.p.p.p.p.p.p.=.p.J.!.J.p.J.J.J.p.=./ / / =.p.p.p.=.L / =.p.p.p.p.p.p.p.p.p.p.p.=.=.=.=.=.p.p.=.=.p.=.=./ / =.=.=.p.p.p.J.J.J.p.p.J.J.J.p.p.p.p.p.p.p.p.=.=.=.p.p.J.J.p.p.p.p.p.p.p.p.!.!.!.!.J.J.p.p.p.p.p.p.p.p.p.p.",
"L L / =.=.p.p.=.=.p.p.p.p.p.J.J.J.J.=./ =.J.!.!.J.J.p.=.L L / =.=.=./ L / =.p.p.p.=.=.=.p.p.p.p.p.p.p.=.=.p.J.J.p.p.=.L L y L L L y y =.J.J.p.p./ L L L L L / =.=.=.=.=.p.p.p.p.p.p.p.p.J.J.J.p.p.p.J.J.J.J.p.p.p.p.p.J.!.!.J.J.p.p.J.J.J.p.J.J.J.p.=.p.p.J.!.!.!.J.=./ L L / =.p.J.J.p.=.=.p.p.p.p.p.=.=.p.p.p.p.p.p.p.p.p.J.!.J.p.p.J.p.p./ / L / =.p.p.p.p.=.=.=.=.=.p.p.p.p.=.=.p.p.p.=.=.p.p.=.=.=.=.=.=.=.=.=.=.=.=.=.=.p.p.J.J.J.p.J.!.!.J.p.p.p.p.p.J.J.J.p.=.=.p.p.p.p.p.p.p.p.p.p.p.J.!.!.J.J.p.p.p.p.p.p.p.=./ =.=.p.",
"=.=.=.=.=.=.p.=.=.p.p.p.p.p.J.!.!.J.=.L / p.!.!.!.p.=./ L L / =.=.=./ / / =.p.p.p.p.=.=.p.p.p.J.p.p.=.=.p.p.J.J.p.=./ L L L L L L L L =.!.J.p.=.=.=.L y L L / =.=.=.=.=.p.p.p.p.p.p.p.J.J.J.p.p.p.p.J.J.p.=.p.p.p.p.p.J.J.!.!.J.J.J.!.!.J.p.J.J.!.!.J.p.p.J.!.!.!.p.=./ L L / =.p.p.p.p.p.p.=.=.p.p.p.=.=.p.p.p.p.p.p.p.p.p.J.J.J.p.p.p.p.=./ / / =.p.p.p.p.p.p.p.=.=.=.p.p.p.p.=.=.p.p.p.p.p.p.p.=.=.=.p.=.=.=.=.=.=.=.=.=.=.p.p.J.J.J.p.p.!.!.J.p.p.p.p.p.J.J.J.p.=.=.p.p.p.=.p.p.p.p.p.p.p.J.J.J.p.p.=./ =.p.J.p.p.=./ / =.p.",
"=.=.=.p.=.=.=.p.p.p.=.=.=.p.J.!.J.p.=.L / =.p.J.p.=./ L L L =.=.=.=.=.=.=.p.p.p.p.p.=.=.p.p.p.p.=.L L =.p.p.p.p.=.=.L y L / =.=.=.=.=.p.J.p.=.=.p.p./ L L =.=.p.p.p.=.p.p.p.p.p.p.p.p.p.p.p.p.p.p.p.p.p.=.=.=.=.p.=.p.p.J.!.!.!.J.J.J.J.p.p.p.J.J.!.!.!.J.!.!.J.p.=./ L L / =.p.p.p.p.p.p.=.=.=.=.p.p.=.=.p.p.p.p.p.J.J.J.J.p.p.p.p.p.p.p.p.p.=.=.=.p.p.J.J.p.p.p.p.p.p.p.p.J.p./ / p.J.J.p.p.p.p.=.=.=.p.p./ =.p.p.p.=.=.=.=.p.p.J.J.p.p.p.!.!.J.=.=.=.=.p.p.p.p.p.=.=.p.p.p.p.p.p.p.p.p.J.J.J.p.p.=.=./ / p.J.J.J.p.=./ =.p.p.",
"=.=.=.=.=./ =.=.p.=.=.=.=.p.J.J.p.p.=./ / =.p.=.=./ L L =.=.=.=.=.=.=.p.p.p.p.p.p.p.=.=.=.p.=./ L y y / =.=.=.=.=.=.L L / p.p.=.=.=.p.p.p.p.=.=.p.J.=./ =.p.J.!.!.J.p.p.p.p.p.p.p.p.p.=.=.=.p.=.=.=.=.=.=./ =.=.p.p.p.p.p.J.!.!.J.J.J.p.p.p.p.p.p.J.!.!.!.!.!.p.=./ L / =.p.p.p.p.p.=.=.=.=./ / =.p.p.=.p.J.J.p.p.p.J.J.J.J.p.=.=.=.=.p.p.p.p.p.p.p.p.J.J.J.p.=.=.p.p.p.p.p.J.p./ / p.J.J.p.p.p.=.=.=.p.p.p./ =.p.J.J.p.=./ =.=.p.p.p.p.p.p.J.!.p.=.=.=.=./ / / / =.p.p.p.p.p.p.p.J.p.p.p.J.J.p.p.=./ / / / p.!.!.J.p.p.=.p.J.J.",
"=.=.=.=.=./ / =./ / L / =.=.p.J.p.p.=.=.p.p.p.=.=./ / / =.p.=.=.=./ =.=.p.p.p.p.=.=.=.=.=.=./ L y y L / =.p.=.=.=.=./ L =.p.p.=.=.=.p.p.p.=./ =.p.J.p.=.=.p.J.J.J.p.p.p.p.p.p.p.p.J.p.=.=.=.=.=./ / =.=.=.=.=.p.p.p.p.p.p.J.J.!.J.J.p.p.p.p.p.p.p.J.!.!.!.!.!.J.=./ =.=.p.J.p.p.=.=.=.=.=.=.=.=.p.p.p.=.=.p.J.J.J.J.J.J.J.p.=./ =.=.=.p.p.J.J.J.p.p.J.J.!.J.p.=.=.p.p.p.p.p.J.p./ / =.p.p.p.p.p.p.=.=.p.p.p.=.=.p.J.J.J.p.p.=.=.=.=.=.=.=.p.J.J.p.p.=.=.=.=./ / =.=.p.p.p.p.p.J.J.J.p.p.=.p.p.p.p.=.=.=.=.=.p.!.!.J.p.p.p.p.p.p.",
"=.=.=./ =.=./ L L y y L / =.p.p.p.p.p.J.J.J.p.p.=.=.=.=.p.p.p.=.=./ / / =.=.p.=./ =.=.=.=./ L y y L / =.p.p.p.p.p.=.=.=.=.p.=.L L / =.=.=.=./ =.p.J.J.p.p.p.p.p.=.p.p.p.p.p.p.p.p.p.p.=.=.=.=.L L L =.p.p.p.p.p.J.!.!.J.p.p.J.J.J.p.p.J.J.J.p.p.p.J.!.!.!.!.!.!.p.p.p.p.J.!.p.=./ =.p.p.=.p.p.p.J.J.p.=.=.p.p.J.J.p.p.p.p.=.=./ / =.=.p.p.J.J.J.p.J.J.!.!.!.p.p.=.=.p.p.p.p.p.p.=.=.=.p.p.p.p.J.J.p.p.p.p.p.=.=.=.p.p.J.J.p.p.=./ / / =.=.=.p.p.J.J.J.p.p.=.=.=.p.p.p.p.=.=.p.J.J.J.p.=./ / =.p.p.p.J.J.p.p.p.J.J.J.p.J.J.p.=./ ",
"=./ L L / =./ L y y y L =.=.p.p.p.p.J.!.!.!.J.p.=.=.=.=.p.p.p.p.=./ L / =.=.=.=.=.=.=.=./ L y 3 y / =.=.p.p.J.J.p.=.=.=.=.=.=.L L =.=.=.=./ / =.p.!.J.p.p.p.p.p.=.p.p.p.p.p.p.p.p.p.p.p.=.=.=./ L / p.p.p.p.p.p.!.!.!.J.p.p.J.J.p.p.J.J.J.!.J.p.p.J.J.J.J.!.!.!.J.J.J.!.!.!.p.=./ =.p.p.=.p.p.J.J.J.p.=.=.=.p.p.J.p.=.=.=.=.=.=.=.=.=.p.p.J.J.J.p.p.J.J.!.!.p.p.=.p.p.p.p.p.p.=.=.=.=.=.=.p.J.!.!.J.p.p.p.p.=.=.=.p.p.J.J.p.p.=./ / / / =.=.p.p.J.J.J.p.p.=.=.=.=.p.p.p.=.=.p.J.J.J.p.=./ / =.p.p.J.!.!.J.p.p.p.p.p.J.!.!.p./ L ",
"L y y L / =.=.L L L L / p.p.p.p.=.p.J.!.!.!.J.p.=.=.=.=.=.p.J.J.p./ / =.=.=.=.=.=.=.=./ y 3 = 3 y / =.=.p.p.J.p.p.=.=.=.=.=.=./ / p.p.=./ L L / J.!.p.=.=.p.p.p.p.J.J.J.p.p.p.p.p.p.p.p.=.p.p.=./ =.p.p.p.p.p.J.!.!.!.p.p.p.p.p.p.J.J.J.!.!.!.!.J.J.J.J.J.!.!.[.!.!.!.!.J.p.p.p.p.p.p.=.=.p.J.J.J.p.p.=.=./ =.p.p.=.=./ / =.p.p.p.=.=.p.p.p.p.p.=.=.=.p.J.!.p.p.p.p.J.!.!.J.p.=.=.=./ =.p.p.J.!.!.p.p.=.=.=.=.=.p.p.J.J.J.p.=.=.=.=.=.=./ =.p.p.J.J.J.p.p.=./ / / =.p.p.p.p.J.!.J.p.p.=.=.=.p.p.J.!.J.J.!.!.J.p.p.p.J.!.!.J.=.=.",
"y 3 y L / =.=.L L L / =.p.p.p.p.p.p.p.J.!.!.!.p.=.=./ =.=.p.J.!.p./ / =.=.=./ =.p.p.=./ y 3 3 3 L / =.=.p.p.p.p.p.p.=./ / =.=.=.=.p.p.=.L L L / p.J.p./ / =.p.p.J.J.J.J.p.p.p.p.p.p.p.p.=.p.p.p.p.p.J.p.p.=.p.J.J.J.J.p.p.p.p.p.p.J.J.!.!.!.!.!.!.J.J.p.J.J.!.!.[.!.!.!.p.p.p.J.J.p.p.=.=.=.p.J.p.=.=.=.=./ / =.p.=./ / / =.p.J.J.=.=.p.p.p.p.p./ / =.=.J.J.p.=.p.J.!.!.!.J.=.=.=.=./ =.p.J.J.!.J.p.=.=.=.=.=.p.p.p.J.J.p.=.=.=.=.=.=.=./ =.p.p.p.p.p.p.=.=./ / / =.p.p.p.p.J.!.J.p.p.p.=.p.p.J.!.!.J.J.!.!.J.=.=.p.J.!.!.J.p.p.",
"3 3 y / =.p.p./ L L L =.J.!.J.p.p.p.=./ =.p.J.p.=.=.=.=.p.p.p.p.=./ / / =.=.=.=.p.=.=./ L y y L L / =.=.=.=.p.p.p.p.=./ / =.=.=.=.=.=./ L y L / p.p.=./ =.=.p.p.p.J.J.J.p.=.=.=.p.J.p.p.p.p.p.J.J.p.p.p.=.=.=.p.p.p.p.=.=.p.p.p.p.p.J.!.J.J.J.!.!.J.J.p.p.J.!.!.!.!.!.!.J.p.p.p.p.p.p.=.=.=.=.p.p.p.p.p.=.=.=.=.p.=.=./ / =.p.p.=.=.=.=.p.J.!.p./ / =.p.J.J.p.=.=.p.J.J.p.p.=.=.=.=.=.=.=.p.p.J.J.p.p.p.=.p.p.p.p.p.p.=.=.=.=.p.p.=./ / =.=./ =.=.p.p.p.=.=.=.=.=.=.p.p.J.J.!.!.J.p.p.=.=.=.=.p.J.J.J.J.J.J.p.p.p.p.J.J.J.J.p.p.",
"y y L =.p.J.p.=.L y y / J.!.J.p.p.=./ y L =.p.p.=.=.=.p.p.p.p.=./ / / / =.=.=.=.=.=.=./ / / / =.=.=.=.=.=.=.=.=.=.=.=.=.=.=.=.=.=.=./ L L L L L =.p.=./ =.p.p.=.p.p.J.J.p.=.=.=.p.J.J.p.p.p.p.J.!.p.=.=.=.=.=.=.=.p.=.=./ =.=.p.p.p.J.J.J.p.p.J.J.J.J.J.J.J.J.!.!.!.!.!.J.p.p.p.p.p.p.=.=./ / =.p.J.J.p.p.=.=.p.p.p.=.=.=.=.=.=./ / / =.p.!.[.p./ / =.p.J.J.p./ / =.p.p.=.=.=.=.p.p.p.p.=.=.=.p.p.p.p.p.p.p.p.p.p.=.=./ / =.p.J.J.=./ / =.=./ L / =.=.=.p.p.p.p.p.p.p.p.J.J.!.!.J.p.p.=.=./ / =.p.J.J.J.p.=.=.p.p.J.J.J.p.p.J.J.",
"y L / =.p.J.J.p./ L y / p.J.p.p.=.=.L y L =.p.p.p.p.p.p.p.p.=./ / / / =.=.=.p.p.=.=.L L L / =.=.=./ / / / / / / =.=.=.=./ L / =.=./ L L y L L =.=.p.=./ / =.=.=.=.p.J.p.=.=./ =.p.J.J.p.p.p.p.J.!.J.p.=.p.p.=.=.=.p.=.=.=.=.p.p.p.p.J.J.p.p.p.p.p.J.J.J.J.J.J.J.p.p.J.!.J.p.p.p.p.p.p.=.=.=.=.=.p.J.p.p.p.p.p.p.p.p.=.=.p.p.=./ / =.=.p.p.!.!.p.=.=.=.p.J.J.p./ / =.=.=./ / =.p.p.p.p.p.=./ =.p.p.p.p.p.p.p.p.p.=.=.L L L / p.p.J.p.=.=.=.=.=.=.=.=.=.=.=.p.p.=.=.p.p.J.J.J.p.p.p.p.p.=.=.=.=.=.p.p.J.J.p.=.=.=.p.p.p.p.p.J.J.J.",
"/ / =.=.p.p.p.J.p./ L L / =.=.=./ L L L / =.p.p.p.p.p.=.=.=.=.=./ / =.p.p.p.p.p.p.=.y y L / =.p.=./ L L L L L L =.=.=.=.L y y L / / L y y L =.=.p.p.=./ / / =.=.p.p.p.p./ / / =.p.J.J.J.p.p.p.J.!.J.p.p.p.p.p.p.p.p.p.=.=.p.p.J.J.J.p.p.p.p.p.p.p.p.p.J.J.J.J.p.=.=.p.J.J.p.p.p.p.p.p.=.=.=.p.p.p.p.p.=.=.p.J.J.p.p.=.=.p.p.=./ =.p.J.J.J.J.p.p.=.=.p.p.p.p.=.=.=.=.=.L L / =.p.p.p.p.p.=./ =.=.p.p.p.p.p.=.=./ / / L L L / =.p.J.J.p.p.=.p.p.p.p.=.=.=.=.p.p.=./ =.J.J.p.p.p.=.p.p.p.p.p.p.J.p.p.p.p.p.p.=.=.=./ / =.p.p.J.!.J.",
"=.=.=./ =.=.p.J.J.=.L L L / =.p.=./ / =.=.=.p.p.p.p.p.p.=.=.=.=./ / =.p.J.p.p.p.p.=.L y L / =.p.=./ L L L L L / =.=.p.=./ y L / / / L L L L =.=.=.=.=.=./ / =.p.p.p.=.=./ / / =.p.J.J.J.p.p.p.J.!.!.J.p.J.J.J.p.p.p.p.p.p.p.J.J.J.J.p.=.p.p.p.p.p.p.p.J.J.J.J.p.=./ =.p.p.p.p.p.p.p.p.=.=.p.J.J.J.p.p.=.=.p.p.p.p.=./ =.p.p.=./ =.J.J.J.p.p.=.=.p.=.=.p.p.p.p.=.=.=./ / / =.=.p.p.p.p.p.=.=.=.=.p.p.p.p.p.p./ / / =./ / / / =.p.p.J.J.p.=.=.p.p.=./ / =.=.=.=.=./ =.p.p.p.=.=.p.p.p.p.p.p.J.J.p.=.=.p.p.=.=./ / / / / p.J.!.!.J.",
"p.=./ L / / p.J.J.=.L L L / p.J.p.p.p.p.p.=./ =.p.p.J.J.p.p.=.=./ L =.!.[.J.p.p.J.p./ L L L =.p.=./ L y y L / =.=.p.p.p.=./ =.=.=./ L / / / / L / / =.=.=.p.p.p.p.=./ =.=.=.=.=.=.p.p.J.J.p.p.J.!.!.J.p.J.!.!.!.!.p.p.p.p.J.J.J.J.p.p.=.=.=.=.p.p.p.p.p.J.J.J.p.p.=.=.=.=.p.p.p.p.p.p.p.p.p.!.!.!.J.p.=.=.=.=.=.=./ L / =.p.=.=.p.J.J.=.=.=.=.=.p.p.=.=.J.!.p.=./ / / =.p.=.=.=.p.p.p.p.p.=.=.=.=.p.p.p.p.p.=.=.=.p.p.p.p.=.=.p.p.p.p.p./ / =.=./ L L =.=.=.=.=.=.=.=.=.=.=.p.J.p.=.=.p.J.p.p.=.=.=.=./ / / / / / / =.p.!.!.!.J.",
"p.=./ / / / =.J.J.=.L L L =.p.J.p.p.p.J.p.=./ =.p.J.!.J.J.p.p.=./ L =.!.[.J.p.p.J.p.p.=./ / =.p.=./ L y y L =.=.=.p.p.p.p.=.p.p.p./ / =.=.=.L L L L / =.p.p.p.p.p.=./ =.p.p.=.=.=.=.p.J.J.p.p.J.!.J.p.p.J.!.[.[.!.J.p.p.J.J.J.J.p.p.p.=./ / =.p.p.p.=.p.J.J.J.J.p.=./ / =.p.p.p.p.p.p.p.p.J.!.!.!.J.p.=./ / / =.=./ L / =.p.=./ =.p.p.=./ / =.p.p.p.=.p.J.!.p.=./ / =.p.J.p.=.=.p.p.p.p.p.p.p.=.=.p.p.p.p.p.=.=.p.p.J.!.J.p.=.p.p.p.p.=./ / / / L L / =.=.=.=.p.p.=.=./ =.=.J.!.J.=.=.J.J.p.=.=.=.=.=./ / L / =.=.=.p.J.!.!.!.J.",
"p.p.=.=.=.p.p.J.p.=./ L L / =.p.=.=.=.p.p.p.p.p.J.J.!.J.p.p.p.p.=./ =.J.J.=./ =.p.p.p.p.p.p.p.=.=./ / L L / =.=./ =.p.J.p.=.p.p.p./ L =.=.=.L L L L / =.p.J.J.p.p.=./ =.J.J.p.=.=.=.p.J.J.p.p.p.p.p.=.p.J.[.[.[.!.J.p.J.J.J.p.J.J.J.p.p.=.=.p.p.p.=./ p.J.J.J.J.p.p.=./ =.p.p.J.J.J.J.J.J.J.!.!.J.p.=.=./ L L / / =.=.=.p.p./ L L =.=./ / =.p.p.p.p.p.p.p.p.p.=.=.=.p.p.J.p.p.p.p.p.p.p.p.p.p.p.p.p.p.p.J.p.p.p.p.p.J.J.p.=.=.p.J.J.J.p.=.=.=.=.=.=.=.=.=.=.=.=.p.p.p.=.=.=.J.!.!.p.p.J.J.p.=.=.p.p.p.=.=.=.=.=.p.p.J.!.!.!.!.J.",
"p.p.p.J.J.p.p.p.p.=./ L L / / / L L L =.p.J.!.!.!.!.J.p.=.=.p.p.=./ / p.=.L L / =.p.p.p.J.J.p.=.=.=.=./ / =.=./ L L =.J.p.=.p.J.p.=.L / =.=./ L L / =.=.p.J.J.p.p.=.=.p.J.J.p.=.=.=.p.p.p.p.p.p.=.=.=.p.J.[.[.!.!.J.J.J.J.p.p.p.J.J.p.p.p.p.p.p.=.L L =.p.J.p.p.p.p.=.=.=.p.J.J.J.J.J.J.J.J.J.J.p.p.=./ L L L L / =.p.p.J.p.L 3 y L / / =.p.p.p.p.J.!.J.p.=.=.=.p.J.J.J.p.p.J.p.=.=.=.=.=.=.p.J.J.p.p.p.J.p.p.p.p.p.p.p.=.=.=.p.J.!.!.J.p.=.=.p.p.J.p.p.=.=.=.=.p.p.J.p.=.=.p.!.!.p.p.J.J.p.p.p.p.p.p.p.p.=.=.p.p.J.!.!.!.!.!.J.",
"=.p.p.p.p.p.p.=./ L L L L L / / L L L =.p.!.!.!.!.J.p.=.L L / / L L L / / L L / =.p.p.p.J.!.J.p.=.p.=.=.=.=.p.=./ L =.=.=.=.=.p.p.=./ =.=.=./ / / / =.=.p.p.J.J.p.=.=.=.p.J.p.p.p.p.p.p.p.p.p.p.p.=.=.p.J.!.!.!.!.J.J.J.p.p.p.p.J.J.p.p.p.p.p.p.=.L L / p.p.p.p.p.p.=.=.p.p.p.p.J.J.J.J.J.J.p.p.J.p.=.L L L L L / =.p.J.J.p.L y y / =.=.=.p.p.p.p.p.J.J.p.=.=.=.p.J.!.J.p.p.p.p.=.=./ / / =.p.p.p.p.=.p.p.p.p.p.p.J.p.=.=.=.=.p.J.J.J.p.p.=.=.p.p.J.p.p.=.=.p.p.p.J.!.J.p.p.J.!.!.p.p.p.p.p.p.p.p.p.p.p.=.=.p.p.p.p.J.!.!.!.J.J.",
"=.=.=.=.=.=.=.L y 3 3 y L / =./ / L / p.J.!.!.!.!.p.=.L y 3 y y y y L L / / =.=.p.p.p.p.J.J.J.p.p.p.p.=.=.p.J.p.=./ L L / =.=.=.=.=.=.=.=.=.=.=.=.=.=.=.=.p.p.!.!.p./ / =.p.p.p.p.p.p.=.=.=.=.p.J.p.p.p.J.!.!.J.J.!.J.p.p.p.J.J.J.p.p.=.=.=.=.=./ y y / p.p.p.p.p.p.p.p.p.p.p.p.p.p.p.p.p.p.p.J.!.J.=.L y L L L / =.p.p.p.=.L L / =.p.=.=.p.p.p.p.p.p.p.p.p.p.=.p.p.J.J.p.=./ =.=.=./ L / =.=.=.=.=.=.=.p.p.=.p.J.J.p.p.p.p.p.p.J.p.p.p.p.=.=.=.p.p.p.p.p.p.p.J.!.!.!.!.J.J.J.!.J.J.p.p.p.=.=.=.p.=.=./ / / =.p.p.p.p.p.J.J.p.p.",
"=./ / L / =./ L y 3 3 L / =.=.=./ L =.p.J.!.J.J.p.p.=.L 3 3 y L L L L L / =.=.=.=.p.p.p.p.J.p.p.p.p.p.p.p.p.J.p.p.=.L L / =.=.=.=.p.p.=.=.=.=.=.=.=.=.=.=.=.p.J.J.=./ / =.p.p.p.p.p.=.=.=.=.p.p.J.p.p.p.p.p.p.p.J.J.J.p.p.p.J.J.J.p.p.=.=.=.=.=./ L L =.p.p.=.=.=.p.p.p.p.p.p.p.p.p.p.p.p.p.p.J.!.!.p.=./ / / / / / =.=.p.p./ / =.p.p.p.p.p.p.=.=.=.p.p.p.p.p.=.=.p.p.p.p.=./ =.p.p.=.L / / / / =.=.=.=.=.=.=.p.p.J.p.p.=.=.=.p.p.p.p.p.=.=.=.=.=.=.p.p.p.p.p.J.!.!.!.J.J.J.!.J.J.p.p.p.=.=.=.=.=.=./ / / / =.p.p.p.=.p.p.p.p.p.",
"/ L y y L =.=.L L L L / p.p.p.=.L L =.J.J.J.p.=.L / =./ L L / =.=.=./ / / / =.=.=.=.=.p.p.p.p.p.p.p.p.p.p.p.p.p.p.=.=./ =.=.p.p.p.p.p.p.=.=.=.p.p.=.=.=.=.=.=.p.p.=./ / =.=.p.p.p.p.=.=.=.=.p.p.p.p.p.=.=.=.p.p.p.J.J.J.J.J.p.p.p.p.=.=.=.=.=.=.=.=.=.=.p.=.=.=.=.p.p.J.p.p.p.p.p.p.p.p.p.p.J.J.J.J.J.p.p.p.p.=.L L L / p.p.p.=.=.=.p.p.p.p.p.=./ / =.p.J.J.p.=.=.=.=.p.p.=.=.p.J.J.p./ / / / =.=.p.p.p.=.=.=.p.p.p.p.p.=.L L p.p.p.p.p.p.p.=./ / / =.J.J.p.p.p.!.!.J.J.J.J.!.!.J.p.=.=.=.=.=.=.p.=.=./ / =.=.p.p.p.p.p.p.p.p.p.",
"/ L 3 = y =.=./ L / / p.J.J.p./ L y / p.J.J.p.L L L =.=./ =.p.J.J.p.=./ L / =./ / =.p.p.p.=.p.p.p.p.p.p.p.p.=.=.p.p.=.=.=.p.p.p.J.J.p.p.=.=.p.p.p.=.=.=.=.=.=.=.=.=./ / =.p.p.p.p.p.p.=.=.=.p.p.p.p.p.=.=./ =.p.p.p.p.J.J.J.J.p.p.p.p.=.=.p.p.p.p.p.p.p.p.p.=.=.p.p.J.J.J.p.p.p.J.J.J.p.p.p.p.J.p.p.J.!.!.!.J.=.L L L / p.J.p.=.=.p.p.p.J.J.p.=./ / =.p.J.J.p.=.=./ =.p.p.p.=.p.!.!.p.=./ / =.=.p.p.p.p.=.=.=.=.p.p.p.p.=.L L =.p.p.p.p.p.p.=./ L / =.J.!.p.p.p.J.J.p.p.p.J.J.!.J.=.=.=.=.=.=.=.=.=.=.=.=.=.=.p.p.p.p.=.=.=.=.p.",
"L L y 3 L =.=./ L / =.p.!.J.=.L y y L p.J.p.p./ L / =.p.p.p.J.J.J.J.=./ L / / / / =.p.p.p.=.=.p.p.J.J.p.p.=.=.=.=.=.p.p.p.p.=.=.p.p.J.p.p.p.p.p.=.=.=.=.=.p.p.p.=.=.=.=.=.p.J.J.J.p.p.p.p.=.=.=.p.p.J.p.=.=.=.p.p.p.p.J.J.J.!.J.J.p.p.p.p.p.p.J.J.J.J.p.p.p.p.p.p.p.J.!.!.J.J.J.!.!.J.J.p.p.p.p.p.p.p.J.!.!.J.p./ / / / =.p.p.p.p.p.p.p.J.J.p.p.=.=.p.p.p.p.p.=.=.=.=.p.J.p.=.p.!.!.J.=.p.p.=.=.=.=.p.p.p.=.=.=.=.=.p.p.=.L / p.p.J.p.p.p.=./ L L / p.!.!.J.p.J.J.J.p.p.p.p.p.p.p.=.=.p.p.=.=.=.=.=.p.p.p.p.=.=.=.=.=.=.=.p.p.p.",
"L L y y L =.=./ / =.=.p.!.p.=.L 3 3 L p.p.p.p.=.=.=.=.p.!.!.J.p.p.J.p./ L L / / / =.p.p.p.=.=.=.p.J.J.p.=.=.=.=.=.=.p.p.p.p.=./ =.p.J.J.p.p.p.p.=.=.=.=.p.J.J.p.p.p.p.p.p.p.J.!.J.p.p.J.p.=./ =.p.J.J.J.p.p.=.=.p.p.p.p.J.!.!.!.!.J.J.p.p.p.p.J.!.!.J.J.p.p.p.p.p.p.J.!.!.!.!.!.!.!.!.p.p.p.p.p.p.p.p.p.J.!.J.p.=.=.=.=./ / =.p.J.J.J.J.p.p.p.p.p.p.p.p.p.p.p.p.=.=.p.J.J.p.=.p.!.!.J.p.p.p.p.=./ =.=.=.p.=.=.=.=.=.p.p.p.=.=.p.J.J.J.J.p.=./ L / =.p.J.!.J.J.!.!.J.p.=.p.p.p.=.=.p.p.J.J.p.=./ / =.p.J.J.p.p./ / L / =.p.p.p.p.",
"/ / L L =.p.p.=.=.p.p.J.J.p.=.L y y / p.J.p.=.=.=.=.=.p.!.!.J.p.J.J.p.=.L L L / =.=.p.p.=.=.=.=.p.J.J.p.=.p.J.p.=.=.p.p.p.p.=.=.=.p.p.p.p.p.p.p.p.=.p.p.p.J.J.J.p.J.J.p.p.p.p.J.p.p.p.J.J.p.=.=.p.p.J.J.p.p.=.=.=.=.p.p.J.!.!.!.J.J.J.p.p.p.p.J.J.!.J.J.J.J.p.p.p.p.J.!.!.!.J.!.!.J.p.p.=.p.J.J.p.p.p.J.J.J.J.p.p.p.=.=./ L / =.J.!.!.J.p.p.p.p.J.J.J.J.p.p.p.p.=.=.=.p.J.p.=.p.J.J.p.p.p.p.p./ / / =.=.=.=.=.=.=.=.=.p.p.p.p.p.p.J.J.J.J.p.=./ =.p.p.J.J.p.p.J.!.J.=.=.p.p.p.=.p.p.J.J.J.p.=.=./ =.p.J.J.p.p.=.=.=.=.=.=.=.=.=.",
"=.=.=./ =.p.J.J.J.J.J.J.p.p.=.=./ / p.J.J.p.=.=.=./ / =.J.!.J.p.J.J.J.=./ L L =.p.p.=./ / / =.p.p.J.p.p.=.J.!.J.p.=.=.=.p.p.p.p.p.p.p.p.p.p.p.p.p.p.p.J.J.p.p.J.J.J.J.p.=.=.p.p.p.p.p.!.!.J.p.p.p.p.p.p.p.p.=./ / / =.p.!.!.!.J.p.p.p.p.p.p.p.p.J.J.!.!.!.J.p.p.p.p.J.J.J.J.J.J.J.p.p.=.p.p.J.!.J.J.J.J.J.J.p.p.p.p.p.=./ L / =.J.!.!.p.p.=.=.p.J.!.J.J.J.J.p.=.=.=.=.p.p.p.=.=.p.p.p.p.p.p.p.=./ / / / / / =.=./ / =.p.p.p.p.p.p.p.J.J.J.J.p.p.p.p.p.p.p.=./ p.J.J.p.=.p.p.p.p.p.J.J.J.p.p.=.=.=.=.p.p.p.p.J.J.!.!.J.p.=./ L / ",
"p.p.=.=.p.J.J.!.!.!.J.p.p.=.=.=.=.p.J.!.!.p.=.=.=./ / =.J.J.p.=.p.J.J.p.=.=./ =.p.p.=./ / / =.p.p.J.J.p.p.J.!.J.p.=.=.=.p.p.p.p.p.=.=.=.p.p.J.p.p.p.p.J.J.p.p.J.!.!.J.p.=.=.=.p.p.p.p.!.!.J.J.p.p.p.p.p.p.p.p.=./ / =.p.!.!.J.p.p.p.p.p.p.p.p.p.p.J.!.!.!.J.p.p.p.J.J.J.J.J.J.J.J.J.p.p.p.p.!.!.!.J.J.J.J.p.p.p.p.p.=.=./ / / =.p.!.!.p.=./ / p.J.J.J.p.J.J.p.=.=.=.=.=.=.p.=.p.p.p.p.p.p.p.p.=./ / / / =.=.=.=./ / =.=.p.p.J.p.p.p.p.p.J.J.p.p.p.p.p.p.=./ L p.!.J.p.p.p.p.p.p.p.J.J.J.p.p.=.=.=.p.p.p.p.p.J.!.!.J.p.p.=./ L / ",
"p.p.p.=.p.p.J.!.!.J.p.=.=.=.=.p.p.J.!.!.J.p.=.=.=.=.=.=.p.p.=./ =.p.p.J.J.p.p.=.=.p.p.p.=./ =.p.p.J.J.p.p.p.p.p.p.=.=.=.p.p.J.J.p.=.=.=.p.J.J.J.p.p.p.p.p.p.p.J.!.!.J.p.=.=.=.p.p.p.J.J.J.p.p.p.p.=.p.p.J.J.p.p.=./ =.p.J.J.J.p.p.p.p.p.p.p.p.p.p.J.!.!.!.J.p.p.p.J.J.J.J.J.J.J.!.!.!.J.p.p.!.!.J.J.p.p.p.J.J.J.p.p.=.=.=./ / / p.!.J.=./ / =.=.p.p.p.p.p.p.p.p.=.=.=.=.=.=.p.p.p.p.J.J.J.p.p.p.=.=.=.p.p.p.=.=./ / =.=.p.J.J.!.!.J.p.p.p.p.p.p.p.p.p.p.=./ / p.[.!.p.p.p.p.p.p.p.J.J.J.p.=./ =.=.p.p.p.p.p.p.J.p./ L =.p.=.=.=.",
"p.p.p.=.=.p.J.!.!.J.p.=./ =.=.p.J.!.!.!.J.p.=.=.=.=.=.=.p.p.=./ / =.p.!.!.J.p.p./ =.p.p.=.=.=.p.J.!.J.p.p.p.p.p.p.=.=.=.p.p.p.p.p.=.=.=.p.p.J.J.p.p.p.p.p.p.p.J.!.J.p.p.=.=.=.p.p.p.p.J.p.p.p.=.p.p.p.p.J.J.J.p.=./ =.p.J.J.J.p.p.p.=.=.p.p.p.p.p.J.J.!.!.J.p.p.p.J.J.J.J.J.J.J.!.!.!.J.p.p.J.J.J.p.=.=.p.J.J.J.p.p.=.=.=.=./ / =.p.p./ / / =.=.=.=.p.p.p.p.p.p.p.=.=.=.=.=.p.p.p.J.J.J.J.p.p.p.p.p.p.p.p.p.=.=.=.=.=.=.p.J.!.!.!.J.p.p.p.p.p.=.=.=.p.p.=.=.=.p.[.!.p.p.p.p.p.p.p.p.p.p.p.=./ =.p.p.p.p.p.p.p.J.p.L y / p.p.p.p.",
"=.p./ L / p.J.!.!.J.p.=.=.=.p.J.!.!.J.p.p.=.=.=.=.=./ =.=.p.=.=./ =.p.!.!.!.J.=./ / =.p.=.=.p.p.J.J.p.p.=.p.p.p.p.=.=.=.p.p.p.p.=.p.p.=.=.p.p.p.p.p.p.p.p.p.p.!.!.J.p.p.p.p.p.p.=.=.=.=.=.p.p.p.p.p.p.J.p.p.p.p.=.=.=.p.p.J.J.J.p.p.=.=.p.p.p.p.p.p.J.J.J.J.p.p.p.p.J.!.J.p.p.J.J.!.!.J.p.p.p.p.p.p.=.=.=.p.J.p.p.=.=./ =.=.=.=.=.=.=./ / / / L L / =.p.p.p.p.p.p.p.p.p.p.p.p.p.p.p.p.p.p.p.p.J.p.p.p.p.p.p.=.=.=.p.=.=.=.p.J.!.!.J.p.=./ / =.=.p.p.p.J.p.p.p.p.!.J.p.p.p.p.p.=.=.=.p.p.p.p.=.=.=.p.p.p.p.p.J.!.p./ L =.J.J.p.p.",
"=.=.L y y =.p.J.!.!.J.p.=.=.p.J.!.!.p.p.=.=.=.=.=.=./ / =.=.=.=.=./ p.J.!.!.J.p./ L / =.=.p.p.J.J.p.=.=.=.p.J.J.p.=.=.p.p.p.p.=.=.p.p.p.=.=.p.p.p.p.p.p.p.p.J.!.!.J.p.p.p.p.p.=.=./ / / =.p.p.p.p.p.J.J.p.=.=./ =.=.=.p.p.J.!.J.p.=.=./ p.J.J.p.p.p.p.p.p.p.p.p.p.p.J.!.J.p.p.p.p.p.p.p.p.p.=.=.=.=.=.=.=.p.p.p.p.=./ / =.=.=.=./ L L =.=./ / L y L =.=.p.p.p.p.p.p.p.p.p.p.=.=.p.=.=.=.=.p.J.J.J.p.=.=.=.=.=.=.p.p.p.=.=.=.p.J.!.J.p.=.L L =.p.p.p.p.J.J.J.p.p.J.p.p.p.p.p.=./ / / =.=.p.p.p.p.=.=.p.p.J.!.!.!.J.=./ p.!.!.J.p.",
"p.=.y 3 3 L =.p.!.!.!.p.p.p.p.J.J.J.p.=.=./ / / / / / / =.=.=.=.=.=.p.J.!.!.J.p.=./ / / =.p.p.p.p.p.=./ / =.p.p.p.p.p.p.p.p.p.=.=.p.p.p.=.p.J.J.p.=.p.p.p.p.J.!.!.J.p.p.p.p.=.=./ / / / / =.p.p.p.p.p.p.p.=.=.=.=.p.p.p.p.J.!.p.=.=.=.=.p.J.J.p.p.p.p.p.p.p.p.p.p.p.J.J.J.p.p.p.=./ / =.p.p.=.=.=.p.=.=.=.p.p.p.=./ / / =.p.=./ L L / =.=.=./ L L L =.p.=.=.=.=.=.=.=.p.p.p.p.p.p.p.=.=.p.p.p.p.p.p.p.=.=.=.=.p.p.p.p.p.=.=.=.p.J.J.p.p.=.=.p.J.p.p.p.J.J.J.p.J.J.J.p.p.p.=.=./ / =.=.=.=.p.p.p.=.=.p.p.!.!.!.!.p.=./ p.!.!.p.p.",
"p.p.L = = 3 L p.!.!.!.J.p.p.p.p.p.p.p.=.=.L L L L L / / / / =.=.=.p.p.p.J.!.!.p.=./ L / =.p.p.p.p.=.=./ / =.p.p.p.p.J.J.J.p.p.p.p.p.p.=.p.J.[.!.p.=.=.p.p.p.p.!.!.J.p.p.p.=.=./ / =.=.=.=.=.=.p.p.p.=.=.p.p.=.=.=.p.p.p.p.J.!.p./ / p.p.J.p.p.p.p.p.p.=.=.p.p.p.p.p.p.p.J.J.p.=./ y y / p.p.=.=.=.p.p.=.=.=.=.=.=./ / / p.p.=./ L / =.=.p.p.=./ L / p.p.=./ / / L L L =.p.p.=.p.p.p.p.p.p.p.p.p.p.p.p.=./ =.p.J.J.J.J.J.p./ / =.p.p.p.p.p.J.!.!.J.p.p.J.J.p.p.J.J.J.p.=.=./ =.=.=.=.=.=.=.p.p.p.p.p.p.J.!.[.[.J.=.L L p.!.!.p.=.",
"p.p.L y 3 3 y =.p.J.J.J.J.p.=.=.=.=.=.p.=.L y y L / =./ L L / =.p.p.p.p.p.J.J.p.=.=./ / =.=.=.=.=.=.=.=.=.=.=.p.p.J.J.J.p.=.=.p.p.p.=.=.p.J.!.!.p.=.=.p.p.p.p.J.!.J.p.p.p.=.=./ / =.=.=.=.=.=.=.p.=.=.=.p.p.=.=.p.p.p.p.p.J.!.p.=.=.p.J.p.p.p.p.p.p.p.=.=.=.p.p.J.p.p.p.J.J.p.=.L y y L =.p.=.=.p.p.p.p.=.=.p.p.=.=.=.=.p.p./ L / p.p.p.p.p.=.=./ =.p.p./ L / / L y L / p.=.=.=.p.p.p.p.p.p.p.=.p.J.J.=./ =.p.J.J.J.J.J.p.=.=.=.=.=.=.p.J.!.!.!.p.p.p.J.J.p.p.J.J.p.=.=.=.=.=.=.p.p.p.=.=.p.p.p.p.p.p.J.!.[.!.J.=./ / p.!.!.J.p.",
"p.=.=./ y 3 y L =.p.p.J.J.p./ L L L =.p.p./ L L L / =.L 3 3 L p.p.p.=.=.=.p.J.p.=.=.=.=./ L / =.=.p.p.p.p.=.=.p.J.J.p.=.=./ =.p.p.=.=.=.=.=.=.=.=.p.p.p.p.p.p.p.J.J.p.p.p.p.=.=.=.=.=.=.=.=.=.=.=.p.p.p.=.=.=.p.p.p.p.p.p.J.J.J.p.=.p.p.p.=.=.=.p.p.J.p.=.=.p.p.J.p.p.p.p.J.p./ L y y L / =.=.=.=.p.p.p.p.p.p.p.p.p.p.p.p.=./ L =.J.!.J.p.p.=.=.=.=.=.=./ / / =.=.L L =.=.=.L / =.p.p.p.p.p.p.p.p.J.J.p.=.p.p.J.J.J.J.J.J.p.p.=.=.=.=.=.p.J.J.p.p.=.p.J.!.J.J.J.p.=./ / =.p.p.p.p.p.p.=.=.p.p.p.p.p.p.J.!.!.!.J.p.=.=.p.J.!.!.!.",
"p.p.=.=.L y y L / =.p.J.J.p./ y y y / p.p./ L L L =.=.L 3 = L p.p.p.=./ / p.p.p.=.=.p.=.L L L =.=.p.p.p.p.p.=.=.p.J.p.=./ / / =.=.=.=.=.=./ / / =.p.p.p.p.p.p.p.p.p.p.p.p.p.p.=.=.=.=.=.=.=.=.=.=.p.p.p.=./ =.p.p.p.p.p.p.J.J.J.p.p.p.p.=.=.=.=.p.J.J.p.=.p.p.p.p.p.p.p.p.J.p./ L y y L L / =.=.=.p.p.=.p.p.p.J.J.J.p.p.=.=./ / p.!.[.!.J.p.=.=.=.=.=./ / / =.p.=.=./ =.=./ L / =.p.p.p.p.p.p.p.p.J.J.J.p.p.p.p.p.J.J.J.J.J.J.p.=.=.=.p.p.p.p.p.=.=.p.p.J.J.J.J.p.=./ / p.p.p.p.p.p.p.p.p.p.p.p.p.p.J.J.!.!.!.!.J.p.=.p.J.!.[.[.",
"p.p.p.p.=./ / =.=.p.p.p.p.=./ L L L =.J.p./ L L / =.p.=.L L / =.=.=./ / / p.p.p.=.=.=.=.L L L =.=.=.p.p.p.p.=.=.p.p.=.=.=.=.=./ / =./ / L L / =.p.p.p.p.p.p.p.p.p.p.p.J.J.J.p.p.p.=.=.=.=./ / / =.p.p.p.=.=.=.p.p.p.p.J.p.p.p.p.p.p.p.p.=.=.=.=.p.J.J.p.p.p.p.p.p.p.p.p.J.!.J.=.L L y L L / =.=.=.=.=.=.p.p.p.p.J.p.p.p.p.=.=.=.p.J.J.J.J.p.p.=./ / / / / / =.p.p.p.=.=./ / =.=.=.p.p.p.p.p.=.=.=.J.!.J.J.p.J.J.J.J.J.J.J.J.J.p.=.=.p.p.J.J.p.=.=.=.=.p.p.J.J.p.p.=.=.=.p.p.p.p.p.p.p.p.p.p.J.p.p.p.J.!.!.!.!.J.p.p.p.p.J.!.[.[.",
"J.J.p.p.=.=.=.p.p.p.p.=.=.=./ / / / p.J.p./ L L / =.p.p.=.=.=.=.=./ / / =.=.p.p.=.=.=.=./ / / =.=.=.p.p.p.p.p.=.=.=.=.=.=.p.=./ / / =./ L / =.p.p.=.=.=.p.p.p.p.p.p.p.J.J.J.p.p.p.p.=./ L L L / =.p.=.=.=.=.=.=.p.p.p.J.J.p.p.p.p.p.p.p.=.=.=.=.p.J.J.J.p.p.p.p.p.p.p.p.J.!.!.p./ L L L L / =.=.=.=.=.=.p.p.p.p.p.p.p.p.p.p.p.p.p.=.p.p.p.p.p./ y L / =./ / =.p.p.J.p.=.L =.p.p.p.p.p.p.p.p.=./ =.p.!.!.J.J.p.p.J.J.J.p.J.J.J.p.=.p.p.J.!.J.p.=.=.=.=.=.=.p.p.p.p.p.p.p.p.p.p.p.p.p.p.p.p.J.J.J.J.J.J.!.!.!.!.J.p.p.p.p.J.!.[.[.",
"!.!.J.p.=.=.=.=.=./ / / / / =.=./ / =.p.p./ / =.=.p.p.p.=.=.=.=.=./ / / / =.=.=.p.=.=.=.=.=.=.p.p.p.p.=.=.=.=.=.=.=.=.=.p.p.p.=.=.=.p.=./ =.p.p.=.=.=.=.p.p.p.p.=.p.p.J.J.J.p.p.=.=.L y 3 y y / =.p.=.=.p.p.p.=.p.p.p.!.!.p.=.=.p.p.p.p.p.p.p.p.p.p.J.p.p.p.p.p.p.p.=.=.p.J.!.J.p./ L y y L =.p.=./ =.=.p.p.p.p.p.J.J.p.p.p.J.!.p.=.=./ =.=.=.L y y / =.=.=.p.p.p.J.p.=./ =.p.p.p.p.p.p.=.=./ / =.p.!.!.J.p.p.p.p.J.J.p.J.J.J.p.p.p.p.p.p.p.p.=.p.p.=./ / =.=.p.J.J.p.p.p.p.p.p.p.p.p.p.p.J.!.!.!.J.J.J.J.J.J.p.p.p.p.J.J.J.!.!.",
"!.!.J.=./ L L L L y y L L =.=.=./ L L / =.=.=.p.p.p.=.=.=.=.=.=.=.=.=.L L L / =.p.p.=.=.p.p.p.p.p.p.p.=.L L L / =.=.=.=.p.p.p.p.p.J.J.p.=.p.J.J.=./ / =.p.J.J.p.=.p.p.p.p.p.p.=.=.L y = O 3 L / =.=.=.=.p.p.p.=.=.=.p.!.!.p.=.=.=.=.p.J.J.p.p.p.p.p.p.p.p.p.p.p.p.p.=.=.=.p.J.!.J.=.L y 3 y =.p.=./ / =.p.p.p.p.J.J.!.J.p.p.J.!.J.=./ L L / =.L y L / =.p.p.p.p.p.J.p.p.p.p.p.p.p.p.p.p.=./ / =.=.J.!.J.p.=./ =.p.J.J.p.J.J.J.p.p.=.=.=.=.=.=.p.p.J.p.L L L =.p.!.J.p.p.p.p.p.p.J.J.J.p.p.J.!.!.!.!.J.J.J.J.p.p.p.J.J.J.J.p.p.p.",
"!.!.p./ L y y y y y L L / =.=.=./ L L / / =.p.J.J.p.=.=.=.=.=.=.=.=.=./ L L L =.p.p.=.=.p.J.J.J.J.J.p.=./ L L L =.=.=.=.p.p.p.p.p.J.J.p.p.p.J.J.=./ / =.p.J.J.p.=.p.J.J.p.p.=./ L L 3 O O y L =.=.=.=.=.=.=.p.=.=.=.=.p.p.p.=./ L =.p.!.!.J.J.p.p.p.p.p.p.p.p.p.p.p.p.=.p.p.p.!.J.=.L y y y / =./ / =.p.p.p.p.p.p.J.!.J.p.p.J.!.J.=.L y y / =.=.L / =.p.p.p.J.J.J.J.J.p.p.p.p.p.p.p.p.p./ L / =.p.!.!.J.p./ L L p.J.J.J.J.J.J.J.p.p.=.=.=.=.p.p.p.p.=./ L / p.J.!.!.p.p.p.p.p.J.J.!.J.p.p.J.!.!.!.J.J.p.p.p.p.p.J.!.!.J.J.p.p.J.",
"!.J.=.y 3 3 y y y / =.=.=.=.=.=.=.=./ / =.p.J.!.!.p.=./ / / =.p.p.=.=.=.=./ L / p.p.p.p.p.J.J.J.J.J.J.p.=./ L L =.p.p.p.p.p.p.p.p.p.p.p.p.p.p.p.=.=.=.p.p.p.p.=.=.p.J.J.p.=./ L L L 3 = 3 L =.=.=.=.=.=.=.=.=.=.=./ / / =.=.=./ L / p.!.[.!.!.p.p.=.=.=.p.p.J.J.J.p.p.p.p.p.p.p.p.=.L L L L L L L / =.p.J.J.J.p.p.J.!.J.p.p.p.p.p.=./ L L =.p.p.p.p.p.p.p.J.J.!.J.!.J.J.J.=./ =.p.J.J.p.=.L / p.!.!.!.J.p./ y L p.!.!.!.!.J.J.J.J.p.p.p.=.p.p.p.p.=.=.=.=.p.J.!.[.!.J.p.p.p.J.J.!.!.J.J.J.J.J.J.J.J.p.p.p.p.J.J.!.!.!.!.J.!.!.!.",
"p.p.L 3 3 y y L / =.p.p.p.p.=.=.=.=.=./ =.p.!.!.!.p.=./ L / =.p.p.=.=.p.=./ L =.p.p.p.p.J.J.J.J.J.J.p.p.p./ L / =.p.p.p.p.p.p.p.=.=.p.p.p.p.p.p.p.=.p.p.p.p.p.=.=.p.!.!.J.p./ L L L y 3 y / p.p.=.=./ / =.=.=.=./ / L L L / =./ L / J.!.!.!.J.p.p.=.=.=.p.p.J.J.J.p.p.p.p.p.p.p.=.L L L / / L L L / p.J.!.J.J.J.p.J.!.J.p.p.=.=.=.=.=./ / =.p.p.p.p.p.p.J.J.!.!.J.J.J.J.p.=.L =.J.!.J.p.=./ =.J.!.!.J.p.=./ L L =.J.!.!.!.!.J.!.J.J.p.p.p.p.p.p.=./ =.p.J.J.!.[.[.!.!.J.p.p.J.!.J.J.J.J.J.J.p.p.p.p.p.p.p.p.J.!.!.!.!.!.J.!.!.!.",
"/ L L y L / =.=.p.p.J.J.p.p.p.=.=.=.=.=.p.p.J.!.!.p.=.=./ =.=.p.=./ =.=.=.=./ =.p.J.p.p.p.J.J.J.p.p.=.=.=.=./ =.=.p.p.p.p.p.p.p.p.=.p.p.J.J.p.=.=.=.p.J.J.p.p.=.p.p.J.J.p.p.p.=.=.=./ L L / =.=.=.=.=.=.=.=./ L L L L L L =.=.=./ =.p.J.J.p.=.=.=.=.=.=.=.p.J.J.p.p.p.J.J.J.p./ L y y L L / / / =.p.p.J.!.J.J.J.J.!.!.J.p.=.=.=.=.=.=.=.=.=.p.=.=.=.=.p.p.J.J.J.p.p.p.p.p.=.=.p.!.[.!.p.=./ =.p.J.p.p.p.p.=./ / p.J.!.!.!.!.J.J.p.p.=.=.p.J.p.p.=.=.=.J.J.J.J.!.!.!.J.p.p.p.p.J.J.p.p.J.!.!.J.p.=.=.p.p.p.p.J.J.J.J.J.p.p.p.J.p.",
"y y L L =.p.J.J.J.J.J.J.p.p.p.p.=.=.=.p.p.p.p.J.J.p.p.=.=.=.=.=.=./ / =.=.=.=.p.!.!.J.p.p.p.p.p.p.=.=.=.=.=.=.=.=.p.p.p.p.p.p.p.p.=.=.J.!.J.p.=.=.=.J.!.J.p.=.p.p.p.p.p.p.p.p.p.p.p.=./ / =.=.=.=.=.=.=.=.=.L y y L L / / =.=.=.=.=.p.p.=./ / =.=.=.=./ / p.p.p.p.p.p.J.J.p.=.L y y y L L / / =.p.p.J.J.J.p.p.J.!.!.J.p.=.=.=.p.=.=.p.p.p.p.=.=.L / =.p.p.p.p.p.p.=./ / =.p.J.!.[.[.!.p.p.=.=.p.p.p.=.=.p.p.p.p.p.p.J.J.!.J.J.p.p./ L =.p.J.p.p.=.=.p.J.J.J.p.J.J.J.p.p.p.p.p.p.p.p.p.J.J.J.J.p.=.=.=.p.p.p.p.p.p.p.p.p.=.=.p.=.",
"L L L / =.p.J.p.p.p.J.p.p.p.p.p.=.=.p.p.p.p.p.J.J.p.p.=.=.=.p.p.=.=.=.=.p.p.p.J.!.!.p.=./ L p.!.!.p.p.p.p.p.p.p.=.=.p.J.p.=.p.p.p.=.=.p.!.!.J.p.p.=.p.J.J.p.=.=.p.p.p.p.p.p.J.J.p.p.=.=.=.p.p.=.=.=./ / =.=./ / / / / =.=.=.=.=.=.=.=.=.=.=.=.=.=.=.=./ / =.p.p.p.p.p.J.p.=.L y 3 y L L / =.=.=.p.p.p.p.p.p.p.J.!.!.J.p.=.=.=.p.p.p.p.p.p.p.p.=./ / =.p.p.p.p.=.=./ / / =.p.J.!.!.!.!.J.p.p.p.p.p.p.p.p.=.p.p.p.=.=.=.p.p.J.p.p.=./ L / p.p.p.p.=.=.p.J.J.p.p.p.J.J.p.p.p.p.p.J.p.p.=.p.p.p.=./ L L =.p.p.p.p.p.p.p.p.p.=.=.=.=.",
"/ =./ / =.p.p.=.=.=.p.p.p.p.p.p.=.=.=.p.p.p.p.J.J.p.p.=.=.p.p.J.p.=.=.p.p.p.p.!.[.!.p.L 3 3 =.[.[.!.J.J.p.J.J.p.=.=.p.!.p.=.p.p.p.=./ p.!.!.!.J.p.p.p.p.p.p.=.=.=.p.p.p.p.p.J.J.p.=.=.p.p.p.p.p./ L L L / =.p.p.p.p.=.p.p.p.=.=./ L L L =.=.p.=.=.=.=.=./ =.p.p.p.p.p.p./ L y 3 y L L =.=.p.p.=.=.=.=.=.=.p.p.J.J.J.J.p.=.=.p.p.p.p.p.=.=.p.J.p.p.=.=.=.=.=.=.=.=.=.=.=.=.p.J.J.J.J.J.!.J.p.p.p.p.J.J.p.=.p.p.p./ L L / =.p.p.=./ L L / =.p.p.p.p.=.p.p.p.p.p.p.p.J.J.J.J.J.J.J.p.=.=.=.=./ L y y L p.J.p.=.=.p.p.p.p.p.p.=./ / ",
"=.=.=.=.p.J.p.=./ =.p.p.p.p.p.p.p.=.=.=.=.=.p.J.J.p.p.=.=.p.J.J.J.p.=.=.p.p.p.!.!.J.=.L = 3 / [.[.[.!.!.J.J.J.p.=.=.J.!.J.p.p.p.p.=./ =.J.!.!.J.p.p.p.p.=.=.=.=.=.p.p.p.p.p.p.p.p.=.=.p.p.J.p.p.=./ / / / =.p.J.J.p.p.p.p.p.p.=./ L y L / p.p.p.p.p.=.=.=.=.=.p.p.p.p.=.L y y L L / / =.=.=.p.p.=./ =.=.=.p.p.p.p.J.J.p.p.p.p.p.J.J.p.=.=.p.!.J.p.p.=.=.=.=.=.=.=.=.=.p.p.p.J.p.p.p.J.J.J.J.p.p.p.J.J.p.=.p.p.p./ L L / =.p.p.=./ / / =.=.p.p.p.p.p.p.=.=.p.p.p.p.J.J.J.J.J.J.J.p.=.=.=.=./ L y y L p.J.p.=.=.p.p.p.p.p.=.=./ =.",
"=.=.p.p.J.!.p.=./ =.p.p.=.p.p.p.p.p.=./ / =.p.J.J.p.p.=.=.=.J.!.J.p.=.=.=.=.p.p.J.p.L y 3 3 / !.!.!.!.[.!.p.=./ =.=.J.!.J.p.p.p.=./ / / =.p.p.J.p.p.p.p.=.=.=.=.=.=.p.p.p.p.p.p.=./ =.p.J.p.p.p.p.p.=.=./ =.p.!.!.!.J.p.p.p.p.=./ L y y L =.p.p.p.p.=.=.=.=.=.=.p.p.p.=.L L L =.p.p.=.=./ / =.=.=./ =.p.p.p.p.p.p.p.J.J.p.p.p.J.J.J.J.p.p.J.!.!.J.p.=./ =.=.=.=.=.=.=.p.J.p.p.p.=.=.p.p.J.!.J.p.=.p.p.p.p.=.=.=.=.=.=.=.p.p.p.p.=.=.=.=.=.p.p.p.p.p.=./ / =.p.J.J.J.p.p.p.p.J.p.=./ / =.=./ L L L =.p.p.p.p.p.p.p.p.p.p.=.=.=.p.",
"=.p.J.J.!.J.p./ L =.p.p.p.=.p.p.p.=./ L L =.p.J.J.p.p.=.=.p.J.J.p.=.=./ =.=.p.p.p.=.L y y y / J.!.!.!.[.!.p./ L =.p.J.!.J.p.p.p.=./ / / / =.p.p.p.p.p.p.p.=.=.=.=.=.=.=.p.p.=.=./ / =.p.p.=.=.p.p.p.p.=./ =.p.!.!.!.J.p.p.p.p.=./ L y y L / =.p.p.=.=.=.=.=.=.=.p.J.=./ L L =.p.J.p.=./ / / =.p.=.=.p.p.p.p.p.p.=.p.J.J.p.p.p.J.J.J.J.p.p.J.J.!.J.p.=./ =.=.=.=.=.=.=.p.J.p.p.=.=.=.=.p.p.J.p.=.=.=.=.=.=.=.=.=.p.p.p.p.p.p.p.p.=.=.=.=.=.p.p.p.p.p.=./ / =.p.J.J.J.p.p.p.p.p.p.=./ / =.p.=./ / =.=.p.p.p.p.p.p.p.p.p.p.p.p.p.p.",
"p.J.!.!.J.=./ L L =.p.p.p.p.=.=./ L L L L =.p.p.J.p.p.=.p.p.p.p.=./ / / =.p.p.J.J.=.L y y L / p.J.J.!.!.J.p./ / =.=.p.J.J.p.p.=.=.=.=./ / =.=.p.J.J.J.J.p.p.=.=./ =.=.=.p.=.=./ L L / =.=.=.=.p.p.p.=.=.=.=.p.p.J.J.p.p.=.=.=./ L y L L / =.=.=.=./ / =.=.=./ =.p.p.=.L / =.p.p.p.=.L L =.=.p.p.p.p.p.p.p.p.=.=.=.p.J.J.J.p.p.p.p.p.p.p.p.p.J.J.J.p.=.=.=.=./ / / / =.p.p.p.=.=.=.=.p.p.=.=.=.=.=./ / / =.=.=.=.p.J.J.J.p.p.p.=.=.=.=.=.=.=.=.=.=.p.=.=.=.=.p.p.!.J.J.p.p.p.p.p.=.=.=.J.J.p.=.=.=.p.p.p.p.p.p.p.p.p.p.J.!.J.p.p.",
"J.!.!.J.=.L y y L =.p.p.p.=.=./ L L L L / =.p.p.p.p.p.p.p.p.p.=./ L L =.=.p.p.J.!.p./ L L L / p.p.J.J.J.p.p.=.=.=.=.p.p.p.p.=./ / =.=.=./ / =.p.J.!.!.J.J.p.p.=./ / =.=.=.=./ L L L L L / =.=.=.=.=./ =.p.p.p.p.p.p.p.=.=./ / L L L L / =.=.=./ L L / =.p.=./ / p.p.=./ / p.p.p.=.L y L =.p.p.p.p.p.p.p.=.=.=.=.=.p.J.J.J.p.p.p.p.p.p.p.p.p.p.p.p.p.p.p.=./ L L L / / =.p.p.=.=.p.p.p.p.=.L L / / / / / / =.=.p.p.J.!.J.J.p.p.=.=.=.=.=.=./ / / =.p.p.p.p.=.=.p.J.!.!.J.p.p.p.p.p.p.p.!.!.p.=.=.p.p.p.p.p.p.p.p.p.=.p.!.[.!.p.p.",
"J.J.p.=.L y y / =.p.p.=./ L / / / / L L / =.p.p.p.p.p.p.p.p.p.p.=./ =.=.p.p.p.J.!.p.=./ L L / =.p.p.J.p.=.=.=.=./ =.p.p.p.=./ y L =.p.=./ =.=.p.J.J.J.J.J.J.p.p.=.=.=.=.=./ L L L L L / =.=.=.=.=./ / =.=.p.p.p.p.=./ L L / / / L / =.p.p.p.=./ L L / p.p.=./ =.p.p.p.=.=.p.p.=.=.L L / p.J.J.p.p.p.p.=.=.=.p.=.=.p.p.J.J.J.p.p.p.p.p.=.=.p.p.p.p.p.J.p./ L L =.=.=.=.p.p.=./ =.p.p.p.=.=.L L L / / =.=.=.=.=.p.p.J.J.J.p.=.=.=.p.p.p.=./ / =.p.p.p.p.p.p.p.p.p.J.!.!.!.J.J.p.=.p.p.J.!.!.J.=.=.=.=.p.p.p.p.p.p.=.=.=.J.!.J.=.=.",
"p.p./ y 3 y L p.J.J.p./ y y L =.p.p.=./ / =.=.=.=.p.J.J.J.p.p.p.p.p.p.p.p.p.p.J.!.J.p.=./ / / =.=.p.p.=./ / =.=./ =.=.p.=./ L 3 y / p.=.=.=.p.p.p.p.p.p.J.!.J.J.p.p.p.=./ L L L L L / =.p.p.=.=./ / / =.=.p.J.J.p./ L y y / =.=.=.p.J.!.!.J.=./ L / =.p.J.p.=.=.p.p.p.p.p.p.p.=./ L L =.p.J.p.p.p.p.=.=.p.p.p.p.p.p.p.p.J.J.J.p.p.p.p.=.=.=.=.=.=.p.J.p./ L / p.p.p.p.p.p.=.L / p.p.p.=.=./ L L L =.p.p.p.p.=.=.p.p.p.p.=.=.=.p.p.p.p.=.L / p.J.!.J.J.p.p.J.J.J.J.J.!.!.!.J.p.=.=.p.J.!.!.J.=.=./ =.p.J.p.p.=.=.=.=.=.p.p.=./ =.",
"p.=.L 3 3 L / p.J.J.p.=.L L =.=.p.p.p.=./ =.=.=.=.p.J.J.J.p.p.p.p.J.J.J.J.p.p.J.J.J.p.p.=.=./ / / p.p.=./ / =.=.=.=.=.=./ L y y y / p.p.=.=.p.p.p.p.p.p.J.!.!.!.J.J.p.=./ L L / / / / =.=.=./ / / =.=.=.p.p.p.p.=.L L y L =.p.p.=.p.J.!.!.J.p.=./ / / p.J.p.p.p.p.p.p.p.p.p.p.=./ / / =.p.p.p.p.p.=.p.p.p.p.p.p.p.p.p.p.J.J.J.J.p.p.p.=.=.=.=.=.=.p.p.p./ / =.J.J.p.p.p.=./ L L =.p.=.=.=.=.=.L L p.p.p.=./ / / =.p.p.p.=.=.=.p.p.J.J.=./ / p.!.!.J.J.J.J.J.J.J.J.J.J.J.J.p.=./ / =.p.J.J.p.=./ / =.p.J.p.p.=.=.=.=.=.=.=./ / =.",
"=.=.L 3 L =.p.p.p.p.p.p.p.p.p.p.p.p.=.=.=.=.=.=.=.p.J.J.J.p.p.p.J.!.!.!.J.J.p.J.J.J.J.p.p.=.=./ / / =.=.=.=.=.p.p.p./ L L L L L L =.p.p.=.=.p.p.p.p.p.J.!.!.!.J.J.p.p.=./ / =.=.=.=./ L L L L / p.p.p.p.p.p.=./ L L L / =.p.J.p.=.=.p.J.J.J.J.J.=.L L =.p.p.p.p.p.p.=.=.=.p.=.=.=.=.=./ / =.=.p.p.p.p.J.J.p.p.p.p.p.p.p.p.p.J.J.J.J.p.=.=.=.=.=.=.=.=.=.=.p.p.J.J.p.p.=./ L L L / / / / p.J.p.=.=.p.p.=.L y y L =.p.p.=.=.=.p.p.p.J.J.p.=.=.J.!.!.J.J.J.J.J.J.J.J.J.J.p.p.=.L L L =.p.J.J.p./ / =.=.p.p.p.p.=./ / =.=./ / =.p.J.",
"=.=.L L L p.p.p.=.=.p.p.J.J.J.p.p.=.=.=.=.=.=.=.p.p.J.J.p.p.p.p.J.!.!.!.J.J.J.J.J.J.J.J.p.p.=./ / / / =.=.=.=.p.p.p.L y y L / / =.p.p.p.p.p.p.p.p.p.J.!.!.!.J.p.p.p.p.=./ / =.=.=.=./ L y y L =.p.p.p.p.p.p./ L L L / =.p.J.J.p.=.=.=.p.p.J.!.!.p.L y L =.p.p.p.p.=.=./ =.=.p.p.p.p.=./ L / =.p.p.p.p.J.p.p.=.=.p.p.p.p.p.p.J.!.!.!.p.=.=.=.p.p.p.=.=.=.p.p.J.J.J.p.p.=./ / / / / / / =.p.!.J.p.p.p.p./ y 3 y L =.p.p.p.p.p.p.p.p.p.J.p.p.p.J.J.J.p.p.J.J.J.J.J.J.J.p.p.=./ L L L =.p.J.p.=./ / =.=.=.p.p.p.p./ / =.=./ / p.J.!.",
"/ =./ L / =.=.=.=.p.p.J.J.J.p.p.p.=.=./ / =.p.p.p.p.p.p.p.p.p.p.J.!.!.J.J.!.!.J.J.J.J.J.p.p.=.=./ / / =.=.=.=.=.=./ L L L L / =.p.p.p.p.p.p.J.p.p.p.!.[.[.[.!.p.=.=.=.=.=.=.=./ =.=.=./ L L L =.p.p.=.=.p.p.=./ / L / =.p.p.p.=.=.=.=.=.p.p.J.J.p.=.L L L / =.=./ / =.=.=.p.p.J.J.p.p.=.=.=.p.p.p.p.p.p.p.=.=.p.p.p.p.p.p.p.J.!.!.!.J.p.=.p.p.p.p.p.=.=.p.p.J.J.p.p.=.p.p.=.=.=.=.=.p.p.J.J.J.p.=.=.=.L L L L L =.p.p.p.p.p.=.p.p.p.p.p.p.J.J.p.p.=.=.p.p.J.!.!.J.p./ L L / / / =.p.p.p.p.=./ =.p.p.=.=.p.p.=.=.=.=.=.=.=.p.p.J.",
"/ =.=.=./ / =.=.p.p.J.J.p.p.p.p.p.=./ / / =.p.p.p.p.p.p.p.p.=.=.p.J.J.J.J.!.!.!.J.p.p.p.p.p.p.p.=./ / =.=.=.=.=.L L L L L / =.p.p.=.=.=.p.p.J.J.p.p.!.[.[.[.J.=.L L / =.p.p./ L / / =.=.=./ / =.p.p.=.=.=.=.=.=.=./ / =.p.p.=.=./ / =.=.=.p.p.J.J.p.=.L L L L / L / =.p.p.p.p.J.J.J.p.p.p.p.p.J.p.p.p.=.=.=.p.p.p.p.=.=.p.p.J.!.!.!.J.p.p.p.p.p.p.p.=.=.p.p.p.p.p.=.p.p.p.p.p.p.p.p.p.J.p.p.p.p.=.=./ / / / / / =.=.p.J.J.p.=.p.p.=.=.=.J.J.J.p.=.=.=.=.p.J.!.!.J.=.L y L / =.p.J.J.J.p.=.=.=.=.p.p.=.=.=.p.=.=.=.p.p.=.=.=.p.p.",
"/ =.=.=.=.=.=.=.p.p.p.p.=.=.p.J.p.p.=.L / =.=.p.p.p.p.p.p.=.=.=.=.p.p.p.p.p.J.J.!.J.J.p.p.p.p.p.p.=./ / / =.p.=.L L L / / / =.p.=.=./ / =.p.p.J.p.J.J.!.!.J.p.=.L L L / =./ L L L L / =.=./ / =.p.=./ / =.=.=.=./ L / p.p.=.=.=.=.=.=.=.=.p.p.J.J.p.=./ L L / / / =.=.p.p.p.p.p.p.p.p.p.J.J.!.!.J.J.p./ / =.p.J.J.p.=.p.p.J.J.J.J.J.J.p.p.J.J.p.p.p.=.=.p.J.p.p.p.p.p.p.p.p.p.p.p.p.p.p.=./ =.=.=.=./ / =.=./ =.=.p.p.J.J.p.p.p.p.=.=.=.p.J.J.p.p.p.=.=.p.!.!.!.J.p./ L / =.p.J.!.!.J.=./ =.=.=.=.=.=.=.p.p.p.p.p.p.p.p.=.=.=.=.",
"/ =.=.=.=.=.p.p.p.p.=./ L / p.J.J.p.=./ / =.=.=.=.p.J.J.p.=./ L / =.=.=.=.=.=.J.!.!.J.p.p.p.J.J.p.=./ L L =.J.p./ L / =.=.=.=.=.=.L L L / =.p.p.p.p.p.p.=.=.=.=.=./ L L L L L L L y L =.=./ L =.p.=.L L =.=./ L L L / p.J.p./ =.p.p.=.=.p.p.J.J.J.p.=.=.=.=.=.=.=.=.p.p.=.=.=.=.=.=.p.J.!.!.!.!.!.J.p./ =.=.p.J.!.J.p.p.J.!.J.J.p.p.p.J.J.J.J.p.p.=.=.p.J.!.p.=.p.J.J.p.p.p.p.p.p.=.=./ L L L =.p.=.=.=.=.=.=.=.=.p.p.p.J.J.J.p.p.=.=.=.p.p.p.J.J.J.J.p.p.!.!.!.p.p.p.p.p.p.J.!.!.!.J./ L =.p.=./ / =.p.J.J.J.p.p.J.J.p.=./ L / ",
"=.=.=.=.=.=.p.p.p.=.=./ L / =.p.p.p.=.=.=.=.=.=.=.p.J.J.=./ L y L / =.p.p.=.=.p.J.J.J.p.p.p.J.J.J.p.=.L L p.!.J.=./ / =.=.=.=.=.=./ L / =.p.p.p.p.p.=.=.=.=.=.p.p.=./ L y y L L L y L =.=.L L =.p.=.L L / / L L L / =.p.p.p.=.p.p.p.=.=.p.p.p.p.p.=./ =.=.=.=.=.=.p.p.p.p.=./ / / =.p.J.!.!.!.!.!.J.p.p.=.=.p.J.!.J.p.p.J.J.J.p.p.=.p.J.!.!.J.p.p.=.p.p.!.!.J.p.p.J.J.p.p.p.p.=.=./ / L L L L =.p.=.=.=.=.=.=.=.=.=.p.p.J.!.!.J.p.p.=.=.p.p.p.p.J.J.p.p.p.J.J.J.p.p.J.J.p.p.J.!.!.J.p.=./ p.p.=./ / =.p.J.!.J.=.=.p.p.p.=.=./ / ",
"=.=.=.=.=.=.p.J.J.=./ / =.=.=.=.=.p.p.=.=.p.p.p.p.p.p.p.=.L y 3 y / =.p.p.=./ =.p.p.p.p.p.p.p.p.p.p.=.=.=.J.[.J.=./ / =.=.=.p.p.=.=.=.=.p.p.J.p.=.=.=.=.=.=.p.p.J.p.=.L y y L L L L / =.=.L L / =.=./ / / L L y L =.p.p.p.p.p.p.J.J.p.=.p.p.p.=./ L L / =.p.=.=.=.p.p.J.p.=./ L L =.J.!.!.!.!.!.!.!.!.J.p.=.=.p.!.!.J.J.p.p.p.p.p.p.p.J.!.!.!.J.p.p.p.J.!.!.J.p.p.p.p.p.p.p.=./ L L L L / / =.p.p.p.p.=.=.=.=.=.=.=.=.p.J.J.!.!.J.p.=.p.p.p.p.p.p.p.p.=.p.p.p.p.p.p.!.!.J.p.p.J.p.p.p.p.p.J.!.p./ / =.p.J.!.p.=./ =.=.=.p.p.p.p.",
"p.=.=.=.=.=.p.J.J.=.L / p.p./ / =.=.p.p.p.p.p.p.p.p.p.p./ L y y L / =.J.J.=./ / =.=.=.p.p.p.p.p.p.p.p.=.p.J.!.J.=./ / =.=.=.=.p.p.=.p.p.p.J.J.p.=./ / =.=.=.p.p.J.J.p.=.y y L / / L / =.=.L y L =.=.=.=./ L L L / p.J.p.p.p.p.p.J.p.p.=.=.p.=./ L L L =.p.p.p.=.=.p.J.J.p.=./ L / p.J.!.!.!.!.!.!.!.!.!.J.=.=.p.!.!.J.p.p.=.p.p.p.p.p.J.!.!.J.J.p.p.J.J.!.!.J.p.p.p.p.p.p.p./ L L L L / =.p.p.p.p.p.p.=.=.=.=.=./ / =.p.p.J.!.!.!.J.p.p.p.p.p.p.p.=.=.=.=.=.p.=.p.p.!.!.J.p.p.p.p.p.p.J.J.J.J.p.=.=.=.p.p.p.p.=./ / =.=.p.J.!.J.",
"=.=.=.=.p.p.p.J.J.=./ =.p.p.p.=.=.=.p.p.p.p.p.p.p.p.p.p.=./ / / / / =.p.p.p.=.=./ / =.=.=.p.p.J.J.p.p.=./ =.p.p.p.=./ / =.=.=./ =.p.p.p.p.p.p.p./ / =.p.p.=.=.p.p.J.J.p./ / =.=./ L / =.=.L y L / =.=.=./ L L / =.p.p.=.=.=.=.p.p.p.=.=.=.p.=.=./ / =.=.p.p.p.=.p.p.J.J.p.p.=.=.=.p.p.J.J.J.J.J.!.!.!.J.p.=.=.p.p.J.J.p.=.=.p.J.p.p.p.p.p.J.p.p.p.p.p.J.!.!.J.p.p.p.p.p.p.=.=.=.=.=.=.=.p.!.J.p.p.p.p.=.=.=.p.=./ / =.=.p.p.J.!.!.J.p.p.p.p.p.p.p.p.p.=.=.p.p.p.p.p.J.!.J.p.J.J.J.p.p.J.p.=.=.=.p.p.p.=.=.=.=.=.p.p.p.p.p.J.!.!.",
"=.=.p.p.p.p.J.J.J.p.=.p.p.p.p.p.p.=.p.p.p.p.p.p.=.p.p.p.=.=.=.=.=./ =.=.p.p.p.p./ / =.=.=.p.p.J.J.p.=./ L / =.=.p.p.=./ / =.=./ / p.p.p.=.=.p.=./ / =.J.p.=.=.=.p.p.J.p.p.=.p.=./ L / =.=./ L L L / =.p.=./ =.=.=.=.=.=.=.=.=.=.=.=./ / =.p.p.=.=.=.p.p.p.p.=.=.p.p.p.p.p.p.p.p.p.p.=.p.J.J.p.p.J.!.J.p.p.p.p.p.p.p.p.p.=.=.p.J.p.p.p.p.p.p.p.p.=.p.p.p.!.!.!.p.p.p.p.p.=.=.p.p.p.p.p.p.J.!.!.p.p.p.p.=.=.=.p.p./ / / =.=.p.J.J.J.J.p.p.p.p.p.p.p.p.p.=.=.p.p.p.p.p.J.J.p.p.J.!.!.J.J.p.p./ L =.p.J.p.=.L L / =.p.J.J.p.p.J.!.J.",
"p.J.p.p.p.p.p.p.p.=.=.p.J.J.J.p.p.p.p.p.J.p.p.p.=.p.p.p.=./ / =.=.=.=.=.p.p.p.=.L L / =.=.=.=.p.=.=.=./ / / =.p.p.p.=./ =.=.=.=.=.p.p.=.=.=.=.=.=.=.p.J.p.=.=.=.=.=.=.p.p.p.p.=./ L L =.=.=./ / L / =.=./ L / =.=.=./ / / =.p.p.=.=./ / =.p.p.=.=.p.p.p.=.=.=.=.J.J.p.p.p.p.=.=.=.=.=.p.p.p.=.=.p.!.J.p.p.p.p.p.p.p.p.p.=.=.p.p.p.p.p.p.p.p.p.p.p.p.p.J.!.!.!.J.p.=.=.=.=.p.J.p.p.=.p.p.J.!.J.J.p.p.p.=./ =.p.p.=./ / / =.p.p.p.p.p.p.p.=.p.p.p.J.p.p.=.=.p.J.p.=.=.p.p.p.p.J.J.J.J.p.p.p.=./ =.p.p.=./ / / =.p.p.J.J.p.p.p.J.p.",
"!.!.p.=.=.=.=.=.=./ / p.!.!.J.p.p.p.p.p.J.J.J.p.=.p.J.p./ L L L =.p.p.=.=.p.J.=.L L L / =.=./ / / / / / =.=.=.p.J.J.p.=.=.p.p.J.J.p.=.=.=.=.=.=.=.p.p.p.p.=.=.=./ / / =.p.p.p.=./ L L / / p.p.=./ / =./ L L / =./ / L L L =.p.p.=.=./ / =.p.p.=.=.p.J.p.=./ / =.J.!.p.=.=.=.=.L L / =.=.=.=.L / =.J.p.=.p.p.p.J.J.p.p.p.=.=.=.p.p.p.p.p.p.p.p.p.p.J.J.!.!.!.!.!.p.=./ =.p.J.!.J.=.=.p.p.p.p.J.J.J.p.p.=./ =.p.p.=./ L L =.p.p.p.p.p.p.p.=.=.p.J.J.p.=./ =.p.!.p.=.=.p.p.p.p.p.J.p.p.p.p.p.p.=.=.=.=.L L =.p.p.p.p.p.p.p.p.p.p.=.",
"J.!.p.=.=.=.=.=.=./ =.p.J.J.p.p.p.p.p.J.J.J.p.=.=.=.p.p.L y L / =.p.p.=.p.p.p.=.L L / =./ / L L L L L / =.=.=.p.J.p.p.=.=.p.J.!.J.p.=./ / / =.=.=.=.p.p.p.p.=.=./ =.=.p.p.p.p.p.=./ / / =.p.p.p./ / / / L L / =.=./ / L / =.p.p.=.=./ / =.p.=.=.=.p.p.=./ / / =.J.J.=.L L / / / / =.=.=.=./ L / =.J.p.p.=.p.p.J.J.J.p.p.p.p.=.=.p.p.p.p.p.p.J.J.J.!.!.!.!.J.J.J.p.=.=.=.p.J.!.J.p.p.p.J.J.p.p.J.p.p.=./ / =.p.p.=./ L L =.p.p.p.=.p.J.p./ / =.p.p.p.p./ =.p.!.J.p.p.p.p.=.=.p.p.p.J.p.p.p.p.p.=.=./ L / =.p.p.p.p.p.p.p.p.J.J.p.",
"p.J.p./ =.=.=./ / =.=.p.p.p.p.p.p.p.J.!.!.p.=./ L / p.=.L L / =.p.p.p.p.p.p.=.=./ =.p.p./ L y y y L / / =.=.p.p.p.p.p.p.p.p.p.J.J.p.=./ L L / / / =.p.p.p.p.=.=.=.p.p.J.J.J.p.p.p.=.=.=.p.p.p.=.=./ L L / =.=.=.=.=.=.=.=.=.=.=.=.=.=.=.=.=.=./ / / / L L / =.=.p.=.L L L / =.p.p.p.=./ L / / =.p.p.p.p.=./ / p.J.p.p.p.p.p.p.=.p.p.p.p.p.J.!.!.!.!.!.!.J.p.p.=.p.p.p.p.p.p.J.J.J.J.J.!.J.p.p.p.=.=./ / =.p.J.J.=./ L / p.J.J.p.=.p.!.p.=./ / =.p.p.p.=.=.p.J.J.J.J.J.p.=./ =.p.J.!.J.=./ =.p.=./ / =.=.=.p.p.J.p.=.=.p.J.!.!.J.",
"=.p.=./ / =.=./ =.=.=.=.=.p.p.p.J.J.!.!.J.p.=.L L / =.=.L L / =.p.p.p.p.=.=.=.=.=.=.p.p./ L y y y L / / =.=.p.p.p.p.p.p.p.p.p.J.p.p.=.L L L / =./ / =.p.p.p.p.p.p.p.J.!.!.J.J.p.p.p.p.p.=.=.=./ / / / / =.=.=.=.=.=.=.p.p.=.=.=.=.p.=.=.=.=.=.=./ / L L L / =.=.=./ L y L / p.p.J.p.p.=.L / =.p.p.p.p.p.=./ / =.p.p.p.p.p.p.p.p.p.p.p.p.p.J.J.!.!.!.!.!.J.p.=.=.p.J.J.p.p.p.p.J.J.!.!.!.J.J.p.=./ L L / =.p.J.J.=./ / =.p.!.J.p.=.p.!.J.=./ / / =.p.p.p.=.p.p.J.!.!.!.J.=.=.=.p.J.!.J./ L / p.=.=.=.p.p.p.p.J.J.p.=./ p.J.!.!.!.",
"=.=.=.=.=.=.=.=.=.=.=.=.=.=.=.p.J.!.!.!.p.p.=./ / =.p.p./ L L / =.p.p.=./ / =.=.=.=.p.p.=./ L L L =.=.=./ =.p.p.=.=.p.p.p.=.=.p.p.p.=.L y L =.p.=.=.=.p.p.p.p.p.p.J.J.J.J.J.J.p.p.=.=./ / L L L L =.p.p.p.=.=.=.=./ / =.p.p.p.p.p.p.p.=.=./ / p.=./ / =.=.=.=./ L L y y L p.p.p.p.J.J.p.=.=.=.p.J.J.J.J.p.=./ L L / p.p.p.p.p.p.=.=.p.J.p.p.=.p.p.!.!.!.p.=.=.p.p.J.J.p.p.=.=.p.J.!.J.J.J.J.p.L L y L / =.p.p.p.=./ =.p.p.J.J.p.=.p.p.p.=.=.=.=.=.=.=.p.p.p.p.p.J.J.!.J.p.p.p.p.p.p.p.=./ =.p.p.J.J.p.p.p.J.J.J.p.=.=.p.p.J.!.!.",
"/ =.=.=.=.=.=.=.=.=.=.=.=.=.=.p.J.!.!.J.p.=.=./ =.p.J.p.=./ L L =.p.p./ L / =.=.=.=.p.p.=.=./ L / =.=.=./ p.p.p.=.=.p.p.=.=.=.=.=.p.=./ y / p.J.p.=.=.p.p.p.p.J.J.p.p.J.J.J.p.p.=.=./ L L L y y L =.J.J.p.=.=.=.=.L L =.p.p.p.p.p.p.p.p./ L / p.p.=.=.p.p.=./ L L L y L =.J.J.p.p.J.!.J.=.=.p.p.J.J.!.!.J.p.=.L y L p.p.=.=.p.p.=.=.p.J.J.=./ =.=.p.!.!.p.=.=.p.p.J.J.p.p.=./ =.p.J.p.p.J.J.=.y 3 y L / =.=.=.=./ / =.p.J.J.J.p.p.=.=.=.=.=.p.=.=./ =.p.p.=.=.=.p.J.!.!.!.J.p.p.=.=.=.=.=.p.p.!.!.!.J.p.J.!.J.p.p.p.p.p.p.J.J.!.",
"=.=.=.=.=.=.=./ / / / / / =.=.p.p.J.J.p.p.=./ =.=.p.p.p.=./ L L L / / / / =.=.=.=.=.p.p.=./ L L / =.=.=.=.=.p.p.p.p.=.=.=.=.=.=.p.p.p.=.L / p.p.p.p.p.p.p.p.J.J.J.p.p.p.p.p.=./ / / L L L L L L L =.J.J.p.=.=.=.=./ / =.p.p.p.p.=.=.p.p.=./ =.p.p.p.p.p.=.=./ L / / L / =.J.!.p.p.p.J.J.p.p.p.p.p.J.J.J.J.p.=.L y / p.p.=.=.=.p.p.p.p.J.J.p.=.=.=.p.!.!.J.p.p.p.p.J.J.p.p.=.=.=.p.p.p.p.p.p./ y 3 y L =.p.p.=.=.=.=.p.p.J.p.p.p.p.p.p.=.=.=.p.p.p.=.=.p.p.=.=.=.=.p.J.!.J.p.p.p.p.=.=./ =.p.J.!.!.!.p.p.J.!.J.J.J.p.p.p.p.p.J.!.",
"=.=.=.p.=.=.=./ L L L L L / =.p.p.=.p.p.=./ L / =.p.p.p.=./ L L L L L / =.p.p.p.=.p.p.=./ L L L / =.=.=.=.=.p.p.!.J.=./ =.=.p.p.p.p.p.=.=.=.=.p.J.J.p.p.p.p.J.J.J.p.=.=.=.=./ L L L L L L L L L / =.p.p.p.=.p.p.=.=.=.p.p.p.p.=./ =.=.p.p.=.=./ =.p.p.=.L L L / =.p.=.=.p.J.J.p.p.p.p.p.p.p.p.p.p.p.p.p.p.p.=./ L =.J.J.p.=.=.p.p.p.J.J.J.p.p.=.=.p.J.!.!.J.p.=.p.J.J.p.p.=.=.=./ =.=.p.p.=.L y 3 y L =.J.J.p.p.p.p.J.J.J.p.p.p.p.p.p.p.=.=.p.J.p.p.=.=.=.=.=.=.=.p.J.J.p.=.p.p.p.=.=./ / p.J.!.J.p.p.p.J.J.!.!.!.J.J.J.p.p.p.J.",
"=.=.=.=.p.p.=.L y y L L L / =.=.=./ =.p.=.L L / =.=.=.=.L L L L L L L / =.p.p.p.=.p.p.p./ L L / =.=.p.=.=.p.p.J.!.J.=.=.=.p.p.p.p.p.p.p.p.p.=.p.J.!.J.p.p.p.p.p.p.p.=.=./ / L L L L L =.=.=.=./ / =.=.p.=.=.=.p.=.=.=.p.p.p.=.=.=.=.=.=.=./ / L / p.p./ L L / =.p.p.=./ =.p.p.=.=.=.p.p.p.p.p.p.p.=.p.p.p.=.=.=.=.=.J.J.p.=.p.p.p.J.J.J.J.p.p.p.p.p.J.!.!.J.p.p.p.J.J.J.p.p.=.=./ =.=.p.=.=./ y y L / p.J.J.p.p.p.p.J.!.J.p.p.p.p.p.p.p.=.=.p.p.=.=.=.=.=.=./ =.=.p.J.J.p.=.p.p.p.=.=./ / p.J.J.p.p.p.p.J.J.J.J.!.!.!.!.J.p.p.J.",
"/ / / =.p.p.=.y 3 3 y L L / / / / / =.=./ L y / =.=./ L y y L L / / / / / =.p.p.=.p.J.J./ L / p.p.p.p.=.p.p.J.J.p.p.p.p.p.J.p.p.=.p.p.p.J.p.=.p.!.!.J.p.p.p.p.p.=.=./ L L L L L L L / p.p.p.=./ L / =.=.=.=.=.=.=./ / =.p.=.=.p.p.p.=./ L y y L L / =./ L / =.p.J.p./ L / p.p.=./ / =.=.p.p.J.J.p.p.p.p.=.=.=.=.=.=.p.p.p.p.p.p.p.J.J.J.p.p.p.p.J.J.!.!.J.p.p.p.p.p.J.!.J.p.=./ =.=.p.p.=.=.=./ / L / p.J.J.p.p.p.J.!.!.!.J.J.p.p.p.=.=.=.=.=.=.L y L =.=./ / =.=.p.p.p.p.=.p.p.=.=./ / / p.J.J.p.p.J.J.J.p.p.p.J.[.[.!.J.J.p.p.",
"/ / / =.=.=./ y 3 y y L L L / / / / =.=.L L L / p.=./ L y y L / =.=.=./ / =.p.=.=.p.J.J.=./ =.p.p.=.=.=.p.J.!.J.p.p.J.J.!.J.p.=.=.p.p.J.J.p.p.p.J.!.J.p.p.p.p.p.=.=./ L L L L / L L =.J.J.p.=.L L / =.=./ / =.=.=./ / =.p.=.=.=.p.=./ L 3 = 3 L / / / / / =.=.p.J.p./ L L =.=./ / / / =.p.p.J.p.p.=.=.p.=.=.=.=.=.=.=.p.p.p.p.p.p.J.J.J.p.p.p.p.J.!.!.J.J.p.p.p.p.p.p.!.!.p.=.=.=.p.p.p.p.p.=.=.=./ / =.J.J.J.p.p.J.!.!.!.!.!.J.p.=.=.=.=./ / L y y L =.=.=./ =.=.p.p.p.p.p.p.=.=.=.=./ / p.J.J.p.p.p.J.p.p.p.p.p.!.[.!.!.J.p.p.",
"=.=.=.=.=./ L L L L / L L L / / =.=.=./ L L L p.J.p.=./ L L L L / =.=.=.=.=.p.p.=.p.p.J.p.p.=.=./ / / =.p.p.J.J.p.p.J.J.!.!.p./ / p.!.!.!.J.p.p.p.p.p.=.=.=.p.p.p.=./ L L / =.=./ L =.J.p./ y y y / p.p./ L / =.=.=.=.p.p.=.L L L L L y = O y =.p.=.=.=.=.=.=.p.p.=./ L L =.=.=./ / / =.p.p.p.p.=./ =.=.=.=.=.=.=.p.p.p.J.!.J.p.p.J.J.J.J.p.p.p.J.J.!.J.J.p.J.J.p.p.p.!.[.J.p.p.p.p.p.p.p.p.p.p.=./ / =.p.J.J.J.p.p.J.!.!.!.!.J.p.=.=./ / L L y y y L =.p.p.p.=.=.p.p.J.J.J.p.=.=.=.=./ / =.p.p.p.p.=.=.=.p.p.p.p.J.J.!.!.J.p.p.",
"=.=.=.=./ L L L / =.=./ L L / =.=.p.=./ L L / p.!.p.=.=.=.=./ / / =.=.=.=.p.p.p.=.=.=.p.p.p.=./ L L L =.p.p.p.p.J.J.p.p.J.!.p./ / p.!.!.J.J.J.p.p.=.=.=.=./ =.p.J.p./ / / =.p.p.=./ =.J.p.L 3 3 y / p.p./ L / =.=.=.p.p.p./ L y y y y y = O y p.J.p.p.p.p.p.=.=.=.=./ / / / =.=.=./ / =.p.p.p.=./ / / =.=.p.p.=.=.p.p.J.!.!.J.p.p.p.p.J.J.J.p.p.p.J.J.J.J.J.J.!.J.=.p.!.[.!.J.p.p.p.p.p.p.p.p.=.=./ / =.p.J.!.!.J.p.J.!.!.!.!.J.p.p.=./ / / L L L L / =.p.J.J.p.=.=.p.J.!.J.p.=.=.=.=.=./ =.p.p.p.=./ / =.p.p.p.p.p.p.J.J.p.=.=.",
"=.=.=.=./ L L =.p.=./ L y y L =.=.=.=.L L L / =.p.p.=.=.=.p.=.=.=.=.=./ =.p.J.p./ L L L / / / / L L / p.p.p.p.p.J.J.p.p.J.!.J.p.=.p.p.p.p.J.!.J.p.=.=.=.=./ =.p.p.p.=.=./ =.p.p.=./ =.p.p./ L y L / =.=./ / / / =.=.p.p.=.L 3 3 y y L L = = y p.J.p.p.=.=.=.=.=./ / / =./ L / =.p.=./ / =.=.=.=./ / =.=.p.p.p.p.p.p.p.J.J.J.J.p.p.p.p.J.J.p.p.p.p.p.J.!.J.J.J.!.J.p.p.J.!.!.J.p.=.=.=.=.p.p.=.=./ / / =.=.p.!.!.!.J.J.J.J.J.J.p.p.p.=.=.p.=.=./ =.=.=.p.p.J.J.p.=.p.p.J.J.J.p.=.=.=.=.p.p.p.p.=.=./ / / =.p.p.p.p.p.p.p.p.=./ =.",
"=.=.=.=.L L L =.p.=.L L y y L / =.=.=./ L L L / =.=./ =.p.p.p.p.=.=./ / =.p.J.=.L 3 3 = 3 y L / =.=.=.p.!.J.p.p.p.p.p.p.J.!.!.!.J.=./ / =.p.!.!.p.p.=.=.=.=.=.=.p.p.p.=.L / p.J.=./ =.p.p.=.=./ / / / / / / / / =.=.p.=./ y = 3 y L L L 3 = y =.p.p.p./ L L / / / / =.=./ L L p.p.p.=./ / / / / / =.=.p.p.p.p.p.J.p.p.p.p.p.p.p.=.=.=.p.p.p.p.p.p.p.J.J.!.!.!.!.J.p.p.p.J.J.J.p.=./ / / =.=.=./ L / =.=.=.p.J.!.!.!.J.p.=.p.p.p.p.=.p.p.J.J.p.p.p.J.p.p.J.J.J.J.p.p.p.p.p.p.p.p.=./ =.p.J.J.p.=./ L / =.=.p.p.p.p.p.p.p.=./ L / ",
"/ =.=.=./ L L / / L L L L L / =.=./ / / L L L L / =.=.=.p.p.p.p.p.p.=./ =.=.p./ y 3 3 3 3 y / =.p.=.p.J.J.J.p.p.p.p.p.p.J.!.!.!.p.=.L / =.p.J.J.J.p.p.=.=.=.=.=.p.p.p.=.L / p.p.p.=.=.=.p.=.=.=.=./ / / / / / / =.=.=.=./ L y y y L L y 3 = y =.p.p.=.L L L L L / =.p.=./ y L =.p.p.=.=.=.=.=.=.=.=.=.=.=.p.p.J.J.p.p.=.=.=.=.=.=.=.=.p.p.p.p.p.p.p.p.J.J.J.J.J.J.p.p.p.p.J.J.p./ L L / / =.=./ / =.=.=.=.p.J.!.!.!.p.=.=.=.p.p.p.p.p.p.J.!.J.J.J.J.p.p.p.J.J.J.J.p.p.p.p.p.p.p.=.=.p.J.!.p.=.=./ =.=.p.p.p.p.p.p.p.p.=.=./ / / ",
"/ / =.=./ L y y y y L / p.p.p.=./ L / =.=.L L L L / =.p.p.p.p.=.p.J.p.=.=./ L L L L L L L / =.p.p.p.p.p.p.p.J.p.p.p.p.p.J.!.J.p.=.=./ / =.=.p.p.J.J.p.=.=.=.=.=.p.p.p.=./ / =.p.p.=.=.=.=.=.=.=.=.=./ L L L L / =.=.=.=.=.=./ L y 3 3 = = = y / =.=./ L L y y L =.p.p.=.L y L =.p.p.p.p.=.p.p.J.p.=.=.=.=.=.p.J.J.p.=./ / / / / / =.=.p.p.p.p.p.p.p.p.p.p.p.p.p.p.p.p.p.p.J.J.p./ L / =.=.=.=.=.=.=.p.p.=.p.J.!.!.!.p./ / =.p.p.p.p.p.J.J.!.!.J.J.p.=./ / p.J.!.J.p.p.p.J.!.J.p.p.p.p.!.!.p./ / p.J.!.!.J.p.p.J.J.p.p.=.=.=.p.p.",
"/ / =.=.=./ y 3 3 y / p.J.J.p.=./ L / =.=./ L L L =.p.p.p.p.=.=.p.J.p.p.=.L L L / / =.=.p.p.p.J.J.p.p.p.=.p.J.p.p.p.p.p.J.J.p.=.=.=.=.=.=.=.=.=.p.J.J.p.p.=.=.=.=.=.=.=./ =.p.p.p.=.=./ / =.=.p.=.=./ L L L L / =.=.=.=.=.=.=.L y 3 3 = = 3 y / / / L L L L y L p.p.p.=./ L L / =.p.J.p.p.p.J.J.p.p.=./ =.=.p.p.J.p.=./ / / / / / =.=.=.p.p.J.J.p.p.p.p.p.p.=.=.=.p.p.p.p.J.J.p.=./ =.=.=.=.=.=.=.=.p.p.p.p.J.J.J.J.=.L / =.p.p.p.p.p.p.J.!.J.J.p.p.=.L / =.J.J.J.p.p.p.J.!.J.p.p.p.p.J.J.=./ =.p.!.!.!.J.p.J.J.J.p.p.p.p.p.p.p.",
"/ / =.=.=./ L 3 3 / p.J.J.J.=./ / / =.=.=.L L / =.=.p.p.p.p.=./ =.p.=.=./ L L / p.p.p.p.J.J.J.p.p.p.p.=.=.=.p.p.p.p.p.p.p.p.=.L L =.p.p.p.=./ / =.p.J.J.J.p.=.=.=.=.=.=.=.=.p.J.p.=./ y L / =.=.=./ L L y L / =.=.=.=.=./ / / L y y L L L L L / / L L / / / L / p.p.p.=.=.=.=.=.=.p.J.J.p.p.p.J.p.p.p.=.=.p.p.p.p.=.=.=.=.p.p.p.=.=./ / =.p.J.J.p.p.J.J.p.p.=.=.=.p.p.p.p.J.!.J.p.p.p.p.p.p.=.L L / =.p.J.J.p.p.p.p./ L / p.p.p.p.=.=.p.p.J.J.p.p.p.=./ / =.p.p.J.p.=.p.p.J.J.p.p.p.=.=.=.=.p.p.J.J.J.J.J.p.J.!.!.p.p.J.!.!.J.p.",
"=./ / =.=.=./ y L =.!.!.J.p./ L / =.=.=.=.L L =.p.p.p.p.p.p.=./ / =./ / L / =.p.J.J.p.J.!.!.J.p.p.p.=.=./ / =.p.p.p.p.p.p.=./ L L p.!.J.p.=./ / =.p.J.!.!.J.p.=./ / =.=.=.p.J.J.p.=.L 3 y / =.=.=.L L y y L =.p.p.=.=./ L L L L L / =.=.=./ / / / / / =.=.=./ =.p.p.p.=.p.J.p.=./ p.J.J.p.p.p.p.p.p.p.=.=.p.p.p.=.=.=.=.p.J.!.J.p./ / / =.p.!.J.p.p.J.J.J.p.p.=.=.p.p.p.p.J.!.!.!.!.J.p.p.p./ 3 3 L =.p.!.!.p.p.=.=./ L / p.p.=.=.=.=.p.p.p.p.p.p.p.=.=.=.=.=.p.p.p.=.=.p.p.p.p.p.=./ L L =.J.J.J.p.p.p.p.p.J.!.!.p.p.J.!.!.J.p.",
"=./ L L / =.=./ / p.J.J.p.=.y y L =.=./ / / =.p.J.p.=.=.p.p.p.p.=.=./ / / p.p.p.p.p.p.p.J.!.!.p.p.=./ L L / =.=.p.p.p.p.p.=.=./ / p.J.J.p.p.=.=.p.p.p.p.p.J.p.p.p.=.=.=.=.=.p.p.p.p.L 3 3 / =.=./ L L L L / =.p.=.=.L L L L / =.=.p.p.p.p.=./ / / =.=.p.p.=.=.=.=.p.=.=.p.J.J.=./ =.p.p.p.p.p.p.=.=.p.p.p.=.=.p.p.=.=.p.p.J.J.J.=./ / / =.J.!.J.p.p.J.J.J.p.p.p.p.p.p.p.J.J.J.!.!.!.!.J.p.=.L = 3 L =.J.!.!.J.p.p.=.=./ / =.=.=.=.=.=.p.p.p.p.p.=.=.=.=./ =.=.=.p.p.p.p.p.p.p.p.p.=.=./ =.p.!.J.p.p.=.=.=.p.p.J.J.p.p.p.p.p.p.p.",
"/ / L y L / =.=.p.p.p.p.=.L 3 3 L =.=./ / =.=.p.J.p./ / =.p.J.J.p.=.=./ =.J.[.!.p.=.=.=.p.!.!.J.=.L y L L =.=.p.=.=.p.p.p.p.p.=.p.p.p.p.p.p.p.p.J.J.=./ =.p.J.J.J.p./ / =.=.=.=.p.p./ y y / =.=./ / / / =.=.p.p.=./ L y y L =.p.J.!.!.J.p.=.=.=.=.=.p.p.p.=.=.=.=.=.=./ p.J.p.=./ =.=.p.p.p.p.p.=./ =.p.p.=.=.p.p.p.p.p.p.p.p.p.=./ / =.p.J.J.J.p.p.p.p.p.p.p.p.p.=.=.p.J.J.J.J.!.!.!.J.=.L y 3 y / p.J.J.!.!.!.p.p.=.=./ L / =.=.=.=.p.p.p.p.=.=.=.=./ / / =.=.p.p.J.J.p.p.p.p.=.=.=.p.p.J.J.J.p.=./ L =.p.p.p.p.p.=./ L / =.p.",
"/ L y y y / =.=.p.=.=.=./ L 3 3 L =.=./ =.=.p.p.=./ L L =.p.J.J.p.=.=.=.p.!.[.!.p.=.=.=.p.J.J.J.=.y 3 L =.p.p.p.=.=.p.p.p.p.p.p.p.p.p.J.!.!.J.J.p.p./ L / p.J.J.p.=./ / =.=.=.=.p.p./ L L / =.p.=.=./ =.=.=.=.=.=./ L y y L =.p.J.J.p.p.p.p.p.=.p.p.p.p.=.=./ =.=.=./ / p.J.p.=.=.=.p.p.p.p.p.=.=./ =.p.p.=.=.p.J.p.p.p.p.p.p.p.=.=.=.=.=.=.p.p.J.J.J.p.p.p.p.p.p.p.p.p.J.J.J.J.!.!.!.J.=.L L L L =.p.p.p.J.!.!.p.=.=.=.=./ =.=.p.p.p.p.p.p.p.=.=.=.=.=.=.=.=.=.=.p.p.p.p.p.=.=.=.=.=.p.J.J.J.J.p.=./ L =.p.p.=.p.p.p./ L / =.p.",
"L L L L L L / / =.=.=./ L L y L / =.=.=.=.p.p./ L y L / =.p.p.p.p.=.=.p.p.!.!.J.p.=.=.p.p.p.p.p./ 3 3 L p.J.J.p.p.p.p.J.J.p.p.p.p.p.p.J.!.[.!.!.=./ L L =.p.p.p.p.=./ / =.=.=.=.=.=./ / / / =.p.J.p.=.=.=.=.=.=.=.=./ L L / =.p.J.p.=./ =.p.p.p.p.p.p.=./ L L / =.=./ / p.J.J.p.p.p.J.J.p.p.p.=.=.=.=.=./ / =.p.J.J.p.p.p.p.p.p.p.p.=./ L L / p.J.!.!.J.J.J.J.p.p.J.p.p.p.p.J.!.!.!.!.p.=./ / =.p.p.p.p.=.p.!.!.p.=.=.=.=.p.p.p.p.p.p.p.p.p.p.p.=.=.=.p.p.=.=.=.=.=./ =.=.=.=./ / / =.p.p.J.J.J.p.=.=.=.p.J.p.p.p.J.p.=./ =.J.J.",
"L L L / / / L / / =.=./ L L / / =.=.=.p.p.p.=.L y y L / =.=.p.p.=.=.p.p.J.J.J.J.p.p.p.p.=.=.p.=./ y y =.J.J.J.p.p.p.p.J.J.p.p.p.p.p.p.!.!.!.!.p./ L L / =.=.=.p.p.=./ / =.=.=.=./ / / =.=.=.=.p.!.J.p.=.=.=.=.=.=.=.=./ / / =.p.p.p./ L =.p.p.p.p.p.=./ L L / / =.=.=.=.=.p.p.p.p.J.J.J.p.p.p.p.p.p.=./ / / =.p.J.J.J.p.p.p.p.p.p.p.=./ L L / =.J.!.!.!.J.J.p.p.p.J.J.p.p.p.J.!.!.!.J.p.=.=.=.p.J.p.p.p.p.p.!.!.p.=.=.=.p.J.J.p.p.=.=.=.p.p.p.p.p.p.p.p.p.p.=.=.=./ / / =.=.=./ / =.=.p.p.p.p.p.=.=.=.=.p.J.p.p.p.J.J.p.=.p.!.!.",
"/ =.=.=.=./ / / / =.=.=.=.=.p.p.p.=.p.p.p.p.=.L y L L / =.=.=.=.p.p.p.J.J.p.p.p.p.p.p.=.=.=.=.=.=.L / p.J.J.p.p.p.p.p.p.p.p.p.p.p.p.J.J.J.p.=.L y y L =.=./ =.p.J.p.=.=.=.=.=.=./ / / =.=.=.=.p.J.J.p.p.=.=.=.=.p.p.p.p.=./ L =.p.p.=./ =.p.p.p.p.L y y L =.=.p.=.=.=.=.=.=.p.J.!.J.p.p.p.p.p.p.p.p.=./ L / =.p.J.J.J.p.=.=.p.p.=./ / / / / =.p.p.J.J.J.J.p.p.=.=.p.p.p.p.p.p.J.!.!.J.J.p.p.p.=.=.=.p.J.!.!.!.J.p.=.=.=.p.J.J.p.=.L L / p.J.J.J.J.J.J.p.p.p.p.p.p.=.=.=.p.p.=.=.=.p.p.p.=.=.=./ / / / =.=.p.p.p.p.J.J.J.J.J.!.!.",
"=.p.p.p.=.=.=./ =.=.p.p.p.p.J.J.p.=.p.J.p.=.=./ / / / =.=.=.=.=.p.p.p.J.p.p.=.p.J.p.=.=./ / =.=.=.=.p.p.J.J.p.p.p.p.p.p.p.=.=.=.p.p.p.p.p./ L y y L / p.=.L / p.J.J.p.=.=.=.=./ / / =.=.=.=./ =.p.p.p.p.=./ =.=.p.J.J.J.p./ L / =.p.=.=.=.=.p.p.=.y 3 y / p.J.J.=.=.=.=./ L =.J.!.J.=.=.=.=.p.p.p.p.=./ L L / =.p.J.J.p./ / p.p.=.L L / =.p.p.p.p.p.p.p.p.p.p.=.=.p.p.p.p.p.p.p.J.J.J.J.J.p.=./ / / =.!.[.[.!.p.=.=.=.p.J.J.p.=.L y y L p.!.J.J.J.!.J.p.p.J.J.J.p.p.p.p.p.p.p.p.p.!.J.p.=.L L L L / / =.=.p.p.p.p.p.p.J.!.!.J.J.",
"=.p.p.p.p.p.=.=.p.p.p.p.p.p.p.p.p.p.p.J.p.p.=.=.=.=.p.p.p.p.p.=.=.=.=.=.p.p.p.J.!.p./ L L / =.p.p.p.p.p.J.J.J.J.J.J.p.p.p.p.p.p.=.=./ L L L L L L / =.=.=./ / =.p.J.J.p.p.=./ / / =.=.=.=.=.=.=.p.p.p.p.=./ / / =.p.p.p.p.p.=.=.=.=.=.=./ / p.p.p.L L / =.J.!.J.p.=.=./ L L / p.p.=.L / =.p.p.J.p.=.=.=./ L L / =.p.p.=.L L =.p.=.L L =.p.p.J.p.p.p.p.p.p.p.p.p.p.p.p.p.p.p.=.=.p.J.J.J.J.p.=./ / =.p.!.!.!.p.p.=.=.p.p.p.p.=./ y 3 3 L p.J.p.p.p.p.p.p.p.J.J.p.p.p.p.p.p.p.p.p.J.J.J.p./ L y y / / =.=.p.p.p.J.p.=.=.p.J.J.p.p.",
"=.p.p.p.p.p.p.p.p.J.J.J.p.=./ / =.p.p.p.p.p.=.p.p.J.!.J.p.p.p.=.=./ / / =.p.!.!.!.p.L y L / =.p.p.p.p.p.J.!.!.!.!.J.p.p.p.J.p.p./ L y 3 3 y L =.p.p.p.=.=.=.=./ =.J.[.!.p.=./ L / =.=.=.=.=.=.=.=.p.p.p.p.=./ L / =.=.p.p.J.p.p.=.=.=.=./ / p.p.p.=.=.p.J.J.!.J.p.=./ L L L / =.=.L y L =.p.J.J.p./ =.=.=.L L L / =.=.=.L L =.p.=./ / =.p.J.J.p.p.p.p.p.J.J.J.J.p.p.p.p.p.p.=.=.p.J.J.J.p.=.=.=.=.p.J.J.p.p.=.=.=.p.p.J.p.p./ L y 3 y L =.p.=.=.=.=.=.p.p.p.p.p.p.p.p.p.p.p.p.p.p.p.p.=.=.y 3 y / =.=.p.p.p.J.J.p.=./ p.p.p.=.=.",
"p.p.p.p.p.p.p.p.J.J.J.p.p.=.L L =.p.J.p.p.p.p.p.p.J.!.J.p.=.=.=.L L y L / p.J.!.!.p./ L L / =.p.p.p.p.p.p.J.!.!.J.J.p.p.p.=.=./ L y 3 3 y L =.p.p.p.p.=.=.=.=.=.=.J.[.[.!.p./ L / =.p.p.=.=.=.=.p.p.p.p.p.=./ / / =.=.p.p.J.J.p.p.p.p.p.=.=.p.p.p.p.p.p.p.p.p.p.p.p.=./ / / =.=.=.L y L / =.p.p.=.=.=.=.=.L L L L / / / / / =.=.p.=.=.p.p.p.J.p.p.p.p.J.J.J.J.!.J.p.p.J.J.p.p.p.p.J.J.J.p.p.=.p.p.!.!.p.=./ / / =.=.p.J.p.=.L y y y L / =.p.=.=.=./ =.p.p.p.p.p.=.p.p.p.p.p.p.p.=./ / =.=.L y L / =.=.p.p.p.J.!.J.=.=.p.p.p.p.=.",
"J.J.p.=.=.=.p.p.p.p.p.=.=./ L / p.J.J.p.p.p.p.p.p.J.J.p.=./ L L y 3 3 y L =.p.J.p.p.=.=.=.=.=.=.p.p.p.p.p.p.J.J.p.p.p.p./ L L L y 3 3 y L =.p.p.=./ =.p.p.p.p.p.p.J.[.[.[.J.=.L / =.p.p.p.p.=.=.p.p.p.p.p.=.=.=.=.=.=.p.p.p.J.J.J.J.J.J.p.=.p.p.J.J.p.=./ / / =.p.J.p.p.p.p.p.p.p.=./ / / / / =.=.p.p.=.=./ L L L / / / / =.=.=.p.p.p.p.p.p.p.p.p.p.J.J.J.!.!.!.J.J.J.J.J.J.J.J.J.J.J.p.J.J.J.J.J.!.!.p.L L L / / / p.J.p.=.L y y L =.=.=.=.=.=.=.=.=.=.p.p.p.=.=.p.J.J.p.p.=./ L y y / =.=.=./ / / =.p.p.p.J.!.J.p.p.p.p.p.J.p.",
"J.p.=./ / =.=.=.=.p.=.=.=./ / =.p.J.p.p.p.p.p.p.J.J.p.p./ L L y 3 = 3 y L / =.=.p.p.p.p.=.=.=.=.p.p.p.p.p.p.p.p.p.p.=.=.L y y L L y 3 y / =.p.p./ / =.p.p.p.p.p.p.J.J.!.[.!.p./ / / =.p.p.=.=.=.=.p.p.p.p.p.=.=.=.p.p.p.p.p.p.J.J.!.!.J.p.=.p.p.p.p.p./ L L / =.p.J.J.p.p.p.p.J.p.p.=./ / / / / =.p.=.=.=.=.=./ / / =.=./ / / =.p.p.p.p.=.=.=.p.p.p.p.J.J.J.!.!.!.!.!.!.J.!.!.!.!.J.p.p.J.!.!.!.!.!.!.p.L L L / / / p.J.p.=.L L L / =.p.=.=.=.=.=.=.=.=.p.p.p.=.=.=.p.J.p.p.=./ y 3 y / =.p.p.=./ / =.p.p.p.p.J.J.p.p.p.p.p.J.p.",
"p.=.=./ =.=.=./ / =.p.p.p.p.p.p.=.=.=.p.p.=.p.p.J.J.p.=./ L L y y y L / / L y / p.p.p.p.=./ / / =.J.!.J.p.p.p.p.p.=.L L L L / =.=.L 3 y L / =.p.=.=.p.p.p.p.p.p.p.=.=.=.J.J.p.p.=./ =.p.p.=./ L L / p.J.p.p.=./ =.p.p.p.p.p.p.p.J.J.J.p.p.=.=.=./ L L / / =.=.=.p.p.p.p.p.=.p.J.J.p.=./ =.=.=.=.=.=.=.=.p.p.p.=.=.=.p.=.L L L L =.p.p.p.=.=.=.=.p.p.p.p.p.J.!.!.!.!.!.!.!.!.!.!.!.J.p.p.!.[.[.J.J.J.J.p./ / =.=.=.=.p.p.p.=./ L L / =.=.=.=.p.p.=.=.=.p.p.p.=.=.=./ / =.p.J.p./ L y L =.J.!.!.p.=.=.=.=.p.p.p.p.p.p.p.=.=.p.J.J.",
"=.=./ / =.p.=.L L =.p.p.p.p.p.p.=./ =.p.p.=.=.p.J.J.p.=./ L L L L L / =.=.y 3 L p.p.p.p./ L L L =.!.!.J.p.p.p.p.p.=.L y L / p.J.p./ y y L L =.=.p.p.p.p.p.p.p.p.p./ L / =.p.J.p.=.L / =.p.=.L y L / p.J.J.p./ L / p.p.p.p.=.p.p.p.p.=.=.=./ / / L L L / =.=.=.=.p.p.p.p.=./ =.J.J.p./ / =.=.p.=.=./ =.p.J.J.J.p.=.p.J.=.L y y L / =.p.p.=.=./ =.p.p.p.p.p.p.J.!.!.!.!.!.!.!.!.!.!.J.p.p.!.[.!.J.p.p.p.p.p.=.=.=.=.=.=.p.p.=.=./ / / =.=.=.=.p.p.=.=.p.p.J.p.=.=.p./ y L p.J.p.=./ / =.J.!.!.!.J.p.=./ =.p.p.p.=.=.=.=.=./ =.p.p.",
"=.=.=.=.=.p.=.L L =.p.p.p.p.p.p.=./ =.J.p.p.p.p.p.=.=./ =.=.=.=./ / / / / y y L p.J.J.p./ L L L p.!.!.p.=./ / =.p.p.=./ =.p.p.p.p.=.L / / =./ =.=.p.p.p.=.=.=.p.p./ L / =.p.p.=./ L L =.=./ L L / =.J.J.p.=./ L =.p.p.p.=.=.=.p.p.=.L L L L L L / / =.p.p.=./ L / =.=.p.=.=.=.J.J.=./ / =.=.p.p.=./ =.J.!.!.!.p.=.=.p.=.L y y L =.p.p.p.p.=.=.p.p.J.J.p.p.p.J.!.!.J.J.J.J.J.J.J.J.p.p.p.J.!.!.p.p.p.p.J.J.p.=.=.=./ / =.=.p.p.=.=.=./ / =.=.p.p.p.=.p.p.p.p.=.p.p./ y L p.!.p.=.=.p.J.!.!.!.!.p.=.L L L =.p.p.=./ / / =.=.=.=.=.",
"=.=.=.p.p.p.=./ / =.p.p.p.p.p.p.=.=.p.J.J.p.p.=.=./ L / =.p.p.p.=./ L L L L L =.p.J.J.J.=.L L / p.J.!.p./ L y L =.p.p.p.p.p.p.p.=.=.=.p.p.=./ / =.=.=./ / / / =.=.=.=.=.=.=.=./ L y L =.=./ / =.=.p.!.J.=.L L / =.p.p.p.=.=.p.p.p.=.y 3 y y L / =.p.J.J.J.=.y 3 y / =.p.=.=.p.J.p.=.L L =.p.p.p.=./ p.J.!.!.J.=./ / =.=.L L L L =.p.p.p.p.p.p.p.J.!.!.J.p.p.p.J.J.p.p.J.J.J.p.p.p.p.p.p.p.p.p.p.p.p.p.J.!.p.=./ / L L L =.p.J.p.p.=./ / =.=.p.p.p.p.p.p.p.p.p.p.p.=./ / p.J.p.p.p.!.!.!.!.J.J.p./ L y y / =.=.=.L L L =.p.=.L L ",
"p.=.p.p.p.p.p.=.=.=.=.p.p.p.p.p.p.p.p.p.p.p.=.=.=./ / / =.p.p.p.=./ L L L / / =.=.p.J.J.=./ L L =.J.J.=.L L L / =.p.p.p.p.p.p.p.p.p.p.p.p.=./ / =.p.=.=./ / =.=.p.p.p.p.p.=.=./ L L / =.=.=.=.=.p.p.J.p.=.L L L / =.=.=.p.p.p.p.p.=.L y L / / =.=.p.J.!.J.=.y 3 y L =.p.p.=.=.p.=./ L / =.=.p.p.=.=.p.J.J.J.p./ L L L L L / L / =.p.p.p.p.=.=.p.J.!.!.!.p.p.p.J.p.p.p.p.J.J.p.p.p.p.p.p.p.p.p.p.p.p.p.p.p.p.=./ / / L L =.p.J.p.p.=.=.=.=.=.p.p.p.p.p.p.p.p.p.p.p.p.=.=.p.J.p.p.p.!.!.J.J.p.p.=./ L L L / =.=.=./ L L =.p./ y y ",
"p.p.p.p.p.J.p.p.=.=.=.p.J.J.p.p.J.J.p.p.=.=.=.=.=.=.=.=.=.=.p.p.=.L L / =.=.=.=./ =.p.p.=.=./ L / p.p.=.L / =.=.p.p.=.=.=.=.p.p.p.J.J.p.=./ L / p.p.p.=.=.=.=.p.J.J.J.p.p.p.=.=.=.=.p.p.p.=.=.=.=.=.p.p.=./ L L L L / =.p.p.p.p.p.=.=.=.=.p.p.=.=.=.p.J.J.=.y 3 y L p.J.p.=.=.=./ L L / =.=.=./ =.=.=.p.p.=./ L y y y L / =./ / =.=.p.p.p.=./ =.p.J.!.J.p.p.p.J.p.=.=.p.J.J.p.p.p.p.p.p.=.=.p.J.J.p.p.=./ / / =.p.p.=./ =.p.p.p.p.p.p.p.=.=.p.p.J.J.p.p.=.p.p.p.p.J.J.p.p.p.p.p.p.p.p.p.p.p.=.=.=.p.p.p.=.=.=.p.p.p.=.=./ y 3 y ",
"J.p.p.p.J.J.J.p.p.=.p.p.J.J.p.p.J.J.p.=.=.=.=.=.=.=.p.p.=.=.p.p.=./ / =.p.p.=./ L / =.=.=.=.L L / p.p.=./ =.p.p.p.=./ L / =.p.p.J.!.J.p.=./ / =.p.J.p.p.=.=.p.p.J.J.p.p.p.p.=.=.=.p.p.p.p.=.=.=.=.=.=.=.=.=./ L L L L / =.p.p.p.p.=.=.p.p.J.p.p.=.=.=.p.p.=.L y y L p.J.J.=./ L L L / =.p.p.=./ =.=.p.p.=./ L L L y y L =.p.=./ / =.p.p.p.=./ =.p.J.J.J.p.p.p.J.p.=.=.p.J.J.p.p.p.p.p.p.=.=.p.J.J.p.=./ L L / =.p.p.p.=.=.p.p.p.p.p.J.p.=.=.=.p.J.J.J.p.=.=.p.p.J.J.!.J.p.p.=.=.=.=.=.p.p.p.p.p.p.J.J.J.p.p.p.p.p.p.=./ y y y L ",
"J.p.p.p.p.J.J.p.=.p.p.p.p.p.p.p.=.=.=.p.p.p.p.=./ =.p.p.p.p.p.p.p.=.p.J.J.p.=.L L L L / L L L / =.p.p.=.=.p.J.J.p.=.L L / =.p.J.!.J.p.p.=.=.=.p.J.!.p.=.=.p.p.p.p.=.=.=.p.=./ / =.J.J.p.=./ / =.p.=.=./ / / / / L L L L / p.J.J.p.p.p.p.p.p.=.=.=./ / / =.=.=./ L L =.p.p.=./ y y L =.p.p.p.p.=.=.p.p.J.p.L y / =./ L / p.p.=./ =.=.p.p.p.=.=.p.p.p.p.p.J.J.J.p.p.p.p.p.J.J.p.p.p.p.p.=.=.=.p.p.p.=./ L L / =.p.p.p.p.=.=.p.p.p.p.p.p.p.=.=.=.p.J.!.J.p.=.=.p.p.J.!.!.!.J.p.p.=.=.=.=.=.p.p.J.J.J.J.J.J.J.J.p.p.=./ L y y L =.p.",
"J.J.p.p.p.J.p.=.=.p.p.p.p.p.p.=./ / =.p.J.J.p.=./ =.p.p.J.J.p.p.p.p.J.J.J.=./ L L L L L y y L =.=.p.p.=.=.p.!.J.=./ L L / p.J.!.!.J.p.p.p.p.p.p.J.!.p.=.=.p.p.p.=./ L / =.=.L L =.p.J.p.=.L L / =.=./ / / / / =./ L L L L p.J.J.p.p.p.=.=./ =.=.=./ L L L =.p.=./ L =.p.p.=.L y y L p.p.p.p.p.p.p.p.J.!.p.L L / p.p.=.=.p.p.=./ =.p.p.p.=.=.=.=.=.=.=.=.J.!.J.p.p.p.p.p.p.p.p.p.p.p.=.=.=.=.=.p.p.=.L L / / =.=.p.p.p.p.p.p.p.p.p.p.p.p.p.p.p.p.J.!.J.p.=.=.=.p.J.J.!.!.J.p.p./ / =.=.=.p.J.!.!.!.J.p.p.J.J.p.=./ L y y y =.J.J.",
"J.!.J.p.p.p.p.=.=.p.p.=.=.=.=.=./ L / p.p.p.p.=.=.=.p.J.J.p.=./ / =.p.p.p./ L L / L y y y y / =.p.p.p.p.p.J.J.p./ L L / =.p.J.!.!.p.=.=.=.=.p.p.p.p.p.p.p.p.p.p.=.=.=.=./ L y y / =.p.p.=./ L L L L L / / / / / / L L / =.=.p.p.J.p.p.=./ / / =.=./ L L / p.J.p./ L / =.=.=.L y 3 L p.p.=.=.p.p.p.p.J.J.p.L L =.p.p.=.=.=.=.=.=.=.p.p.p.p.=.=./ L L / =.J.!.J.p.p.=.p.p.J.J.p.p.p.p.p.p.=.=.=.=.=./ / / =.=.=.=.p.p.p.p.p.p.p.p.p.p.p.p.p.p.p.p.J.J.p.p.=.=.=.=.p.J.J.p.p.p.=.=.=.p.p.=.=.p.J.J.J.p.p.=.p.=.=./ L L L / =.p.!.!.",
"!.!.J.p.=.=.=.p.p.p.=./ L / =.=.L L / =.p.=.=.=.p.p.J.J.J.p.L L L / / =.=.L L / =./ y y y L / p.p.p.p.J.J.J.p.=.L L / =.p.p.J.J.J.p.=./ / / p.p.=.=.=.p.p.p.=.=.=.p.p.=.L y y y L / =.=.=./ L y 3 y L / =.=.=./ L L L =.p.=./ =.J.J.p.=./ / =.p.=./ L / =.p.!.J.=.L / =.=.=.L y y L =.=./ / =.p.p.p.p.p.=./ L =.p.p.=.=./ / =.p.p.p.J.J.p.=.L y y y / =.J.!.J.p.p.=.=.p.!.J.p.p.p.p.p.p.p.=.=.=.=./ / =.p.=./ =.p.p.p.p.p.p.p.p.p.p.p.J.J.J.J.J.J.p.p.p.=.=./ =.=.p.p.p.=.=.=.p.p.J.J.p.=.p.p.J.p.p.=.=./ / L L L / =.p.J.!.!.J.",
"J.J.p.p.=.=.p.J.J.p.=.L y L / =./ L / =.=./ / =.p.p.J.J.p.p./ L L L / / / L L L / / L L y L / =.p.p.p.!.!.J.p./ L L / p.p.p.p.p.p.=.=.=.=.=.=.=.=.=.=.p.p.=.=.=.=.p.p.=.L y y L L / / / / / L y 3 y / =.p.p.=./ L L / p.p.=./ =.p.p.p.p.=./ / =.=./ L / =.p.J.p.=.L L L / =./ L y L / / / =.p.p.p.p.p.=.=./ / =.p.p.p.=./ / =.p.p.p.p.p.p.=.L y y L =.p.J.J.J.J.p.=.=.p.J.J.p.p.p.p.J.J.p.=.=.=.=.=.=.=.p.=./ / p.p.J.J.J.p.p.p.p.p.p.p.J.J.!.!.J.p.p.=.=.=.=.=.=.=.=.=.=.=.p.p.J.J.J.p.=.p.p.p.p.p.=./ L L / =.=.=.p.J.!.!.!.p.",
"p.p.p.=.p.p.J.!.!.p./ y 3 y L / / / / L L L / =.=.p.p.p.p.p.p.p./ L L / / / L L L L / / L L / =.=.p.p.!.!.p.=.L L L =.p.p.=.=.=./ =.=.p.p.p.=./ / / =.=.=.=.=.=.=.=.=./ L L L / / / / L L L L y y L =.p.p.p.p.=./ / / p.p.p.=.=./ =.p.J.=./ / / / L L / =.p.p.p.=./ y y L p.p./ L L L / =.p.J.J.J.p.p.=./ L / =.J.J.p.=.=.=.p.p.p.=.=.p.=./ L L / =.J.J.p.p.p.J.p.p.p.p.p.p.p.p.p.p.J.J.p.=.=.=.p.p.p.=.=./ / / p.p.J.J.J.p.p.p.p.p.p.p.p.J.!.!.!.J.p.=./ =.p.=.=.=./ / =.=.p.!.J.J.p.p.p.p.p.p.J.p./ L L / =.J.J.p.p.J.!.J.p.=.",
"p.=.=.=.p.J.!.!.!.p.=.L y y L / =.=./ L L / / =.=.p.p.p.p.p.p.p./ L L L / / L L L L =.=./ L / =.=.=.p.J.!.p.=.L L L =.p.p.=.=.=.=.=.p.J.J.p.=./ L L L / / / =.=.=./ / L L / =.=.=./ L L L L / L / =.=.p.J.p.p.=.=./ / =.p.p.p.=./ / p.p.p.=.=./ L L y L =.=.p.p.=./ y y L p.p.=./ L L =.p.p.J.J.J.p.p.=./ / =.p.J.J.p.p.=.=.=.=.=./ =.p.p.=./ / =.p.J.!.p.=.p.p.p.=.=.=.p.p.p.p.p.p.p.J.p.p.=.=.p.p.p.p.=.=./ =.p.p.p.p.p.p.p.p.p.p.p.p.p.J.!.!.!.!.p./ / =.p.p.=.=./ / =.p.J.!.J.p.p.p.p.p.p.p.J.p./ L L / p.J.!.J.J.J.!.J.p.=.",
"=.=.=.=.p.J.J.J.p.p.=.=./ / / =.=.p.=.=.=.p.p.p.p.p.J.J.p.p.p.=.L y y L L L L / =.=.=.=./ / p.p.p./ =.p.!.J.p./ L L =.p.p.p.p.=.p.p.J.!.!.J.p.=.L y y 3 y L / / / L L / =.=.=.=./ L L L L =.=.=.=.=.p.p.p.p.p.=.=./ / / =.p.!.p./ / =.p.p.p.p.=.L y y L / =.=.p.=.=.L L / p.p./ / / =.=.p.p.p.p.p.=.=.=.=.=.p.J.!.J.p.=.=.=.=./ / =.p.J.J.p.=./ / =.p.p.p.=.=.=.=./ / / =.=.=.=.p.p.p.p.p.=.=.=.=.p.p.p.p.p.=.=.p.p.p.p.p.p.p.p.=.=.p.p.p.J.J.!.!.!.p./ / =.p.p.p.p.=.=.p.p.p.p.p.p.p.p.p.p.J.J.p.p./ L L / / =.p.J.!.!.!.p.=.=.",
"=./ =.=.p.J.p.p.=.=.p.p.=.=.=.=.p.p.p.p.p.p.p.p.p.J.!.J.p.=./ / L y y L L L / =.p.p.=.=./ =.p.J.p./ / p.!.J.p.=./ / =.p.p.J.p.p.p.J.!.!.!.J.p.=.L y = = 3 L L L L L / / =.=.p.=./ L L L / =.p.p.p.p.p.=.=.=.p.p.=.=./ L L p.!.J.=./ / =.p.J.p.p./ L y L / =.p.p.=.=./ / =.p.p./ L =.p.p.p.p.p.=.=./ =.p.p.p.p.!.!.J.=.=.=.=./ / / =.p.J.J.p.=./ / / =.p.p.=.=./ / L L L / =.=.=.p.=.=.=.p.p.p.=.=.p.p.J.p.p.p.p.p.p.p.p.p.p.p.=.=.=.p.p.J.J.p.p.!.!.J.=.=.=.p.p.p.p.p.p.p.p.p.p.=.=.=.p.p.J.!.J.p.=.=./ L L L / p.J.!.!.J.p.p.p.",
"=.=./ / =.p.p.=.=.=.p.p.p.p.p.p.p.p.p.p.J.J.J.J.J.!.!.p.=.L L y y y L / =.=.p.=.=.=./ / / =.p.p.p.=./ =.p.p.p.p.=.p.p.J.J.J.p.p.p.p.J.p.p.=./ L y y 3 3 y L / / / =.=.=.=.=.p.=./ L L / / =.=.=.p.p.p.=.=.p.p.J.p.p.=.L L p.J.J.p.=./ / =.p.p.J.p.L L L =.p.p.p.p.=.=.=.p.p.=./ L / =.p.p.p.p.=./ =.p.J.J.J.J.!.!.J.p.=.=.=.=.p.p.=.p.p.p.=.=.=./ =.=.p.=.=.=.=./ / / / / =.p.p.=./ / =.p.J.J.p.p.J.J.J.p.p.p.p.p.p.p.=.=.=.=.p.p.p.p.p.p.p.=.=.p.!.J.=.=.p.p.p.p.p.=.=.=.p.p.p.p.=.=.=.=.p.J.p./ / =.=.L L / =.p.!.!.!.J.J.J.J.",
"=.=./ L L =.=./ =.p.p.p.p.p.p.p.J.J.J.p.p.J.J.!.!.!.J.p./ y y 3 3 y L =.p.J.J.p./ L L L L / =.p.p.=.=.=.=.=.=.p.J.J.J.J.J.p.p.=.=.=.p.=./ L L y y y L L / / / =.=.p.J.p.=.=.=.=./ L L / / / L =.=.p.p.p.p.p.J.!.J.p.p.=./ =.p.p.p.p./ L / =.p.!.J.=./ =.p.p.J.J.p.=.=.=.p.p.=./ / L / =.J.J.p.=.=.=.p.!.!.!.!.!.!.J.p.=./ / p.J.J.p.=.=./ =.=.=.=.=.=.p.=.=.=.=.=.=.=.=.=.p.J.p.=.L L =.p.[.[.!.!.!.!.J.p.p.J.J.p.p.p.p.=./ =.J.!.J.p.p.p.=.L L =.J.J.p.=.p.p.p.p.=./ / / =.p.J.p.=./ / =.p.p.=.L L =.=./ L / J.!.!.!.J.p.J.!.!.",
"p.=./ L / =.=.=.=.p.p.J.p.p.p.p.J.J.J.p.p.J.J.J.J.J.J.p./ y y y y L / p.p.p.p.=./ L L y y L / =.p.p.p./ / / =.p.J.J.J.J.J.p.p.=.=.=.=./ L L L L L L L / / / / =.=.p.J.p.=.=.=.=./ L / / / L L / p.p.p.p.p.p.p.p.p.p.p.=.=.=.p.p.J.p.L y L =.p.p.p.=.=.=.=.p.!.J.p.=.=.p.p.=.=.=./ / / =.J.J.p.p.=.p.p.J.!.J.J.!.!.p.=./ L L =.p.p.p.=.=.=.=.p.p.=.=.=.=.=.p.p.=.=./ / =.=.p.J.p./ L / =.J.[.[.!.!.!.!.J.p.p.J.J.p.p.p.p.=.=.p.J.!.p.=.=.=.=.L L =.J.J.p.p.=.=.=.p.=./ / / =.p.J.p./ / / =.p.p.=./ =.p.p./ L =.J.!.!.J.p.p.p.!.J.",
"p.p.=.=.=.=.=.=.p.p.p.J.J.p.p.=.p.J.J.p.p.p.p.J.J.J.J.p./ L L L / =.=.=.=.=.=.=.=./ y 3 = 3 L =.p.p.p./ L / =.p.p.p.p.p.p.p.p.=.=.=.=./ L L / =.=.=./ / L L L / =.=.p.p.p.p.=.=.=.=./ / L y y / p.!.J.J.p.=.=.=.=.p.p.=.=.=.=.p.p.=.y 3 L p.p.=.=.=.=./ / p.!.!.p.=.p.p.p.=.=.=.=./ / =.p.J.p.p.p.p.p.p.p.p.p.p.p.=./ L y y L L =.p.p.=.p.J.J.p.=.=./ =.p.p.p.=.=./ / =.=.=.=.=./ / =.p.J.!.!.!.!.!.!.J.p.p.p.p.p.p.p.p.p.J.J.J.p.p.=.=.=./ L L p.!.!.p.=./ / =.=.=.=.=.=.=.p.J.p./ L =.=.=.=.=.=.p.J.J.=./ =.J.!.J.p.p.p.p.J.p.",
"p.p.p.p.p.p.=.=.=.p.p.J.J.p.=.=.p.p.J.J.p.p.p.p.p.J.J.p.=./ L L / =.=.=.=.=.=.=.=.L 3 = = 3 L =.p.p.p./ / / =.=.=.=.=.=.p.p.p.=.=.p.p./ y L =.=.=.=./ L L L L / =.=.=.p.p.p.=.=.=.=.=./ L y y / p.J.J.J.p.=./ / =.p.p.=.=./ / =.p./ y 3 / p.p./ / =.=./ L p.!.!.p.=.p.p.p.=.=.p.=./ L =.p.p.p.p.J.J.p.p.p.p.p.p.p.=.L y y y y L =.p.J.p.p.J.J.p.=.=./ =.p.p.p.=./ L / =.=.=.=.=.=.=.=.p.J.!.!.!.J.!.!.J.p.p.p.p.p.p.p.p.p.J.J.p.p.=.=.=.=./ L L p.!.J.p.=./ L / =.=.p.p.p.=.p.p.=./ / =.=.=.=.p.p.J.!.!.p.=.=.p.p.p.p.p.p.p.p.p.",
"p.p.J.J.J.p.=./ / =.p.J.!.p.=./ =.p.p.p.p.p.=.=.=.p.p.p.p.p.=./ L L L L / =.p.=./ y 3 = 3 y L =.p.p.=.=.=./ =.=.=.=.=./ =.=.=.=.=.p.p.=.L L / / / L L y y L L / / =.=.=.p.p.=.=.=.=.=.=./ L L / =.p.p.p.p.p.=./ =.p.p.=./ L L L / / L L =.p.p.=.=.=.=./ / p.!.J.p.=.p.J.p.p.p.p.p.L y L =.p.p.p.p.p.p.=.p.J.!.!.J.=.L y L L L / p.!.!.p.p.p.J.p.=.=.=.=.=.=.=./ / / L / / =.=.=.p.p.p.p.J.!.!.J.J.J.!.J.p.p.p.p.p.p.p.p.p.=.p.p.p.p.=.=.=.=.=.=.=.p.=./ / L L / =.=.p.p.p.p.p.p.=./ / =.=.p.p.J.J.!.[.[.J.p.=./ =.=.p.!.!.J.p.=.",
"p.p.p.J.J.p.=./ L =.p.J.!.p./ L / p.p.p.p.p.=.=.=.p.p.p.p.p.=./ L y y L / p.p.=.L y 3 3 y L / =.=.=.=.=.=.=./ / =.=./ L / =.=.=.p.p.p.=.L y L L L L y y y L L L / =.=.=.=.=.p.p.p.=.=.=.=./ L / / =.=.=.p.p.p.=.=.p.p.=./ L y L L L / / =.p.p.=.=.p.p.=.=.p.J.p.=.=.p.J.p.p.p.p.p.L y L =.p.p.p.p.p.p.=.p.!.!.!.J.=.L L L / / =.J.!.!.p.p.p.p.p.=.=.=.=./ / / / / / / L / =.=.p.p.p.=.=.p.J.J.J.p.J.J.J.p.p.p.p.p.p.p.p.=./ =.p.p.p.p.p.p.p.=.=.=.=./ L L / / / =.p.p.J.J.J.p.=./ / / =.=.p.!.!.J.!.[.[.J.p.=.L L =.p.!.[.J.=.=.",
"J.J.=./ =.p.p./ L =.p.p.J.=.y 3 L =.=.p.p.=.=.p.p.p.p.p.=./ L L y y L =.=./ L y y y y y y y L =.=.=.=.=.=.=.L / / / L L =.=.p.=.=.p.p./ y 3 3 y y L L L L L L L L =.p.p.=.=.p.p.p.=.=.=.=.=.=./ L L / / =.=.p.p.p.p.=.=.=.L L L L / / =.=.=.=.=.p.J.J.p.p.p.p.p.=.=.p.p.p.=.=.=.=./ L =.p.p.p.p.p.p.p.p.J.J.J.p.=.=./ / / =.=.=.p.J.J.p.p.p.J.p.p.p.p.=.L L L / / / L L / =.=.p.p.p.=.=.p.J.J.p.p.J.J.J.p.p.p.p.p.p.p.p.=.=.=.p.p.p.p.p.p.p.p.p.=.=.=.=.=.=.=.=.=.p.J.J.J.p.p.=.=.=.=.=.=.J.!.!.J.J.!.!.p.=.=./ =.p.J.!.!.J.p.p.",
"!.J./ y L p.p.=./ =.p.p.p.=.y = y L / =.=.=.p.p.J.J.J.p./ L L y y L / p.p.L = 3 y L / / L y L / =.=.=.p.=.=.L L L / / / =.p.p.=.=.=.=.L y 3 = 3 y L L L L L y 3 L =.!.J.=.=.p.p.p.p.=.=.=.p.=./ L L / / / / p.J.J.p.=.p.p.=./ / / =.=.=.=.=.=.=.p.!.!.!.J.p.=.=.=.=.p.p.=./ / =.=.=.=.p.p.p.=.=.p.p.J.J.J.J.p./ L / =.=.=.=.=.=.p.p.p.=.p.J.J.J.p.p.p.=.L y L =.=./ L L / =.p.p.p.p.=./ p.p.p.p.p.J.J.J.J.p.p.p.p.p.p.p.=.=.=.p.p.p.p.p.p.p.p.p.p.=.=.p.p.p.p.=.p.p.J.J.p.p.p.p.=.=.=.=.p.J.!.!.J.J.J.J.p.=.=.=.p.p.J.p.p.p.p.J.",
"J.J./ y L =.p.=.=.p.p.p.p.=.L y y L / / =.p.p.J.J.J.J.p.=./ L L L / =.p.p.L 3 y L / =./ L L L / =.=.=.=.=.=./ L L / =.p.p.p.p.=.=.=./ L y 3 = 3 y y L / / L y 3 y =.J.p./ L =.p.p.p.=.=.=.p.p.=.L / =.=./ / =.p.p.p.p.p.p.p.p.=.=.=.=.=.=.=.=.=.p.!.!.!.J.p.=.=.p.p.p.p.p.=.=.=.=.=.p.p.p.p.p.p.p.p.J.J.J.J.p.L y / p.p.=./ =.=.=.=.=.p.p.!.!.J.p.=.p.=./ L / =.=./ L L L =.p.p.p.=./ / =.p.p.p.p.p.J.J.J.J.J.p.p.p.p.p.p.p.=.=.=.=.=.p.p.J.J.J.p.=.=.p.p.p.p.p.p.J.J.J.p.p.p.p.p.=.=.=.p.p.p.p.J.p.p.p.p.p.p.p.p.p.=./ / =.J.!.",
"=.=.=./ / =.=.=.=.p.p.p.p.p.=./ L L L / =.p.p.p.p.p.p.p.J.p.=./ / =.p.p.=.L L / =.=.=./ L L L / / =.=.=.=.=.=./ L / p.!.!.J.p./ / / / L y y y y 3 y L / =./ L y y =.p.=.y y / p.p.J.=./ L =.p.=.=.p.J.p.=./ =.=.=.=.p.p.p.p.J.p.p.p.p.p.p.p.=.=.p.J.!.!.J.p.p.p.p.J.J.J.p.=.=.p.p.p.p.p.p.J.J.J.J.p.J.J.J.J.p.L y / p.p./ L / =.=.=.p.p.!.[.[.J.p.=.=.=.=.=.=.=.=./ L L L =.p.J.p.=./ / =.p.p.p.p.p.J.!.!.!.J.p.p.p.p.p.p.=.=.=./ / =.p.p.J.J.J.p.=.=.p.p.p.p.p.p.J.!.J.p.p.p.p.p.=.p.p.p.=./ =.p.p.=.=.p.J.J.p.=./ L y y / J.!.",
"=.=.=.=./ / / =.p.p.p.p.p.p.=.=./ / / / =.p.p.p.p.p.p.p.p.p./ / / =.=.=./ / / =.=.=.=./ / / / / / =.=.=.=.p.p.=./ =.p.!.!.J.p.L L L L L y y L y y y L / / / L y y / p./ y y / =.J.J.p./ L =.p.p.p.p.J.p.p.=./ / =.=.=.p.p.J.J.J.p.p.p.p.p.p.p.p.p.J.J.J.p.p.p.p.J.J.J.J.p.=.=.p.p.p.=.p.p.J.J.p.p.p.p.J.J.J.p.=./ =.p.=./ / =.=.=.=.p.J.!.!.!.J.p.=.=.=.=.p.p.p.=.L L L / =.p.J.p.p.=./ =.=.=.p.p.p.p.J.!.J.p.p.p.p.p.p.=.=.=./ L / / =.p.J.J.J.p.=.=.p.p.p.p.p.p.J.J.J.p.p.p.=.=.=.p.p.p./ L / p.p./ / p.!.!.p.=./ L y L =.J.!.",
"/ L L L L L / =.p.p.p.p.p.p.=./ / =.=.p.p.p.p.J.J.J.J.p./ L L L L / / L L / / =.=.=.=.=.=.=./ / / =.=.=.=.p.J.p.=.=.p.p.J.J.=.y 3 y L y y y L L L L L L L L L y 3 L =./ L L / =.J.!.p.=./ / =.p.p.p.p.p.p.p.=./ / / =.p.p.p.p.J.J.J.p.p.p.p.J.J.J.p.p.p.p.p.p.p.J.J.p.p.=.=.=.p.p.p.=.p.p.p.=.=./ / =.p.p.p.p.J.p.p.=./ =.=.=.p.p.p.p.J.!.J.J.p.p.=.=.=.p.p.p.p./ y y L =.=.p.p.J.p.=.=./ =.=.p.p.p.p.J.J.p.=.=.p.J.p.=.=./ L L L / =.=.p.p.J.J.=./ =.p.p.p.p.p.p.p.J.J.J.p.=./ / =.=.p.p.=.L / =.=.L L p.!.!.p.p.=.=.=.p.p.J.J.",
"L y y L L L / =.=.=.p.p.p.=./ / =.=.p.J.J.p.p.p.J.!.!.p.L y y y L L L L L / / / / / =.=.=./ / / / =.=.=.=.p.J.J.p.=.=.=.p.J.=.y 3 y L L y L L / / L L L L L L y y L =.=./ L / =.p.J.p.=.=./ / p.p.p./ =.p.p.=.L L / =.p.p.p.p.p.J.J.J.p.p.p.J.!.!.p.=.=.p.p.p.p.p.p.p.=.=.=.=.p.J.p.p.p.p.p./ L L / =.=.p.p.p.!.[.p./ / =.p.p.p.p.p.p.J.p.p.=.=.p.p.p.p.p.p.p.p./ y y L =.=.=.p.p.p.p.=./ / =.p.p.p.p.p.p.p./ =.p.!.p.=./ L L L / / / =.=.p.J.J.=./ =.p.p.p.p.p.p.p.p.J.J.J.=./ / =.=.p.p.=.=.=.=./ L L =.J.J.p.p.p.p.J.!.J.p.p.",
"/ / / / / / / L / =.p.p.p.p.=./ =.=.p.p.p.p.p.p.p.p.J.p./ L L L L L L L L / =./ / / =.=.=./ L L L / =.p.p.J.J.p.p.=./ / =.p.=.L L / =./ L L L / / / L y y L L L L / =.=.=./ / / =.=.=./ / / =.p.p.p.=.=.p.p.=.L L / =.p.p.p.=.p.J.J.J.J.p.p.J.!.!.p.=.=.=.p.J.J.p.p.p.p.p.p.p.J.J.p.p.p.p.p.=./ / =.=.p.p.=.=.J.!.p.=.=.p.p.p.p.p.p.p.p.=.=./ =.p.p.p.p.p.p.p.=.=./ / / / =.=.=.=.=./ / / / =.p.J.p.=.p.p.p.=.p.J.!.p.=.=.=.=./ / / L / =.p.p.p.=.=.=.p.J.p.p.p.p.J.J.J.J.p.=.=.=.=.p.p.p.p.p.=./ L L L =.p.p.p.p.J.J.J.p.p.=.=.",
"=.=.=.p.=.=./ L L =.p.p.p.p.=.=.=.=.=.=.p.p.p.=.=.p.p.p.=./ / L / / / / L / =.=.=.=.=.=./ / L L L L =.p.J.J.p.p.p.=.L L / p.p./ =.p.J.p.=./ L / =.=.L 3 y L / =.=.=.=.=.=.=./ L L L L L / =.=.p.p.p.=.=.=.=./ L / =.=.p.p.=.=.p.p.J.!.!.J.p.J.J.J.p.p.p.p.p.J.J.p.=.=.p.p.J.!.!.!.J.p.p.p.p.p.=.p.p.p.J.p.=.=.p.J.p.p.p.p.p.p.=.=./ / / / / / =.p.p.p.p.p.p.p.=.=.p.p./ L / =.=./ / L L / =.p.J.J.p.=.=.p.p.p.J.J.J.p.p.p.p.p.=.=.L L L =.p.p.p.p.p.p.J.J.p.p.p.p.J.!.J.p.p.p.=.=.p.p.p.p.J.J.=.L y L / / =.=.=.p.J.J.p.=./ L / ",
"=.=.=.=.=.=./ / L / =.=.p.p.p.p.=.=.=.=.=.p.p.=.=.=.p.=.=./ L L L =.=./ / =.=.=.p.=./ / / L L y y / =.p.p.p.=.=.=.=.L y L =.p.p.p.J.J.p.=./ L L / / L y L / =.=.=.=.=.=.=.=.L y y y L L / =.=.p.p.p.=.=./ / L / =.=.p.p.=.=.=.=.p.p.J.J.J.J.J.J.J.J.J.p.=.=.=.=./ / =.p.p.J.!.!.!.J.p.p.p.p.p.p.p.p.p.J.p.=.=.=.p.p.J.J.p.p.p.p.=.=.=.=.=.=.=.=.p.p.p.p.p.p.p.=.p.J.p.=./ / =.=.=./ / / =.p.p.J.J.p.p.p.p.p.J.p.p.p.p.p.p.p.=.=.=.L L L =.=.=.p.p.p.p.p.p.=.=.=.=.p.p.p.p.p.p.p.p.p.p.p.p.J.J.p./ L / / / L / / =.p.p.=.=./ / =.",
"=.=.=./ L / =.=.=./ L L / =.p.p.=./ / / / / / =.=.=.=.=./ L y y L =.=.=.=.=.=.p.p.=./ L L L y 3 y =.=.=.=./ L / =.=.L y L / p.p.J.!.J.p.=./ L L L L L / =.p.p.=./ / =.=.=./ y y y L L / =.=.p.p.p.p.=.=.L L L / =.p.p.p.=.=./ =.=.p.p.J.J.!.J.p.J.!.!.p./ L y y L / =.=.p.p.J.J.J.p.p.p.p.J.!.!.J.p.p.p.p.=.=.=.=.p.!.!.J.p.p.p.p.p.=.p.p.p.p.p.=.=.=.=.p.p.p.=.p.p.p.p.=.=.p.p.p.p.=.=.p.J.J.p.p.p.p.p.p.p.p.p.=./ =.p.p.=.=.=.=./ L L L / =.p.p.J.p.=.=.L L L / / =.=.=.p.J.J.p.p.=.p.p.p.p.p.=.=.=./ L y L / / =.=.=.=.=.p.p.",
"=.=.=.L L / =.p.p./ y L / =.p.p.=./ L L L L L L / / / / / L y y L =.=.p.p.=.=.p.J.p./ L / / L y L =.p.=./ L L / =./ L y L / p.J.!.J.p.p.=.=./ / L L / =.=.p.=.=./ / / =.=.L y 3 y / / / =.=.p.p.p.=.=.=.L L L / p.J.J.p.=.=.=.=.=.=.p.J.!.!.J.p.p.!.!.p./ L y y L / =.=.=.p.p.p.p.p.p.p.p.J.!.!.J.p.=.p.p.p.p.=.=.p.J.J.J.J.J.p.p.=.=.=.=.p.p.p.p.p.=.=.=.=.p.p.p.p.p.p.p.p.p.=.=.=.=.p.p.J.J.p.p.p.p.p.p.p.p.=./ / =.p.p./ / =.=.=./ / / / =.p.J.J.p./ L y y L / / / =.p.p.J.J.p.p.p.p.p.p.p.p.p.p.=.=.L L L L / / / =.=.p.p.p.",
"=.=.=./ / =.p.J.p./ y L / =.p.p.=.=.L y 3 = 3 y / / / / =./ L y L / =.p.p.=.=.p.!.J.p.p.p.p./ L L =.=.=./ / =.=.=./ L y / p.p.J.J.p.p.=.=.=.p.=.=./ =.=.=./ / =.p.=./ L L y 3 3 L p.=.L L =.p.p.p.=.=.=./ L / =.p.J.J.p.p.p.p.p.=.p.p.J.!.!.p.=.=.!.!.p./ L / =.=.=.=./ =.p.p.p.p.J.!.!.J.J.[.[.J.=.=.p.p.J.J.p.=.=.=.p.J.J.p.p.=./ L L L L =.p.J.J.p.=.=.=.=.p.p.=.=.J.!.p.=./ L L / =.p.p.p.p.p.p.p.p.p.p.=.=.=.=.p.p.=./ / =.p.p.p.=.=.=.p.p.!.!.p.L 3 = = y =.=.p.p.p.p.p.p.p.J.J.p.p.p.p.p.p.p.=.=.=.=./ / / =.=.=.p.p.p.p.",
"=.=.=./ =.=.p.J.p./ y L / =.=.p.p.=./ y 3 = = y L / / / =.=.L L L =.p.p.p.=./ p.!.!.p.p.p.p.p./ / =.=./ / =.p.=.=./ L L / p.J.J.J.p.=.=.p.p.p.p.=.=.=./ L L L =.p.=.L L L y 3 y / p.p.L L =.p.p.p.p.=.=.=./ =.=.p.J.J.p.p.J.J.J.p.p.p.J.J.J.=./ =.J.!.p./ / =.p.p.p./ L =.p.p.=.=.p.!.!.J.J.[.[.J.=.=.p.p.!.J.p.=./ L =.p.J.p.=./ L L y y y L p.!.!.p.=.=./ =.p.=.=.=.p.J.p./ L y L / =.p.p.p.=.=.p.p.p.p.=./ / =.p.p.p.p./ / =.p.J.J.J.p.p.p.p.J.J.=.y = = = L =.p.J.J.p.p.=.=.p.J.J.p.p.p.p.p.p.p.=.=.p.p.=./ / =.=.p.p.p.p.p.",
"=.=.=.p.p.J.!.!.p.=.L L L / / =.p.p.=./ L y y y L / =.=.=.=./ =.=.p.p.p.=.=.=.p.J.p.=./ =.=.p.p.=.L L / =.=.=./ / L L / =.p.p.J.J.p.p.p.p.p.J.p.=./ L L y y L =.=./ L y L y y L =.p.p./ / =.=.p.p.p.p.p.p.p.=.=.p.J.!.!.J.J.p.p.p.p.p.p.p.p.=./ =.p.J.p.=.=.=.=.p.p./ L =.J.p.=./ p.J.J.p.J.!.!.J.p.=.=.p.J.J.=./ / / =.=.=.L L L =./ L L L / p.!.!.J.p.=.=.=.=.=.=.=.=.=./ L L L / =.p.p.p.p.=.=.p.J.J.p.p.=.=.=.p.J.J.p.=.=.p.p.J.!.J.p.p.p.=.p.=.L 3 = y L / p.p.p.p.J.J.p.=.p.J.J.p.p.J.J.p.p.p.p.p.p.p.p.=.=.=.p.p.p.p.p.=.",
"=.=.=.p.J.!.!.J.p./ L L L L L / p.J.J.p.=./ L L L =.p.=.=./ =.p.p.J.p.=./ =.=.p.p.=.L y L / p.p.=.L L =.p.=./ L L L / =.=.=.p.J.J.p.p.p.p.J.J.p.=.L y y y y L / / L L L L L L / =.=.=.=.=.=.=.p.p.p.J.J.J.J.p.p.p.J.!.!.!.p.p.p.J.p.=./ =.=.=.=.=.p.p.p.p.=./ / =.=./ L =.!.J.p./ =.p.p.p.p.J.J.J.p.p.=.p.p.p.=./ =.=.=./ L y y / p.p.=./ / =.p.!.!.!.J.p.=.=./ =.p.=./ L L L L / =.p.J.J.J.p.=.=.p.J.J.p.p.p.=.p.p.J.!.J.p.=.p.p.J.J.J.p.p.=./ / L y = 3 L =.p.p.p.=.p.J.J.p.=.p.p.J.J.J.J.J.p.=.p.J.J.J.p.p.=.=.p.p.p.p.=.=./ ",
"=.=.=.=.p.p.p.=./ L L L / =.=.=.p.J.J.p.=.=.=./ / =.p.p.=./ =.=.p.p.p.=./ / / =.p.=.L y L =.p.p.=.L L =.p.p.=./ L / =.p.=.=.=.=.p.p.p.p.p.J.J.p.=.L L L L L L / / L L L / / =.p.p.=.=./ / =.=.=.p.p.J.J.J.J.J.J.J.J.J.!.J.p.p.p.p.p.=./ / =.=.=.=.p.p.p.p.=.L / =.=./ / =.J.J.p.p.p.p.=.=.=.=.p.p.p.p.=.p.p.p.=.=.=.p.=./ L / =.p.J.p.=.=.=.p.J.!.!.!.J.p.p.=./ =.=.=./ L L L / =.p.J.J.!.J.p.p.=.=.p.p.p.p.p.p.p.p.p.J.J.p.p.p.p.J.J.J.p.=.=.=./ L L y L =.p.J.J.p.=.=.p.J.p.p.p.p.p.J.J.!.!.J.=.p.J.J.J.p.p.p.p.p.p.p.=.=.=.=.",
"J.=./ L / / / L y 3 y L p.p.p.p.p.p.p.=.=.p.p.=./ =.p.p.=.=.=./ / / / / / L y L =./ L L =.p.p.=.=.L / p.J.p.p.=.=.=.p.p.p.=./ / / =.p.p.p.J.!.J.=./ =.=.=./ / / / / L / =.p.J.J.p.=./ L L =.=.=.p.p.p.p.p.J.!.!.J.J.J.J.J.p.p.p.p.=.=./ =.=.=.=.=.=.p.p.p./ L L =.p.=.=.=.p.p.J.J.J.p.=./ L L / p.p.p.p.p.J.J.p.=.p.p.=.L L p.!.!.J.p.=.=.p.J.J.J.J.J.J.J.J.p.=.=.=.=.=./ =.=.=.=.p.J.J.!.J.J.p.=./ / =.p.p.J.J.p.p.p.p.J.J.p.p.=.p.J.p.=.=.=.p.=./ L / / p.p.J.J.p.=.=.p.J.p.p.p.p.p.J.!.!.!.J.=.=.p.J.p.p.p.J.J.!.J.p.=.=.=.=.",
"J.p./ L L L L y 3 3 y L p.p.p.p.p.p.=./ =.p.p.p.=.=.p.=.=.=./ / L L L / L y y y L / L / =.p.p.=.=.=.=.p.J.p.=.=.=.p.p.p.p.=.=.L L / =.p.p.J.!.J.p.=.p.p.p.=./ =.=.=./ =.=.p.J.J.p.=./ L L =.=.=.p.p.p.p.p.p.J.J.p.p.p.p.p.p.p.=.=./ L L / =.=.p.p.p.p.p.p.=./ =.p.p.=.=.=.=.p.J.J.J.p.p./ L y L =.p.p.p.p.p.p.p.p.p.p.=.L / p.!.!.p.p.p.p.J.J.J.p.p.p.p.J.J.p.=./ / / =.=.p.p.=.=.=.p.J.J.J.J.p.=.L L =.p.J.J.J.p.p.p.p.J.J.p.p.=.p.p.p.=.=.=.p.=./ / / =.p.p.J.J.p./ / =.p.p.p.p.p.p.p.J.J.J.J.p.p.p.J.p.p.p.J.J.!.!.p.p.=.=.=.",
"J.J.=.L L L L L L L / / =.=.=.=.p.p.=.L L / p.p.p.p.=.=.=.=./ / L L L L L L L L L L L / =.=.p.p.p.p.p.p.p.=.=.=.p.p.p.=.=.=.=.=.L L L =.p.J.J.p.p.p.p.p.p./ =.p.p.=.=.=.p.J.p.p.=.=.=.=.=.=.=.=.p.p.p.p.p.p.=.=.=./ =.=.p.p.p.=.L L y L L / p.J.J.p.=.=.p.p.p.p.p.=.=.=.=./ =.p.p.p.p.p.p./ y y =.p.J.p.p.p.p.p.p.p.=./ / =.=.=./ / =.p.p.J.p.p.p.p.p.p.J.J.p.=./ L L =.p.p.p.=./ / =.p.p.J.p.=.=./ / p.!.!.J.p.p.p.p.J.J.p.p.p.p.p.p.=./ / =.p.=.=./ / / =.p.p.p.p./ / / =.p.p.p.p.p.=.=.p.p.p.J.J.J.J.J.J.p.p.J.J.!.J.p.p.=.=.",
"J.p.=.L L L L L / / / / L L / =.p.p.=.L L L =.p.p.p.=.=.=./ / / L L L L L / / L y y L / =.=.p.p.p.p.p.p.p.=./ =.p.p.=.=.=.=.=.=./ L L / p.p.p.p.p.p.p.p.p.=.=.p.J.p.=.=.p.p.p.=.=.=.=.=.=.=.=.p.p.p.p.p.p.=./ L L L / =.p.p.=./ L y y y L / p.!.!.p.=.=.p.J.!.J.p.=.=.=.=./ / =.p.=.=.p.p.=.y y L p.p.p.p.p.p.p.p.p./ =.=.=.L y y L / p.J.J.p.p.=.=.=.p.p.p.p.=./ L / =.p.J.J.=./ L =.p.p.p.p.=.=.=.=.p.!.J.p.p.p.p.J.J.J.p.p.J.J.p.=.=./ / =.=.=.=./ L L / =.p.p.p.=./ / =.p.p.J.p.=.=./ =.p.p.J.J.J.J.J.J.J.p.p.p.J.J.p.p.=.=.",
"=.=./ L L L L L / / L y 3 y L =.p.p.p./ / p.p.p.=.=.p.=./ / / / / / / / / / / L y L / =.p.p.p.p.=.=.=.=.=.=.=.=.=.=.=.=.=./ =.=.=./ / =.p.p.=.=.p.p.p.p.p.p.p.p.p.p.=.=.p.p.=.=.=.=.=.p.p.p.p.p.p.p.=.=.p.=.L 3 3 L =.p.J.p./ L y y y L L / p.p.p.=./ =.J.J.J.J.p.p.=.=.=./ =.=.=.=.=.p.p.=.y 3 y L / =.p.J.J.J.p.p.p.=.=.=.L y L L =.J.!.!.J.p.=./ / =.=.=.p.p.p.=.=.p.p.p.p.=.=.=.=.=.p.p.p.=.=.=.=.=.=.p.J.J.J.J.J.!.J.p.p.p.J.p.p.=.=./ / / =.=./ L L L =.p.J.p.p.=.=.=.p.J.p.=.=.=.=.p.J.J.J.J.J.J.J.J.p.p.p.p.p.p.J.J.p.=.",
"/ =./ L L L L / / L y 3 = y / p.J.J.p.p.p.p.p.L L L =.=./ L L / =.=.=.=.=.=./ y y L =.p.p.p.p.=./ L L =.=.p.=.=.L L =.=.=./ =.p.p.p.p.p.=.=.=.=.p.p.p.=.p.p.p.p.=.=.=.=.=.=.=.=.=.=.p.p.p.p.p.p.=.=./ / =.=.y = = L p.J.J.p./ L L L L L / =.=.=.=.L L p.!.J.p.J.J.J.p.=.=.=.=.=.p.p.p.p.p.=.y 3 = = y / p.!.[.!.J.J.J.p.p.=./ L L =.p.!.!.!.J.p./ / / / L / p.J.!.J.p.p.p.=.=.=.p.p.p.p.p.=.=.p.=.=./ L L =.p.!.!.!.!.J.J.p.p.p.p.p.p.p.=.=./ L / =./ L L L / p.J.J.p.p.=.=.p.J.p.=./ =.p.J.J.J.J.J.J.J.J.p.p.p.p.=.=.p.J.!.J.p.",
"L L L L L y L =.=./ L y y L =.p.J.J.J.p.p.p./ L L L / / L L L / =.=.=.=.=./ / L L / p.J.J.p.p.=./ L L =.p.=./ L L L =.=.=.=.=.p.p.J.J.p.p.p.p.p.p.p.p.p.p.p.p.p.=.=.=.=.=.=.p.p.p.p.p.p.J.J.p.p.=./ / / / / y 3 y L =.p.p.p.=.=./ / =.=.=.=.=.=.=./ / p.!.!.p.J.!.!.p.=.=.=.=.p.p.p.=.=.p.=./ L 3 = y =.p.!.!.J.p.p.p.p.p.=./ L =.p.J.J.!.!.J.p.=./ / / =.=.p.J.!.!.J.p.p.=.p.p.p.J.J.J.p.=.=.=.=./ L L L =.p.J.J.J.J.p.p.p.p.p.p.J.p.p.p.=.L L / =./ L L y L =.J.!.J.p.=.=.p.p.=./ =.p.J.J.J.J.p.p.J.J.J.J.J.J.J.p.p.p.!.!.!.J.",
"/ L L L L y L p.J.p./ / / =.p.p.J.J.p.=./ L L L L L L L L L L L / =.=.=.=./ / / / =.p.J.J.p.p.=.=.=.=.p.p./ y y y L =.p.p.p.p.p.p.J.J.J.p.J.J.J.p.=.=.p.p.p.p.=./ / / / =.p.p.J.p.p.p.J.J.J.J.p.=./ / L L L L L / / / / =.p.J.p.p.p.p.p.p.p.p.=.=.=.p.J.!.J.J.J.!.!.J.p.=.=.p.J.J.=./ / =.p.p.=.L y / p.J.J.J.J.p.p.p.p.p.p./ / =.!.!.J.p.p.p.p.=.=.=.=.p.J.J.J.J.!.!.p.p.p.J.J.p.J.!.!.J.p.=.=./ L L L =.=.=.p.p.p.p.=.=.=.=.p.J.J.J.p.p.=./ L L / / / L 3 y / J.!.!.J.p.=.=.=.=.=.=.p.J.J.p.p.p.p.p.p.J.J.!.!.!.!.J.J.!.!.!.J.",
"/ L / / L L / J.J.p.=.=.=.p.p.p.p.p.=./ L L 3 L L L L L / / L L / =.=.=.=./ / =.=.p.p.p.p.p.p.p.=.=.p.p.p.L 3 y / =.p.p.p.p.p.p.p.J.J.J.p.J.J.J.p.=.p.p.p.=.=.=./ / / / / =.p.!.J.p.p.J.J.!.J.p.=.=./ L L L / =.=./ / / / =.p.J.J.J.p.J.J.J.p.=.=.p.p.p.J.J.J.J.!.!.J.p.p.=.p.p.p./ L / =.p.p.p./ L =.p.J.p.p.J.J.p.=.=.p.p.=./ p.!.!.p.p.=.=.p.p.p.p.p.p.p.p.p.p.!.J.p.p.J.!.J.p.p.J.J.p.p.=.=./ L L L / =./ =.p.p.p.=./ / / p.J.J.J.J.p.=./ L L L / / L y y =.J.!.J.p.p.=.=.=.=.=.p.p.p.p.p.p.p.p.p.p.J.!.!.!.!.!.!.!.!.!.!.J.",
"=.=.=.=.=.=.p.p.p.=.=.=.=.p.p.p.=.=.L y y y 3 3 3 y L L =.=./ L / p.p.p.=./ / =.J.p./ / =.p.p.p.p.p.p.p.=.L 3 L p.!.J.p.p.=.=.=.=.p.p.p.p.p.J.J.p.p.J.J.p./ / / / / / L L / p.!.J.p.p.p.J.!.!.J.p.=./ L L L L / =.=.=.=.=.=.=.p.J.!.J.J.J.J.J.p.p.p.p.p.p.p.J.J.J.J.J.p.p.p.=./ L L / =.p.J.p.p.=.=.=.=.=.p.p.J.J.p./ =.p.p.=.=.=.p.p.p.=.=./ =.p.p.p.p.=.=.=.=.=.p.p.=.=.p.!.J.p.=.=.=.=.=.=.=./ L y L L L / / =.p.=./ / L / =.p.J.J.J.J.p.=./ L L / =.=./ / =.J.p.=.=.=.p.p.p.p.p.=.=.=.=.=.=.=.=.p.p.J.!.!.J.J.J.J.!.!.J.J.p.",
"=.=.=.p.p.J.J.p.=.=.=.=.=.=.p.p.=.L y 3 = 3 L 3 3 y L / =.=./ L =.p.J.J.=./ / =.J.p.L L =.p.p.p.p.p.p.p.=.L y / !.[.!.p.p.=.=.=.=.=.=.=.=.p.p.p.J.J.J.J.=./ L / =.=./ L L / p.!.J.p.p.p.p.J.!.!.p.=./ L L L L / =.=.=.=.=./ L =.!.!.J.J.J.J.J.p.p.p.p.p.p.p.J.J.J.J.p.p.p.p./ y y y / p.J.J.p.p.p.p.=./ =.p.p.J.J.p./ =.p.p.p.=.=.=.=.=.=./ / =.p.p.p.p.=.=./ / =.=.=.=.=.p.J.p.=./ / / / =.=.=./ L y y L L / / =.=.=./ / L / =.=.p.J.!.J.J.p.=./ L / =.=.=.=.p.p.p./ / =.p.p.p.p.p.=./ / =.p.p.=.=.p.p.p.J.J.J.p.p.p.J.J.J.p.=.",
"/ / / =.p.J.J.p.=.=.=./ / =.p.p.=.L 3 = = = 3 L L L L L =.=.=./ =.p.J.J.=.=.=.=.=./ y L =.J.p.=./ / =.=.=.=./ =.p.J.p.=.p.p.p.=.=./ / / =.=.p.J.J.J.p.=.=.=.=.=.p.p.=.=./ =.p.J.p.=.=.J.J.J.!.!.!.p./ L L L =.p.p.=.=.=.=.L y =.!.[.!.p.p.p.p.=.=.p.p.p.p.p.p.p.p.p.p.=.=.p.=./ L L / p.!.!.J.p.p.p.p.p.p.J.J.p.p.=.=.=.p.p.p.p.=.=.=.=.=.=.=.=.p.p.p.p.p.p.p.=.=.=.=.=.=.=.p.=.L L L / / =.p.p.=./ L L L / =.=.=.=.=.=.=./ / =.p.p.!.!.!.J.p.=./ / =.p.p./ / / =.=.=.=.p.p.J.p.=.=./ / =.p.!.J.p.=.=.=.=.=.p.J.p.p.p.p.p.p.=.=.",
"L L L / p.p.p.p.=.=.=./ L / J.J.=.L 3 = = = 3 L L L L L =.=.=.p.p.p.p.p.=.=.=./ L y y L p.J.p./ L L L =.p.p.p.p.=.=./ / p.J.p.=./ / L / / =.p.J.J.J.=./ / =.p.p.p.p.p.p.=.p.J.J.=.L / J.!.J.J.[.[.J.=.L L / p.J.J.=.=.=.=.y y / !.[.!.p.=./ / =.=.=.p.p.p.p.p.p.p.=./ / =.p.p.=.=./ / p.[.[.J.p.=.=.p.J.J.J.J.p.=.=.p.p.p.p.p.=.=./ / / / =.p.p.p.p.p.p.J.!.J.p.p.=.=.=.=.=./ L L L L / =.=.p.p.p.=./ / / / =.=.=./ p.p.p.=.=.=.p.J.!.!.!.p.=./ / =.=.p.=.L L L / =.p.p.J.J.J.p.=.L L / =.!.[.!.p.p.=.=.=./ =.J.J.p.=.=.=.=.=.=.",
"L L / =.p.p.p.p.=.=.=./ L / p.p.L 3 3 y y y L L L L L / =.p.p.p.p.p.=.=.=.=.=.=.L L L / =.=./ L L L L / =.p.J.p.=./ / =.=.=.=./ / / =.=.=.=.p.p.J.J.p.=.=.p.p.J.p.p.p.p.p.p.J.J./ y L p.J.J.J.!.!.J.=./ / =.p.J.p.p.=.p.=.L y L p.J.p.p.=./ / =.=.=.p.p.J.J.J.p.=./ L L =.p.p.p.=./ L p.!.[.J.p.=.=.p.J.J.p.p.=.=.=.p.p.p.p.p.=.=./ =.=.p.=.p.p.J.J.p.p.J.!.!.J.p.p.p.=./ / / / / / / =.=.p.p.J.p.p.=.=.=./ =.=.=.=.p.p.p.=.=.=.p.J.!.!.J.p.=.=.p.p.p.=./ / / / =.p.p.p.p.p.p.p.=./ / =.p.!.!.!.p.=.p.p.=.=.p.J.J.=.=.=.=.p.p.p.",
"/ / =.p.p.p.p.p.p.=.=./ L L =.=.y = 3 / / L L 3 3 y L / =.p.p.J.p.=.=.=.=.=.=.=./ / =.=./ L L L / / L L L =.J.p.=./ =.=.L y y L / =.p.p.p.p.=.p.J.J.p.p.p.p.p.p.p.p.=.=.p.p.J.J./ y y / =.J.!.!.J.=./ / =.=.p.p.p.p.p.J.p./ y L / =.=.=.=.=.=.=.=.=.p.J.!.!.J.p./ L L L / p.p.p.=./ L =.!.!.J.p.=./ p.p.p.p.=.=.=.=.=.=.p.p.=./ / =.=.p.p.p.=.p.!.J.p.p.J.!.!.!.J.J.p.=./ / =.p.p.p.p.=.p.p.J.J.J.p.=.=.=./ / / p.p.p.p.p.=.=.=.p.J.!.!.p.=.=.p.J.!.p.L L / =.p.p.p.=.=.=.p.p.p.p.=.=.J.!.J.J.p.=.=.p.p.p.p.p.!.J.p.=.=.=.p.!.J.",
"/ / =.p.p.p.p.p.=.=.=./ y L / / 3 = 3 / / L y 3 3 y y L / =.p.p.p.p.=.=.=.=.=.=.=.=.p.=.L y L L L L L L L =.J.p./ L =.=.L 3 3 y / p.J.J.J.p.=.=.p.J.J.p.p.p.p.p.p.p.=.=.p.p.p.p./ y y L =.p.J.p.=./ L / =.=.=.=.p.p.p.J.J.=.L L L / / =.p.p.p.=.=.=.p.J.!.J.p.p.=./ L L =.p.p.p.=./ L =.p.J.p.p.=./ =.p.p.=./ =.p.=.=.=.p.p.=./ L L / p.p.=.=.p.J.J.p.p.J.!.!.!.!.J.p.=./ / =.p.J.J.p.p.=.=.p.p.p.p.p.=./ / / =.p.p.p.p.p.p.p.p.p.J.!.J.p.=.=.p.J.!.p.L L =.p.p.p.p.=.=.=.p.p.p.p.p.p.J.!.J.p.=.=.=.p.p.p.p.p.J.J.p.=./ / p.!.J.",
"=./ =.p.p.J.p.p.=.p.p./ y y / / L 3 y L y 3 = 3 y 3 3 3 y L =.p.p.p.=.=.=.=.J.J.J.J.p.=.L L L L L L y L L p.!.p.L y / =.L y y L / p.J.!.J.p.=.=.p.J.J.p.p.=.=.p.p.p.p.p.J.p.=./ L L L =.=.p.p.=./ L L L =.=.p.p.p.p.p.J.J.p.=./ / / / =.p.J.p.=.=.=.p.p.p.p.=.=.p.p.p.=.=.p.p.p.p.=./ / p.p.p.=./ / =.p.p.L L / p.p.=.=.p.p.=.=.L 3 y L L / =.p.J.J.p.p.J.!.!.!.J.p.p.=.=.=./ =.p.p.p.p./ L L =.p.p.p./ L L =.=.p.p.p.J.J.p.p.J.J.p.p.p.p.p.p.p.p.p.p./ =.p.p.p.p.p.=.=.p.p.p.p.p.J.J.J.p.p.=.=./ =.p.p.p.p.=.p.p.p.p./ L / J.J.",
"=./ =.p.p.J.J.p.=.p.=.L y y / =.L y y y y 3 = 3 y 3 = = 3 L / p.p.p.=.=./ =.J.!.!.J.p./ / L L L y y y y / p.!.p.y y / =./ L L L / p.!.!.!.J.p.p.p.p.J.p.p.=.=.p.p.p.p.p.J.p.=.L L L / p.p.p.=.=./ L L L =.=.p.p.p.p.p.J.J.p.p.=.=./ / =.J.!.J.=.=.p.p.p.p.=.=.=.p.J.p.p.p.p.p.p.p.=./ =.=.=.=.=./ L =.p.=.L y / p.p.=.p.p.p.p.=.y = = 3 L L =.p.p.J.J.J.!.!.!.J.p.p.=.=.=.=.=.=.=.p.p.p.L 3 y / p.p.p./ y L =.p.p.p.p.J.J.J.J.!.J.p.=.=.p.p.p.p.p.p.=.=.=.p.p.p.p.p.=.p.p.J.p.p.p.J.p.p.p.=.=.=.=.=.p.p.p.=.=.=.p.J.p./ L / p.J.",
"/ L =.p.J.!.J.p.=.=.=.L y L =.p.L y y y y y 3 3 3 y L L y L =.p.p.p.=./ / =.p.!.!.J.p.=.=./ L L y y y y / p.!.p.y y L =.=.=./ L L p.!.!.!.J.p.p.p.J.J.J.p.p.p.p.p.=./ =.p.p.=.L / =.p.J.J.p.=.=.=.=.=.=.=.p.=.=.p.p.J.J.J.J.J.p.p.p.=.=.p.J.p.=.=.p.p.p.=.=.=.p.p.p.p.p.p.J.J.J.p.p.=.=.=.p.p.p./ L / / / L L / =.p.p.p.J.J.p.=.L y y L / / / p.J.!.!.!.J.J.p.p.=.=.=.=.=.p.p.=.=.=.p.p./ y L =.p.p.p./ L / p.J.p.p.p.J.!.J.!.!.J.p.=.=.=.p.J.J.p.p.p.=.=.p.p.J.J.p.p.p.J.!.J.p.p.=.=.=.=.=.=.=.p.p.=.=./ / =.p.J.J.J.=./ =.p.J.",
"L L =.p.J.!.J.p.=.=./ L L L p.=.L 3 3 y L L L y 3 L =.=./ / =.p.p.=.=.L y =.=.J.J.p.p.=.=.=./ L y y y L / p.!.p.L y L =.p.p.=.L L =.J.!.!.J.p.p.J.J.J.J.J.J.J.J.p./ L / p.p.=./ =.p.p.J.J.p.=.=.=.p.p.p.p.p.=./ =.p.J.J.J.J.J.p.p.p.p.p.p.p.=./ =.p.p.p.=.p.p.p.p.p.p.p.J.J.J.p.p.p.=.=.=.p.J.p.=.L L L L L L =.=.p.p.p.J.J.p.=./ L L =.=.=.=.p.J.!.!.J.J.p.p.=.=./ / =.=.p.J.p.=.=.p.p.=./ / =.p.p.p.=./ =.J.!.J.p.p.J.J.!.!.!.J.p.=.=.=.p.J.J.J.p.p.=.=.p.p.J.!.J.p.J.!.!.J.p.=./ / =.=.=.=.p.J.p.=./ L L =.J.!.!.J.J.p.p.p.p.",
"/ =.p.p.!.!.!.p.=.L L L L / / L 3 O = y L =.=.L L L p.p.=.=.=.=.=.=.=./ / =.=.=.p.p.=.=./ / / / L L L L L p.!.p.L L / p.J.J.=.L L p.J.J.J.J.J.!.!.!.J.J.J.!.!.J.p./ L L p.p.p.=.p.p.p.p.p.p.p.=.=.p.p.p.p.p.=./ =.J.!.J.J.p.p.=./ / =.=.p.p.=.=.=.p.p.p.=.=.p.p.=.=.p.p.p.J.p.=.=.=.=.=.=.p.J.J.=.L y y y L / =.p.p.=.=.p.J.J.p.=.=./ =.=.=.p.p.p.p.p.=.=.=.=.=.=.=./ =.=.p.p.p.=.=.p.p.p.=.=.=.=.p.p.p.p.p.J.J.J.J.J.J.J.J.J.J.J.p.=.=.=.p.J.!.J.p.p.=.=.p.J.!.!.!.J.J.!.!.J.p.=.L L =.p.p.p.J.J.p.=./ L / =.J.!.!.!.J.J.p.p.p.",
"p.p.J.J.!.!.!.p.=.y 3 y / L y 3 O   O y / p.p.p./ =.p.p.p.=./ L / =.=.=.=.=.=.=./ / =.=.L L / =.=./ L L L =.J.p./ L =.p.p.p.=./ / p.J.J.p.J.!.!.!.!.J.p.J.!.!.!.J.=.y L =.p.p.p.p.p.p.=.=.=.p.=./ =.p.p.p.p.=./ =.J.!.!.J.p./ y 3 y L =.p.p.p.=.=.=.=.=.=.=.p.=.=.=.=.p.p.p.=./ L L L / =.p.J.J.p./ L 3 y / =.p.J.p./ =.=.p.J.!.J.p.=./ / p.J.p.=.=.L L L L / =.=.=.=./ / =.p.p.p.p.=.=.p.p.p./ L / =.p.J.J.J.J.J.J.J.p.p.p.p.p.p.p.=.=.p.p.J.J.J.p.p.=.=.p.!.!.!.!.!.J.p.p.p.=.=./ / =.p.J.!.J.p.p.=.=.=.=.p.p.J.!.!.J.J.J.p.J.",
"p.J.J.!.!.!.J.p.=.y 3 y L L y = = = 3 y / p.p.p.p.p.p.p.p.p./ L / =.=.=.=.=.=./ y L =.=.L L / p.p.=./ L L =.J.p.=./ =.p.p.p.=.=.=.p.J.J.J.J.!.!.!.!.!.J.J.J.J.!.J.=.L L =.p.p.J.J.J.p.=.=.=.=.=.=.p.p.J.p.p.=./ =.p.p.p.p.=.L y 3 y L =.p.p.p.=.=./ / / / / =.=./ / =.=.=.=.=./ L L L / =.p.p.p.p.=./ y L =.p.p.p.=.=.=.p.p.J.!.J.p.=./ / p.J.=.L y y y L L / =.=.p.=./ L =.p.p.p.p./ / =.p.p./ / =.=.J.!.!.p.p.p.p.p.p.p.p.p.p.p.=.=.=.=.p.J.J.p.p.=.=.p.J.!.!.!.J.J.p.=.=.=.=.=.=.=.=.p.!.!.!.p.p.p.=.=.=.p.p.J.!.!.J.J.p.J.J.",
"p.p.J.!.J.p.p.p.=.L y y y y y y L L L L / =.p.p.J.p.p.p.p.p.=.=.=.=.=.=.=.=./ y 3 y =.=./ L / p.p.=.=.L L =.J.J.=.=.=.=.=.=.=.=.=.p.J.J.!.J.J.J.!.!.!.!.J.p.p.J.p.=.L L / =.J.!.[.!.J.p.=.=.=.=.p.p.J.J.p.p.=./ / =.=./ L L L L / / / / =.p.p.=.=.L L L L L / / / / =.=.=./ / =.=./ L / =.=.=.=.p.J.p.=./ =.=.=.=.=.=.p.J.J.J.J.p.p.=.=.=.J.J./ = = 3 L / =.=.=.=.=.=./ / =.p.p.p.=./ L =.p.p.=.=.=.p.J.!.J.p.=.=.=.p.p.p.p.p.p.p.=.=.=.=.p.p.J.p.=.=.p.p.!.!.!.p.p.=.=./ / =.p.J.p.p.p.p.J.!.!.J.J.p.p.=./ p.p.[.[.[.J.p.p.p.J.",
"p.p.p.J.p.=.=.=.=./ L y y y L L =.p.=./ / =.=.p.J.J.p.=.p.p.p.p.p.p.p.=./ / L y 3 L =.=./ L =.p.p.=.=./ / =.p.p.=./ / / / / =.=.=.p.p.J.!.J.p.p.p.J.!.!.J.p.p.p.p.=.L L L =.J.[.[.!.!.p.=./ / =.p.J.J.J.p.=.=./ / / L L y L L =.p.p.=./ =.p.p.p.=.L y y y L / / / / =.=.=./ / =.=.=./ / =./ / =.J.!.J.p.=.=.=.=.=.=.p.p.J.!.J.p.p.=.=.=.=.p.p.L = = y L =.p.p.=.=.=.=.=.=.=.p.=.=.=./ / / =.p.p.p.p.p.J.!.p.=./ / / p.p.p.p.p.p.=.=.=.=.=.p.J.J.p.=.p.p.J.!.!.J.p.=./ / L / p.J.!.J.p.p.p.p.J.J.!.J.J.p.=./ p.p.[.[.[.J.p.p.J.!.",
"p.p.p.p.p.p.p.=./ L L L L / =.=.p.p.p.p.p.p.p.p.p.p.=.=.p.p.=.=.p.J.p.L y y L L L =.p.p./ L =.p.p.=./ =.=.=.=.L y y L L L y L / =.p.p.J.!.J.p.p.=.=.p.p.p.p.=.=.=./ L L L =.J.[.[.!.!.!.p.L y / p.p.p.p.=.=./ / / / L y y L / =.p.p.=.=.=.p.p.p.=./ L L / =.=.=./ / =.=.=.=./ / / =.p.p.=./ / =.J.[.J.=./ p.p.=./ =.=.p.J.J.J.p.=./ L L / =.=.L y y L / =.p.=./ =.p.p.p.p.p.=.=.=.=.=./ =.=.=.=.=.=.=.p.p.=.L L / =.p.p.p.J.p.=./ / / =.p.J.!.!.p.=.p.J.!.!.J.p.=.=.=./ / / p.J.J.p.p.=.=.p.p.J.J.J.J.p.p.p.p.p.J.J.J.J.J.J.!.!.",
"J.p.=.=.p.J.p.=./ L L / =.p.J.J.p.=.p.J.J.p.p.p.=.=.=.=.p.p.=./ p.J.p.L y y L =.p.p.p.p./ / =.J.p./ L =.p.=.L 3 = = y L y y y / =.p.p.J.J.J.p.=.L L / =.=.=.=.=.=.=./ L L / p.!.!.!.!.!.p.y = y =.=.=.=./ L / / =.=./ L y L =.p.p.p.=.=.=.p.p.p.=.=.=.=.=.p.p.p.=.=.=.=.=.=./ L L p.J.p.=.=.=.=.!.[.p.L / p.J.=./ / =.p.p.J.p.p.=.L L y L L L / =.=.=.=.p.p.=./ =.p.J.!.J.p./ / =.=.=.=.=.p.=.=./ =.=.=.=./ L L =.p.p.p.J.J.p.=./ L L =.p.!.!.!.J.p.p.!.!.J.p.=./ =.=.=.=.=.p.J.p.p.=.=.=.p.p.p.p.p.p.p.p.p.p.p.p.p.p.J.[.[.!.J.",
"J.p.=.=.p.!.J.=./ / / =.=.p.J.J.=./ =.p.p.p.p.=.=.=.=.=.p.p.=./ =.p.=.y y y L =.J.!.J.p.=.=.=.p.=.L L =.p./ y 3 3 3 y L y y L =.p.p.p.J.J.p.=.L y y L =.p.p.p.=.=.=.=./ / / =.p.J.!.!.J.=.3 O 3 L / =.=.L L / p.p.=.=.L L / =.p.p.p.p.p.p.p.p.p.p.p.p.p.p.p.p.p.p.p.=./ L L L L / p.J.p.=.=.=.=.J.!.p.=.=.p.p.=.=.=.=.p.p.p.p.p./ L L / / / / =.=.=.=.p.p.J.p.p.p.p.p.J.!.p./ =.p.p.=.=.=.p.p.=.=.=.=.=.=.=.L L =.p.J.J.J.J.p.=.=./ =.=.p.J.!.!.!.J.J.J.p.=.L L / =.p.p.p.=.p.J.J.=.=.=.=.p.p.p.p.p.p.p.p.p.p.p.p.p.p.J.!.J.p.p.",
"p.p.p.=.p.!.!.p.p.=.=.=.=.=.p.p.=.L L / =.p.p.=.=.=.=.=.p.p.=./ / / L y y L / p.!.!.J.p.p.=.=.=./ y L =.p.L 3 3 y L y y L L / p.p.p.p.J.p.=.L 3 = 3 L =.p.p.p.=.=.=.p.=.=./ L / p.J.J.p.L = O = y L =.=.L L =.p.J.p.=./ / =.p.p.p.p.p.p.p.p.p.p.p.p.p.p.p.=.=.=.p.p.=.L y 3 y L =.p.p.p.p.=.=.=.p.J.J.p.p.=.=.=.p.p.p.p.p.p.p.=./ L / p.p.p.=.=.=.=.p.p.!.!.!.J.p.=.=.p.J.p./ =.p.J.=./ =.p.p.p.p.=.=.p.p.=./ / =.p.J.!.J.J.p.p.=.p.p.p.p.p.!.!.!.J.J.p.=.L 3 y =.p.J.J.p.p.p.J.p.=.=.=.=.p.p.p.p.p.p.J.J.p.p.p.p.p.p.J.J.p.p.p.",
"p.p.p.p.p.p.J.J.J.p.p.=.=.=.p.p./ L / =.=.p.p.=.=.=./ =.=.p.=./ L L L L L / =.p.J.J.p.p.=.=.=.=.L y L =.p./ y L / / y y L / =.p.p.p.p.p.p.=.y = = 3 L =.p.p.p./ / =.p.p.=./ / / p.p.p.p./ 3 = = y L =.=.L L =.p.J.p.p.=./ =.p.p.p.p.p.p.p.J.J.p.p.p.=.p.p.=.=.=.p.J.=.L y y L / =.p.p.p.p.=.=.=.p.p.J.J.p.=.=.p.p.J.J.J.p.p.p.p.=.=.=.p.J.p.p.p.p.p.p.J.!.!.!.J.p./ / p.J.p.=.=.p.p.p.=.=.=.p.p.p.p.p.p.p.p.=.=.p.p.J.J.J.p.p.p.p.J.J.p.p.=.p.p.p.p.p.p.=.L y L =.p.J.J.p.p.p.p.p.=.=.=.=.p.p.p.=.p.J.!.J.p.p.=.=.p.p.p.p.p.=.=.",
"=.p.p.p.=./ =.J.!.J.p.=.p.p.p.=.=.=.=.p.p.p.=.=.=./ L / =.p.=.L L L L / =.=.p.p.p.p.=.=./ L / =./ L L =.p.=.=.=.=.=.y 3 L / =.=.=.p.p.p.p.=.L y 3 3 y L / =./ L y / p.p./ / =.p.p.p.J.J.p./ L L L L / =.=.=.=.=.p.p.p.p.=.=.p.p.p.p.p.p.p.J.J.p.p.=./ =.=.=.p.p.p.p.=./ =.=.p.=.=.p.J.p.p.=.=.=.p.p.J.J.p.=.=.p.p.J.!.!.J.p.J.J.p.p.p.p.p.p.p.p.=.p.!.!.!.J.p.=./ y L / p.p.=.=.=.p.p.p.=./ =.J.!.p.p.p.J.J.p.p.p.p.p.J.J.p.p.J.J.!.!.J.p.=.L y L L =.=.p.=.=.p.J.J.p.p.p.p.=.=.=.=.=.p.p.J.J.p.p.p.!.!.J.p.p.=.=.=.=.=.p.p.=.=.",
"=.p.p.p.=.L =.!.[.J.p.=.p.p.=.=.=.=.p.J.J.p.p.=.=./ L / =.=./ L L L L =.=.p.p.=.=.=.=.=.L L / =.=.L / =.p.p.p.p.p.=.L y L =.=./ / =.=.p.p.=.L y y y y L L / L y y / p.p.=.=.p.p.p.p.J.J.J.p.=.=./ / / =.p.p.p.=.p.p.p.p.p.=.=.p.p.p.p.p.p.J.p.p.=./ L / / =.p.p.p.p.=.=.p.J.J.=.=.p.p.p.=.=.=.=.p.J.J.J.p.p.=.p.p.J.!.!.J.J.J.J.J.p.p.p.p.p.p.p.=.p.!.!.J.p.=./ y 3 y / p.p.=.=./ =.p.J.=./ =.J.!.J.p.p.J.J.J.p.p.p.p.J.p.p.p.p.J.J.J.p.=.L 3 = 3 L / =.p.J.J.!.!.J.p.p.p.p.=./ / =.=.p.p.J.J.p.=.p.J.!.J.p.p.=.=./ / =.p.p.=./ ",
"p.p.p.p.=./ =.J.!.p.=.=.p.p.=.=.=.=.p.!.!.J.p.=./ / L L / / / / / / / / =.=.p.=.=.=.p.=./ L / p.p.p.=.p.p.p.J.p.p.=./ / =.=.=./ / =.p.J.J.=.L y y y y y L / L y y / p.p.=.=.p.p.p.p.J.J.J.p.p.p.p.=.=.=.=.p.p.p.J.J.J.J.p.=.=.=.p.p.p.p.p.p.=.=./ L L L L =.p.J.p.p.=.=.p.J.p.=./ / =.=./ =.=.p.p.J.J.J.J.p.p.p.p.p.J.J.J.J.J.J.J.p.p.=.p.J.J.p.p.p.J.!.J.p.=.L y 3 y / p.p.=./ / =.p.p.p.=.p.!.!.!.J.J.J.J.p.p.p.p.p.J.J.J.J.p.p.p.p.=./ L 3 3 L =.p.p.p.J.!.J.p.p.J.p.p.=.=.=.=.=.=.p.p.p.p.p.=.=.p.p.p.p.p.p.p.=.p.p.p.p.=./ ",
"p.p.p.p.=.=.p.J.J.p./ =.=.=.=.=.=.=.p.J.!.J.p.=./ / L L L L / =.=.=.=.=./ =.=.=./ =.p.p./ L =.p.J.J.J.p.p.p.J.p.=./ =.p.p.p.=./ / =.p.J.J.=.y y y L y y L / / L L / =.=.=.p.p.p.p.p.J.J.p.p.p.J.J.p.=.=.=.p.J.!.!.!.!.!.J.=.L / =.p.p.p.p.=.=.L L L L y y / p.J.p.p.=.=.p.p.=.L L L / / L / =.p.J.J.J.J.J.J.J.p.=.=.p.p.J.!.J.p.p.p.=.=.p.J.!.J.p.p.p.J.p.p.=.L y 3 L =.p.p./ / =.=.=.p.p.p.J.!.!.!.!.J.p.p.p.p.p.p.J.J.!.!.J.p./ / / L L y y y =.p.J.p.p.J.J.p.p.p.!.J.p.=.=.=.=.=.=.p.p.p.p.=.=.=.=.=.p.p.p.p.p.p.p.J.p.p.=.L ",
"=.p.p.p.p.p.p.p.p.=./ =.p.p.=.=.=./ =.p.J.J.p.=./ / / L y y L =.=.p.p.p.=.=./ / =.p.p.p.=.L =.p.J.J.J.p.p.p.J.p./ L / =.p.J.p.=.=.=.p.J.J.=.L y y L y y L / / / L L L / p.p.p.p.p.p.p.p.p.p.p.J.J.p.p.=.p.p.J.!.!.!.J.J.p./ L L =.p.p.p.=./ / / L L L L L L =.=.p.p.p.p.p.=./ L L / =.=.L / =.p.J.J.J.J.J.!.J.p.=.=.p.p.J.!.J.p.p.=.=.=.p.J.!.J.p.p.p.p.p.p.=.L y L L p.J.p./ / =.=.=.p.p.J.J.!.!.!.!.J.p.p.p.p.p.p.J.!.!.!.J.=.L / / / L L L L =.p.p.p.p.J.!.J.p.J.!.!.p.=.=.=.=.=.p.p.p.p.p.=.=.=.=.=.p.p.J.J.J.p.J.J.J.p.=.=.",
"/ =.p.p.p.p.p.p.=./ L =.p.p.p.=./ / =.=.p.p.p.=.=.=.=.L 3 = y / =.p.p.J.p.=.L / =.p.J.p.=.L / =.p.p.p.p.p.J.J.p.L L L / p.!.J.=.=.=.p.p.p.=.L y y y y y L L / / / L y L p.p.p.p.p.p.p.p.p.p.p.p.p.p.p.p.J.!.J.J.J.J.J.J.p./ L L =.p.J.J.=.L / =./ L L L / L L L =.p.p.p.=.L L L / p.J.=./ / p.p.J.J.J.J.J.J.J.p.=.=.p.p.J.!.J.p.p.=.=.=.p.J.!.J.p.p.p.p.p.p.=./ L L / p.J.p.=.=.=.p.p.p.J.J.!.!.!.!.!.J.p.p.p.p.p.p.J.!.!.!.J.=.L / =.=./ L / / =.=.=.=.p.J.!.!.J.!.!.!.p.=.=.=.=.p.p.=.p.p.p.p.=.=.=.=.p.p.p.p.p.p.p.p.J.p.p.p.",
"/ / =.p.J.p.p.=./ L L =.p.p.p.=./ / / =.=.p.p.=.=.=.=.L = = y / =.p.J.!.J.=.L / =.p.J.p.=.L / =.p.p.p.p.p.p.J.p.L y L / p.!.J.p.=.p.p.p.p.=.L L y y y y L L / =.=.L 3 L p.p.p.=.p.p.p.p.p.p.p.p.p.p.p.p.!.!.J.J.p.p.p.p.p./ y L / p.J.J.=.L / =.=.L L L / L y L =.p.J.p.=.L y L / p.J.p./ / p.p.J.p.J.J.J.!.J.p.=.=.p.p.J.!.J.p.p.=.=.=.p.J.!.J.p.p.p.p.J.p.=./ L / =.p.J.p.=.=.p.p.p.p.J.J.!.!.!.!.!.J.p.p.=.p.p.p.J.!.!.!.p.=.L / =.=./ / / =.=.=.=.=.p.J.!.!.!.!.!.!.p.=.=.=.=.p.p.=.=.p.p.p.=.=.=.=.p.p.p.p.p.p.p.p.J.p.p.p."
};
