/* XPM */
static char *wall_east[] = {
/* columns rows colors chars-per-pixel */
"256 256 242 2 ",
"   c #090705",
".  c #1B1817",
"X  c #15100B",
"o  c #231C18",
"O  c #261B0F",
"+  c #2B231C",
"@  c #292118",
"#  c #35291D",
"$  c #1C1D22",
"%  c #2C2622",
"&  c #2A2829",
"*  c #322B24",
"=  c #332D2B",
"-  c #382E24",
";  c #3B332C",
":  c #393129",
">  c #2A2B34",
",  c #3B3533",
"<  c #3A3738",
"1  c #2F3139",
"2  c #1F2125",
"3  c #45392A",
"4  c #433B34",
"5  c #493E34",
"6  c #423D3B",
"7  c #463C37",
"8  c #40301F",
"9  c #4C4235",
"0  c #4C433B",
"q  c #46413C",
"w  c #54493D",
"e  c #554839",
"r  c #5C4E3A",
"t  c #65533B",
"y  c #353945",
"u  c #2F3445",
"i  c #423F41",
"p  c #4C4643",
"a  c #4D4A4B",
"s  c #494546",
"d  c #544B44",
"f  c #594E43",
"g  c #534D4B",
"h  c #554C46",
"j  c #5D5245",
"k  c #56514C",
"l  c #5C544C",
"z  c #5B5449",
"x  c #4A4C56",
"c  c #555253",
"v  c #5B5553",
"b  c #5E5954",
"n  c #5D5A5C",
"m  c #56555B",
"M  c #514F55",
"N  c #61564C",
"B  c #64594D",
"V  c #6A5D4C",
"C  c #665845",
"Z  c #645C53",
"A  c #695E53",
"S  c #635D5A",
"D  c #655B55",
"F  c #725D46",
"G  c #6D604C",
"H  c #74634C",
"J  c #6C6254",
"K  c #66615D",
"L  c #6C635B",
"P  c #6C655A",
"I  c #726555",
"U  c #766955",
"Y  c #71665B",
"T  c #746A5D",
"R  c #7A6D5D",
"E  c #7A6B55",
"W  c #7E715D",
"Q  c #7E7056",
"!  c #5B5C65",
"~  c #4D5364",
"^  c #615E62",
"/  c #656263",
"(  c #6B6662",
")  c #6E6964",
"_  c #6D6A6B",
"`  c #66656A",
"'  c #746C63",
"]  c #796E63",
"[  c #746E6A",
"{  c #766C67",
"}  c #7C7264",
"|  c #76716C",
" . c #7C746B",
".. c #7F786E",
"X. c #767065",
"o. c #6C6C73",
"O. c #656774",
"+. c #716E71",
"@. c #757273",
"#. c #7B7672",
"$. c #7E7974",
"%. c #7D7A7B",
"&. c #76757A",
"*. c #6F7077",
"=. c #5D6069",
"-. c #3E404B",
";. c #83745E",
":. c #89755A",
">. c #877157",
",. c #827564",
"<. c #857965",
"1. c #8A7B66",
"2. c #81766A",
"3. c #847A6C",
"4. c #8A7D6C",
"5. c #847C73",
"6. c #897E73",
"7. c #837E7A",
"8. c #857B75",
"9. c #917D66",
"0. c #8D816E",
"q. c #8E8066",
"w. c #92836D",
"e. c #98876C",
"r. c #878076",
"t. c #8C8274",
"y. c #86817C",
"u. c #8C847B",
"i. c #8F887E",
"p. c #928574",
"a. c #958976",
"s. c #9A8B75",
"d. c #91867A",
"f. c #948A7C",
"g. c #9A8D7C",
"h. c #988772",
"j. c #9D917E",
"k. c #A08F77",
"l. c #A2937D",
"z. c #A6957C",
"x. c #A68D6E",
"c. c #7C7C82",
"v. c #787983",
"b. c #827F81",
"n. c #7F8086",
"m. c #858283",
"M. c #8B8682",
"N. c #8E8984",
"B. c #86858A",
"V. c #8A8789",
"C. c #8D8B8B",
"Z. c #87888E",
"A. c #948C83",
"S. c #998E82",
"D. c #938E8A",
"F. c #958C86",
"G. c #979086",
"H. c #9C9284",
"J. c #96918B",
"K. c #9C948B",
"L. c #9E988D",
"P. c #918F91",
"I. c #959392",
"U. c #9B9692",
"Y. c #9E9994",
"T. c #9D9B9A",
"R. c #989699",
"E. c #8E8E90",
"W. c #A29584",
"Q. c #A59986",
"!. c #AA9B85",
"~. c #A1978A",
"^. c #A49A8C",
"/. c #A99D8C",
"(. c #A89781",
"). c #A49C93",
"_. c #A99F92",
"`. c #A39E9A",
"'. c #A89F99",
"]. c #A09791",
"[. c #B09F88",
"{. c #ACA18E",
"}. c #ABA086",
"|. c #B2A38D",
" X c #B4A288",
".X c #A6A096",
"XX c #ABA294",
"oX c #A6A19C",
"OX c #ABA49B",
"+X c #AEA89E",
"@X c #B1A695",
"#X c #B4A996",
"$X c #B1A79A",
"%X c #B3AA9C",
"&X c #B9AD9D",
"*X c #BAAB96",
"=X c #BCB09E",
"-X c #A19FA0",
";X c #A5A3A2",
":X c #ABA6A2",
">X c #AEA9A4",
",X c #AEABA9",
"<X c #A8A7A8",
"1X c #B3ACA4",
"2X c #B8AFA2",
"3X c #B2AEAA",
"4X c #B2A9A2",
"5X c #B6B0A6",
"6X c #BBB2A5",
"7X c #B5B1AC",
"8X c #BAB4AC",
"9X c #BEB8AE",
"0X c #B6B4B1",
"qX c #BAB6B2",
"wX c #BDB9B4",
"eX c #BEBCB9",
"rX c #BBB7B8",
"tX c #9F9EA0",
"yX c #C1B29E",
"uX c #C1B5A5",
"iX c #C0B7AB",
"pX c #C2BAAD",
"aX c #C6BBAA",
"sX c #C2BCB4",
"dX c #C8BFB3",
"fX c #C2BEB9",
"gX c #C0B7B0",
"hX c #C6C0B6",
"jX c #CAC2B5",
"kX c #C5C1BC",
"lX c #CAC4BC",
"zX c #CDC8BE",
"xX c #D1C9BD",
"cX c #CCC2AE",
"vX c #C6C4C0",
"bX c #CAC6C1",
"nX c #CDC9C3",
"mX c #CECBCA",
"MX c #D1CCC4",
"NX c #D3CEC8",
"BX c #D6D2CA",
"VX c #BFBFBD",
/* pixels */
"K.u.^.].+X8XsX7X3XeX7X;XO.O.D..XA.^..X.XY.>X`.oXoX1X+X1X1X1X>X>X3X8X1XK.+X+X%X$X%XH..X1X+X%X%X1X$X^.+X5X2X%X.X]..XoX].+X].V.].].].K.u.1X^.%X1X+X+XK.+X0X1X8X1X>X+XF.H.K.K.].1XY.].].+XJ.N.V.D.3X>XA. .3._.U.].U.+X>XN.oX1X+Xy.J.].2X>X7.].+XK.t.].>XoXY.].V.#.A.u.H.+X+X8X>XK..X^.H._.^.$X8XhX.X1X7.l 5XsX>X>X+XK.>X8X7XwX0X3XoX].H._.+XK.+X1X_././.%X2XsXfX3X].+X .l ,.$XwX3X`.A.] t.%X&XQ.W.5X1X>XwX>X].^..XkX0X^.Q./.@X%XwXwX7XkX>XoX3X3X0X0XwXwX7X7X8X8X8X+X.X].].W.H._.~.8X1XK.f.+XA.A.0XD.+XD.+X>Xu..XH.g.W.^.^.^..X.X@X%X",
"Y.`.oX].].1X3X0X7XwX7XI.O.%. .$X+X^..X_.].+XA.].1X7XA.+X0X1X1X`.`.8X].+X8X+X^.%X%X%XH.H.%X2X%X2X$X$X].1X5X%XK.H.%X+X>XA.H.K.^..X.X]. .K.].1X+XA.A.+X].].K.1X1X`.].^._.+X+X].[ K.].^..XK.].K.].oX1XK.K.f.F.sXY.[ U.7XoXK.Y.+X$.].sX8X[ a $.J.( u.f.A.K.A.A.D.A.A.A.H.+X+X+XA.A..X1X+Xu.+X].K.5X.X+X6.D 5XnX7XN.u.].8X1X7X7X1X7X1X1X6.} H.H.%X8X+X+X.X%X5XsXsXfXK r 1.5XsX3X0XwXoX[ K H.^.W.<.j.@X5X>XsXsX_.{..XwX5XQ.@X#X^./.wX0X3XwX>X`.0X7X>X7XwX8X3X8X0X3X8X>XK..XK.f.t.@XH.%XsX~.f.^.K.A.].+XU.U.+XN.H..XK..XW.^.^.f././.W.!.",
"+XY.].+X8X1XY.0X0X1X3XJ.U.].1X7X0X`.6.t.+X1X1XD.8XoXK.].8X0X8XT.V.1X1X8X7X+X.X%X^.^._..X].2X%X%X%X+X%X+X%X+X1X+XA.^.K.^.K.t.~..X.X.X1X_.K..XK.].u.].~.A.^.+X].].oX8X+X+X+XoX6.H.%X$X%X%X]._.^.A.].].+XK.+X1X>XY.6.].A.oX>X].J.+XlX+X6 [ #.u.u.u.d.6.^.+XK.].K.6.u.2.H.A.u.^.1X>X1X+XA.f.] t.%X1XK.u.[ 9XlXsX+XN.].1X>X7X7X7X+X%XsX].A.H.Q._.1X8X].1X%X%XfXwX].l U uXsX8X3X0X7XK.A..XH.6.,.4.&X@X#X5X~.1X5X~..X8X.X#X/.W./.^.sX3X3X1X7X7XwX0X3X0XwX0X3X7X8X0X0X7X+X+X>XU. ..X8X1X.XH.F.H.K.].6.u.H.].+XK.A.+X^.H.d.f.#X~.W.^./.g.",
"$XK.^.+X8X].K.5XsX`.A.K.u.K F..X.XL.u.d.].+X+XK.A.6.5X1X].>X8XD.C.1XiX+X>X1X.X.X_.8X].%X~..X%X+X1X5X+X1X8X1X.XA.K.+X>X+X+XA.^.@X_.%X5X$X.X].K..X+X1XA.A..X.X].>X>X1X>X>X+X`.].1X8X+X%X2X1X.XK.A..XK.K.K.G.].3XoXK.H.u.].A.+X1XK.jX].oX$.#.oX].].].U.].A.3.] f.( K 2.6.6.^..X1X+X$Xu.6.] A.t.f.H.1XL.K +X1XpXhXK.K.1X>X>X].8X+X+XsXpXsXK.t.W.1XsX%X8X1X+XwX0XsXK.] sXwX7X7X>X7X>X7X1X+X+X_._.%X^.@X2X1X+XW.2XH.g.@X.XQ.W.@XiX>X].1XK.+X7X8X5X8X3X3X3X3X1X8XsX7X7X0X>X>XoX^.1X5X5Xf.g.g.f.A.H.K.] t.T t.+X^.H.W.g.f..X .h t._.^./.",
"$X1XL.+X5X1X$X.X].K.] u.D A 3..X^.H.%Xu.U.Y.oX8Xf.].+X7X8XwX7XK.`.+X.X+X].A.^.5X1XK..X.X^.^.@X$X1X5X+X5X8X+XK.K.8X1X1XK.^.]._.+X+X$X+X+X].K.D.1X+X.X~.].+X+X%XK.K.1X+X>X1XU.A.H.u.Y H.8X2X+X+XA.K.].K.].].>X3Xi.Y.A.u.u.u.8XoX1X8X8X+XK.C.T.>XU.].K.6.3.G.]. .D t.u.f.6.d.K.+Xt.l : ] ^.K.A.^.^.5X1Xy.7.1XsXpX1X].].>X].+XoX+XK.%X8X8X+XK.%X%X8X9X0X8XsX0XwXkX<Xu.lXwX0XwX8X7X0X3X+XwXwX1X+X+X^.%X%X5X+X.X8X5X^..Xj./.@X{.5X].`.>X+X^.1X3X1X8X+X3X3X3X3X1X8X8X1X7X>X%X]..X.X%Xf.4.H.H.g.d.d.d.} 2.3.,.4..Xf.4./.H.~.} } ^.H.Q..X",
".X1X+X+X1X4X`.].K _.K  .K } ^.+XA.Y.>X+XoXD.`.nXnX>XU.sXkXwXoXU.Y.^.+X3X>XK.].8X_.+X^..X+X^._.+X1X+X+X1X%X].^..X5X1XoX].A.].+X1XoXf.+X1X+X`.%.Y.K.F.].].+X1X].f.].+X].+X+X+X/ 6 w j f.].+X.X^.A.A.A.^.u.K..XK..XJ.A.u.6.1X9XfXsX>X0XG.V.`.>X0X;X7.3.f.].L.]  .A.K.[ J J ] K.]  .} 3.H.t.~.8X1X_.].K.%Xy.A.+X~.1XK.+X1X+X1XK.u.5X].d..X2X0XsX+X.XwX8XwX8X%X0X0X0X].wXfX0XfX7X3X7XwX].+X0X8X].^..X_.{.%X.X1XK.8X1Xf.!.^..X^.^.%X>X`.~.+X>X8X1X+X1XsX3X>X7X>X1X7X5X9X7.].%X+X_..Xd.3.A p.T N Q.t.] T 2.j.p.j.s.a.s.<.p.@X{.^.W.g.H.",
"K._.8XwX7X3XY.I.K d.t.6.K oXU.7XI.<X>XfXoXwXfXsX1X].K..X1X1XD.H.].H.%XU.1X].A.H.H.1X^.H.+X.X^.~.1X1X8X7X>X>X8X1X+X.Xu.A.Y.].1XK.].].1X8X8XY.) V.1X].^.%X.X+X].].+X+XA.f.K.8X/ & J 0.4.F.1X+X^..X.XA.D.A.oX].^.K.f.U.].+X8X>X>X+X>X>XoX1XK.A.>XD.u.^.K.6.D 3.A.3Xy.a K 6.f.u.] 2..XH.S T Q..X].].A.u.i.N 3.2XF._._.K.+X].1X.XA.u.0 T 5X1X1X8XsX+X8X8X8XsX8XsX0X7X;X+X8X0XfXwX7X7XwX0X3X0X8X].F./.W.@X@X.X_.~.9X1XK.W.@X/.W./..X%X+X~.1X+X7X8X1X>X3X0X3X7X3X3X8X1X+Xu.+XsX].K.^.^.A. .} U j.^.f.t.t.K ^.@X!.g.4.f.<.g.Q./.W.H.3.F.",
"^.+XfXwX7X>XU.T.#.~._.u.d.+Xc.A.>XoXK.~.5XlXjXsX`.K.%X.X+X8X+XF.^.1XwX>X1XK.H.K..X].H.$X%X.X].~.%X8XwX3X7X1X3X1X+X.XY.oX+X].A..XA.K.%X+X+X+X&.` u.a.^.&X.X_.@X$X%X%XH.K.].%XV.c K K t./..Xt.6..X%X+X7.N.1X+X].f. .+X+X>X8XkXY.oX].+X`.1XK.U.J.U.oXoX .D  .f.T u.A.D.#.3.K.K A.+XA.] 6 K H.H..X+XoX1X+XK.A.+XH.F.K.]..X].%X].A.( ] j.%X%X1X8X5XsX].].sX0X1XlXfX0X0X3XJ.A.%X1X>X1XwX+X+X8X.X+XF..X.X/.{./.W.%X8XfXwXA.~.W./.g.p.W..X1X>X1X1X+X1X1X>X>X7X1X6._.>X].$X.X5X7X+X+X+XA.H.F.A.] {.Q.d.6.~.f.H.^.H.H.t.3.f.W.W.Q.H.f.t.K.",
"+XsXwX3X>X>X>X`.K H.].u.].I.I.].>X6.g.%XuX&X%X1X1X].1X1X+X3X+X].+X7X8X1X3X^.^..X^.g.f.^.2X%X.X+X%X1X1X1X+X>X>X7XI.#.].oXK.1X1Xu.u.A.].].K.>Xm.) K g..X^.^.^..X_.%X.XW.^.^.+X].) H.J.A.$XH.3.f..X5XY.7.>X+XK.1XK.K.9X1X( Y.U.>X].U.8XK.`.U.>X`.`.wXT.6. .F.f.A.].A.].J.7.%X^.+XsX6.J K  .f.+X1X].| K.1XL.5XK.K..XA.>X_.+X>XH.^.Y.6.^._.8X~.+XA.^.^.d.5XsXsXkXlXsX8X0X3X+XA./..X.XH.l.j..X.XY.H..X/./././..XsX8X1X8XK.N p.s.R U @X@X5X%X1X0X1X+X8X7X8X1X3XK.1X3XdX$X+X8X].D.1X]..XD.K.u.] t.^.%Xu.u.d.H.g.H.t.3.p.W.H.^.g.f.d.f..X",
"^.1X3X1X>X1X7XY.A.K.F.f.F.7.D.].^.t.l.5X.Xs.&X1X5X1X].+X1X1X7XK.~..X^.~.].H..X5X1X]..X1XkX0X>X1X3X;X7X>X>X>X7X0XO.` y._.].+X1XK.`.>XK.K.N.Y.].D.d./.f.j.^.g.^.^.^.2Xd.] W..XG.#.A.L..X].( v } .X5Xm.K.3XY.A.V.A.1X5X]. .].Y.>XK.>X1X].>X`.>X`.oXoXT.] u.^.f.3.Y.#.A.7.u.%XK.>X5XA.+Xy.A.u.K.+XY. .A.1X+XA.+X1X5X+XG.K.A.].1X8XfX+X].K.1X8X7X1X_.^.sXpX0XfX7X0XlXsXwX3XwX`. .^.H.@X@X1XwX<X6.g..X%X^./..X1XH.H.H.2.3.} @XW.~.W.&X=X%X.X.XkXwX7X8X8XwX1X1X0X7XfXsX.X3X>XK.Y.].]..XA.L.] u.H.^..X].u.u.F.H.u. .^.f.^.f.H.f.t.H.3.H.",
".X8X1X8X7X>X7XT.%X6.f.H. .D F.4.l..X=XpX].+X1X+X+X1X.X].+X7X8X1X0XU.V.H.A.1X0X%XwX7XsX0XfX0X>X`.0X<X>X7X7X7XwX;XO./ t.K.K.1X].1X1XK.V.1X3XD.K.].^.H.f.f.Q.W.g./.f._..X6.f.%XS h ^.A.6.l k s } #X+XA.K.V.$.6.].+X+X%X^.K.].Y.>X].7X1X].Y.>XoXy.J.8XY.y.6.t.K.H.A. .y.N.+X9X8X8XA.K.8XK.>XD } .XK.oX5X>X3X>X0X8X~.K.+X].K.H.1X1XsX8XsX].L.H.8X1X+XH.$X9X8X7X0X8XlXsXfX0X8X3XJ.^.3.&XpXlXwXU.K /..X.X.X%X$X^. .R {.f.H..X.X/.{.@X%X@X.X^.1XfXwX0X8XwXfX3X>X7XwX0X1X$XsXJ.U.3X.X^.^.K.u.] {..Xu.A..XK./ K.].H.A.H.H.^.f.H.f.t.^.3.t.",
"oX8XwXfX0X;X`.0X8X.X_.K.7.].].^.&X%X.X@X1X8X].1X].>X1X+X3X8XkXeXwXT.m.v Y %XwX>X8X1X8XwXfX;X`.T.<X<X3X7X7X7XkX>Xm [ N.K.].$X$X^.1XH.u.$X1XK.V.K.6.f./.@X/.g.H.W.H.]..XfXfXkXI.[ .X_.K.6.6.f..X+X^.K.7.A.A.Y.+X+X%XA.].8XJ.].3X>X0X7X>X3X`.0X>XA.>X].K.A.K } 6.A. .K.`.].5Xu.0 ] H.].%XG.>XU.+X+X'.$X1XwX8X1XK.D d.+X+X^.^.] A.sX].1X].6.f.%X1Xf.%X8X+X+X8X8XwXsXfXfX8X7XwXwX7XA.H.pX8X>X`.U.8X]..X$XH.g.p.D 3.uXiX].u.&X6.Q.#X/..X_.H.1XwX0X0XwX0XsXwXwX4X1X3X3X>X7X8X+X+X%X].L.K. .] W.^.H.A.+X1X#.K.Y.( A.u.u..Xf.H.H.H.H.p.H.",
";X8XlXwX1XfX<XwXfX7X+X_..X.X%X%X.X.XF.W.8X1X].1X+X3X0X0X>X0XkX7X>X`.J.D.].1X7XoXsX3X3X8XwX0X>X0X>XR.7X>X3X>X7X>XU.+XA.A.+X_..XF.H..XH.].^.K.A.7.{ .Xg.j././.^.~.H.~.].wX<X+XwX0XoXU.].+X~.].%X.Xu.+X+XoX>X3X].`.sXY.Y.8X+X+XoX8X`.`.>X1XoX1X8XY.oX+XK.Y.U.K.K.]  .6.u..X^., l 3.0 3.$X.X+X].+XpX$X].1X+X].+X+X#.6._.K.G.l l ^.1XK.8X+XK..X^.+X1X%X8X_.+X8X8X8X8X1XsXfX3X7X0X0XeXY.H.%X8X3XwX3X6..XW.4./.^.H._.~.&X%X.XH.A.2.0./.@X~.3..X%X%X1X7X0XwXwX+XK.+X>X>X8X7X+X]..X1X.XA.J. .] A.H.+Xr..X1X7.$.A.( H.1Xi.F.H.j.H.].F.3.j.",
"u.].5X} H.%XA.f.].] H.F.H.%X5X+X+XH.%XsXwX8X5X1XK.>X3X>X>XoX`.oX>XN.7.>X0X+X8X^.+X1X;X3X8XeX7X0X>XU.7X3XwX0X>X3X7X`.J.oX+XoXK.].A.A.].].K.].G.(  .%Xf.f..X%X].+X].u.].wXm.K.5X>X+X>XA.`.A. .u.oX]._.^.1X7XoX7.].8XY.I.8X3XU.U.1XV.;X1X3X7X>X0X].+X+XU.`.V.>X3XD.] 3.N.K.6.< 7.h 3.5X^.].1X8XA.~.1XY.+X7.q f.5X+Xl W..X1XK.].1X].].t.+X7X~.H.t.].1X%X8X8X7X5X1X1X1X5X5X8X0X0X<X<XoX].8X1X8X0XwX]./..X/.&X.X%X.X6.%X@X@X~.] , K W.a.^./.%X^.$X%X1XwXbXU.] %X8X7XoX1X7X+X+X.X%X.XY.Y.#.K.+X].+X+X`.1X+XD.A.+X].].U.6.^.].+X+X%XpXG.",
"} H.$XH.t..X].t.H.^.d.p..X+XK._.%X+X1XsX7X%X8X3XU.V.>XoX>XU.oX`.>XoXU.+X+X]..XH.^.%XI.oX0X0XfX0XeX>X>X0X3X3X0X>X3X7XwX>X>X`.J.+X@.y.%X].A.+X].[ b &X^.H._.$X+X1X8X3X0X7XY.K.1X8X0XwX;XI.oXV.u.%X4Xu.K.`.1Xy.%.].+X].].sX>XU.K.7X`.>X>X1X7X`.3X3X`.oX].J.%.| +XK.K .X1XK.L.v J.( f.%X$XF.iX8X1X].`.].+X>XK.K.+X+XK u.1XK..X.XK..X .2.].Y.1X^.^.F.].+X2X$XgX7X^.%X8X1X8X8X7X`.D.T.D.NXwXC.].lXwX8X]..X_.@X%X.X$X~./.p.p.u., #. .,.!.{.uX@X.X.X%XsXsX7XA.A.%X7X1X1X7X>X].1X].K.F.].A.V.1XL.#.].>XoXoXK.+XL.>XR.>XJ.u.+X.X8X3X1X1X+X",
"].>XfX0X1X1X1X+X1X+X+X+X$X]..X+X8X>X1X8X9XsX0X7XoX@.oX>XoX>X;XoX>X<X>XoX>X].K..X@X%X>XV.wX3X7XkX7X0XT.<X0X<X0X0X7X0X3XY.U.V.J.7X` u.%X].u.^.+XV.F..Xf.^.+X3X1X1XwX0X7X0XsX`.U.1XsX3X3X<XE.@.A.+X]._.H.u.6.A.+XD.Y.>X+X3X1X].+X1X>X>X>XwX1XoX3X7X>X`.oX`.@.X.].r.u.1X+X6. .V.8X].oXpXdXt.A.].8X5X+X].8X>X1XlX1X+XJ.[ K..X].].].+X6.f.%X+XK.^.^.].1X+X+X.X8X5X+X8X5X1X1X>XwX0XY.>X>XsXfX%.S $X8X8X8X+X^.%X5X^.t.,.W.1.R } A.F.^.6.{./.=X&XW..X/.^.^.3.~.].%X7X+XoX3X+X+XK.A.]..X1X].oXoXf.u.J.].].].Y.I.>X7X<X0X3X`.].].pX8X8X8XwX",
"0X;X`.1X+X+X.X8X+X].1X.X+X1X].].>XwX7X8XbXbX0X1X7X+XV.`.`.>X<X3XV.`.Y.1XT.`.].7XsX3X>X`.oX3X>XkXkX0X3X<XwX0X0X7X<X3X3X>XoX>XoX+XU.6.K.V.D.K.K.].H.A.K.].].>X8X7X7X7X3XwXwX0X;X+XwX<X0X;X) `.3X>X+X+X+X].1X6.7.K.U.+X0X+XoX+X].1X3X3X3X>X7X8X7X>X3X`.u.>Xy. .K.6.H.>X( V.U.y.+X+X+X1X+XN ] Y U H.%X+X1X6.6.3..X1X1X( u.^.+X7X1XsX8X1X+X8X1XH..X1X8X+XsX8X5X+X8X+X%X1X].1X7X0XkX`.3XfXN.: R %XiX.X5X1XK.].1XA.] t.p.T 4./.W.- j.f.T Q.5X&X%XK.t.F.H.H.5X1X1X+XD.+X+X].6.t.sXK..X>XY.1XoXK.+X.X+X].1X+XC.oX0X3X3X7X>X+X.X&X5X8XwX9X",
"5XeXC.].+X.X+X1X+X1X.XoX`.3X>X;Xm.wXY.>XfXwX7X3X8X3XT.;X>X3X>X`.J.y.`.1XoX>X>X+XlX0X>X>XoX>X>X0XnX>X3X;X>X0X7X0X0X<X;X<XT.].`.J.A.6.u.u.) K.u.K.A.K.+XY.].U.].>XoX>XoX0XwX0X0X0X7XwX0X`.oX>XY.`.3XJ.+X%X+XS / oX`.1X>XA.oX1X1X3X3X>X3X3X8X>X1X7X0X`.>XfX<X| u.A.1X].] u.+X1X>X6.N.U.G.A.t.T 4.^.%X^.u.q h K %X+X} ] D K f.u.3.h h 6.f..X.X+X^.$X+X1X+X+X].H.sX+X1X2X1X>X+X1XfXsX3X3Xs s /.iX%X&X%XsX7X7XfX7X>X1X.X8X5X~.f.A.%X].6.].5X5X5Xu.H.2X1X+X8X>X+X].H.~.t.H.K..XlX`.K.+XU.0X>X+X].+X+X_.1X+X1X>XoX0X3X7X7X1X1X%X2X8XsX1X",
"W.8X7X>X1X1XwX>X+X5X`.U.1X3X7.m.>XD.K.>XwX7XsX5X>XwX7X7X>X;XJ.Y.<X`.Y.A.1X7XI.u.8XsX1X>X+X].D.1X8X>XoX<X>X<X<X>X>X<XY.<X0XY.>X>XoX].].U.D.oXU.A.`.+XoXU.oX`.+X].>X>X].`.0X0X0XvX>XU.>X3X;X;X+XoXU.>X].7X+XD.u.D.U.oXoX+X8X3X>X8X8X1X7X>X7X>XoXN.7X>X3X3X7X>XD.K.>X| l t.u.oXK.[  .K.%Xu.g.f.f..X5X^.^.f.f._..XW.4.g.T } J R w 7 D f.W.W.Q.4.4./.^.8XA.F.H.^.8X8X1X+X1X1X`.].0XhX0XV.6 ( @X2X@X@X/.8XfXwXfX3X>X>X1X8XwX1X3XsXsX+X1X7X>XsX+X+X8X>X8XwX>X+X+X1X>X1X1X1X7X1X8X>XwX8X1X3X>XK..X~.^.1X1X.X%X1X+X>X7X7X1X+X7XsX+X8X5X+X",
"5XwX0X0XY.L.1X1X+X].K.K..X1XD.u.>X].sXoXJ.sXhX5X5XsX7XwX;XT.Y.oX<X;XD.].+X+XK.d.1XsX>X1X+XD.N.A.1XpX_.1X<X0X;XoX<X>XoX>X>XI.oXoX].+XY.N.Y.0X0XU.oX3X1X].>X7X8XY.U.`.].+X0X1X7XwXoXT.>X>X0XT.I.oX>X`.>X3X7XT.].J.N.].+X>X8XkX0X+X].+X>X].7X3X3X>X1X>X3X>X].].1Xu.`.c ( +X7X3X].K ] .X_.^.~.F.g.^.^.f..X.X~.^._..X_.].+X.X+Xf.t.f.~./.^..X.X.X%X/.&X2X].t.H..XK.+XK.1X1XY.`.3X>X1XfXY.p 6./.%X.X%X.X@XlXfXeXwX0X;X`.8X1X>X3X].1X1X+X+X3X0XfXN.J.0X0X3X>X`.>X1X>X3X7X7X0X7X7X0X0XfX<X>X>XU.t.R /.1X%X%X%X7X1X>X3X7X1X1X1X9X5X1XpX1X",
"wXfXkX0X<X>X8X>X].`.oXD.u.5XK.K.+X5X8XkXJ.1XsX+XsXwXsXoX>X>XwX>XoXoX>X3XY.+X%XH._.8XoX+X1X`.oXJ.zXpX^.+X1X7XT.oXoXJ.`.3X$.J.`.U.oXN.J.Y.Y.7XeXA.J.3XoX>X3X3X7XJ.D.0X>XD.>X].oXoX7X0X3X3XwXI.c.I.+XY.8X+XoXY.].].K.K.].>X+XsXsXU.D.`.7X>X7XwXsXsX7X+XJ.;X+XA.1Xu.N.%.N.>XwX>X+X| l ^.].H.W.g.Q./.4.3.%X.XF._.].+X%X_..X^.+X].H.H.K._.^.^..X/./.@X5X%Xf.g.%X1XK.K.K.5X].K.wX8X>X>X+X].g u.p.%X@X@X{.W.8XwXfXeX0X0X>X3X7X3X3X>X0XfX7X>X0XwXeX>X#.8X7X>XoXoXoX>X3X>X8X>X7XkX>X`.wX7X>X+X>Xu.^.6.^.pX%X1X1X0X8X>X>X7X7X8X.X8XsX8X>X8X",
"fXfXfXwXeX7XwX`.J.].+X].K.8XwXI.].8X7XhX8X5XhXU.wXpX+X8X1X0XfX<X-XI.7XV.>XoX1X].].1X].%XoX3X>XT.sXhX5X5X<XoXlXC.&.J.1XY.c D.>XU.oXY.U.D.I.0X3Xu.L.+X( Y.>XoX0XoX`.>X>X`.oX+X1X1X0X0X3X>X3X<XT.B.`.>X>X>XoX8X>X#.V.Y.].Y.`.%X1X].].U.K.oX].7XfXsXsX+XA.1X1XA.L.7.u.m @.`.K.H.^.K.6.d.K.f.j.s.Q./.a.H.5X.X~.+X].1X1X^..X^.^.W.H.+X%X1X].].~.A.^.%X%X.X^.W./.%X.X^.].+X1X].+X].1X>X].+XA.] F..X%X{.0.Q.pXkXeX0XeXeX7X3X>X7X3XoX7XfX7X3X7X8X7XfXT.A.].1X>XoX>X3X;X7X<X+X1X1XK.+X%X+X7X7X>XY.8X5X+X8X+X3X7X7X3X1X>XoX5X5XoX1X8X9X1XA.",
"wXkXfX>X7X3X3XoXY.oX1X1X].Y.fXR.V.sXwX1X5X1XsX8X1XpX8X1X7.u.+XwX<Xy.1X>X>X8X].+X+X].1X1XY.1X;XoX7X8X8X3XoX3XlX) ` T.oX7.b.>X7X>X>XD.T.D.V.oX3X].K.u.V.`.>XV.`.>X>X;X>X>X>X8X0X3X0XwXwX<XU.<X7XI.;XI.`.+X>X8X`.` D.>X<X3X`.].+X+X].A.V.>XoX1X5X7X0X;XJ.+XH.+XoXA.l < | ~.u.K.H.d.2.} ^.H.p.g.F.f.W..X1X].1X3X>X>X>X]._._.^..X^.1X+X+X>X+X^.%X$X.X@X$X+X$X_._.^..X.XK..X~.~.].8X].].K.5X].d.@X5X.X.X9XwXfXkXeX0XeXeX0X0X;X0XwX1X7X0X0X7X0XwXwX7X`.K.+X+X>XoX>X`.<X<X0XoXoX+X5X.X.X9X7X>X0X1X1X3X1X1X7X7X1X>X1XA.].`.5XpXV.1X+XF..X",
"wXfXsX7X>X>XoXoXU.>X7X0X>X>XbXT.&.kXhX1X+X+XsXsX1X3X1X~.u.f._.lXwX8X+X>X].1XJ.+X8X+X+X7XoX>X7X| ].sX1X+X<X>X8X@.m.>X>X>X>X0X`.oXoXJ.N.D.V.I.oXK.A.D.oX>X<XJ.>XoX>XU.J.7X3X>X>XeX3X3XkX7XI.;X<X<X<XD.>X+X].2XC.7.oX>X<XoXoXoX+X.X].].3X`.oX>XwX8X3X`.oX>X1XwX@.] u.A.K.H.f.^.f.t.g.H.f.p.4.,.t.@XW..X+X+X5X+X>X>X>X+X.X.X.X.X.X^.^.^.%X/.%X5XpX_.^.%X8X%XK.].$X5XpX+X+X].%X1X`.+X]..X^.1X1X]..XdXNXkXsXwX3X8X0X7XeXeXeX>X>X8X+X+X7X7X1X7X>X>X7X+X`.D.Y.>X>X`.>X;X<X3X+X+X+XoX%X.X1X8X;X3XkX>XoX1X8X3X1X>X8X8X#..X+X.XuXH.K.oXA.&X",
"fX7XwXfX0X3X;X;XoX3X;X0XwX0XbX>Xm.>X8X8X1X.X8XsX5X].K._.@X^..X8XU.oXoXK.>X+X8X1X.X>X>X.X7X8Xu.S %X5X%X%XoX>XoXJ.y.K.>XU.oX7XY.oX>X<XD.Y.;XC.`.oX`.Y.J.oX`.>XoXU.].Y.C.oX7X3X>X7X3X7X0X7X7XT.;X<X>X7X>XD.].1X6.V.3X>XoX].].].+X.X.X+X1X`.Y.8XwX>X0X;X+X0X>XY.K.+X].A.f.t.H.^.^.t.f.f.H.^.W.] ~.%Xf.^..X^._..X3X`.+X1X+X^..X^.^.].].H.5X5X/.iX8X1X.X$X1XH.f.d.d.H.iX1X+X+X8X1X].1X`..X+X1XwX8XF.%X%X^.8XfXoX+XfX3X>XwX0X3X>X>X3X7X7X>X1X7X7XwX3XY.3X<Xb.].>XoX>X;X;X`.N.G..X.X].+X^.%X7X7XwX8X`.>X0X8X1X5X1X8X`.K.].].$X&Xf.].1XF.",
"0X8X7XwX1X3X>X>XwXT.m.0XfX>X0X`.$.].+X2XiXu.].+Xf.@XiX+Xu.F.8XH.} f.H.1X1X1X1X1X_.+X1X8X7X.X6.+XjX5XsX].`.N.r.6. .i.1X>X0X3X+X7X>XI.J.1X3X>X7X%.C.J.#.6.J.`.>XN.D.>XD.;X3X>X>X>X7X7X<X7X<X>XoX<X<X>XC.`.T.y.K.`.3XoX>X>X1X1XK.+X8X7X>X+X].8X1X>X>X3X>X1XK.>XsX1X.XA.d.f.~.d.^.^.^.H..X].3.W.^.].^.p.A._._.+X8X8X>X].5X^.+X_.^.$X]..XpX5X.X8X7X1X1X].].].f.p.U 3.%X^..X1X8X+X+X1X].].+X+X+X1XsX1X8X1X8X0X7XwXkXfX7X7X0X3X7X0X7X0X<X7XwX7X0XeX3XoX`.;X! %.+XT.>X3X;XoXV.N.+X1X+XL..XH.].+X].2X7X>XsX1X1X1X1X1X1X#.%X^.t.^.Q.~.$X6.",
"3X1XwX0XfX0X>X>X>X>XT.eX3X3XsXY.( 8XU.%XuX6.+X].A.&XpX.XK.K.+X1X5X&X5XpX1X8X].1X2X+X1X7X1X+X^.1X5X%X].].G.X.3.].K.].+X0XsX1X7XkXY.V.<X+XN.| D , { A.A.D.K.U.K.J.Y.oXY.3X0X7X<X<X0X<XwX7X<XY.>XwX;X;XI.I.I.Y.7X>X+X>X7X7XwX7X8X3X7X3X0X7XV.8X+X>X>X>XwX].1X1X%X.XA.d.t.f.H.F.^.^.^.u.+XH.^.^.^.^.p.^.A.A.+X%X].1XwX+X5X+X1XwXY.%X%X%X_.H.iXfX7XL.1X+X^..Xf.g.f.t.~.f.^.H.+X1X^.A.K F..X^.+X1X1X>X8XfX>XoX7XwXsXwX0X<XoX>X3X0X0X0X7X7X>X3XoX>X>X>XU.].7.V.oX>XI.I.T.C.7.u.L.sXsX].f.u.H.^.^..X5X1X1XY.>X1X1X+X.X].U.y.^..X5X5XF.H.",
"+X3XwX0X8XwX1X3X;X<XfX7X>X1X>X1X7..XD.+X%X^.6.1X_.f.2XiX%X5XA.+XdX&XpXpXsX>X+X2X1X9X7X1X1X$X_.pX8X]. .t.f.u.H.f.A.f.].sX0X1X7X8XL.1X7.l 9 0 T R R } } t.].Y.A.$.N.].oX`.3X3X0X7X>X>X0X;X`.0X`.>X;X;XoXm.R.T.>XwX0X7X>XwX3X0X7X0X7X>XsX`.V.wXI.>X0X>X1X1X+X1X.Xu.f.t.f.H.f.H.~.$X].u.].~..XK.^._.^.+X1Xu.A.U.y.sX1XuX~.^.jX8X3X8X1X].K.pX8X8X8X.XL.%X$X]..X+X1X+X.X%XW.W.g.@X%X6.Y j.^.+X8X7X1X>X1X0X3X7X>X7XsX8X1X3X>X<X7XwX0X<X3X>X`.3XD.oX<XI.`.+X].+Xb.>X`.`.E.@.N.y.].%X/.$X~.d.].].].A.2XwX1X1X3XsX+X>X.XiXA.V.+X8X8X%X^.+X",
">X>X7X3X1X1X1X0XY.A.1X5X^.1X%X%X[ +X].t.d..XH.+XH.} @X5XsX2X1XsXpX&X5X8X8X+X1XsX1X8X1X+X1X .3.iX@Xf.H.^.i.].J.d.F.u.].kXY.1X1XK K T 7 J J 3.a.t.2.J f.j..X].U.7.J.oXK.J.Y.7X>X3X>XoX;X;Xv.Y.oX>X0XwXT.N.eX>X7XfX].7X>X8X0X3X0X3X>X>X8XoX>X3X`.7X0X0XoX7X>XJ.6.^._.t.W.3.t.uXu.~._.%X7XK.K.~..X.X1X+X+XK.K.1X+XwX+XpXpX+XiXsX8X8X8Xu..XsX1X+X5X%X^.^.+X.Xt.} p.2X1X#XH..XH./.5XK.} p..X%X1X+X1X8X3XeX0X7X7X>X7XwXwX7X0X<X`.<X`.U.>XoXoX1XN.C.3XI.>X1X+XA.7.K.8X>X;XB.&.J.].F..X@X{.F.^.A.%XK.1XsX>X>X8XwX>X7X8X1Xu.t.1X+XiX5X%XpX",
"+XY.+X1X1X2X+X^.K ,.%X5X1X%X.X.XK.K.$.^..X%XpXK.F..X5XjXxXsXiXjX5XuX8X8X1X1X8X8X1XH.%X+X1XK.] W..X$X%XjXu.A.A.H.^.f.].].f.f.} X.} J } 3.t.f.3.} ] 4.{.W..XK.`.].D.].K.y.Y.>XY.T.>X`.7X<X&.E.bX>X>X0XkX0XeXeXeXvX8X>X0X0XfX>X>X7X7X0X<X>X0X;X<X3X0X0X>XD.A.K.].f.J 0.W.f.^.^.t.F.%X1X8XK.H..X.X.X%X+X1X].H.+X5X7X0XsXlXsX1XfXsX+XH._..X+X]..XK.H.].H.].K.f.^.%X.X%X.X@X/.5X%X.X_.6.~.+X+X].+X1X0X7X>X3X7X0XwXwX0X3X>X7X>XT.3X>XI.>X>XY.>X`.m.>X3X>X8XK.D.>X8X+X3X>XB.@.U.K.f.^.W..X].A.K..X1X>XsX>XoXwX0X>X7X1X1XK.K.+X1XlX8XpXsX",
"$X>XA.].iX1X%X+XA.4.&XpX8X1XK.$X1X@.N.1X5XpX+X]..X$XjXlXlXsXdXiX5X2X1X5X8X1X5X8X.Xt.Q.5X+X+XV.t.^.$XsX7.K ^. .6.K.f.f.} p.f.t.g.J f.t.4.j./.} v ] t.W.H.f..X+X>XY.J.K.K.`.oX>X<X>X7X7X7XR.c.<XwXT.wX0XwXwXfX0X>XkX7X0XwXkX3X7X<X;X7X0X0XT.0X<X<X7X7XoXV.N.~.^.H.A.t.W.%X%X^.f.F.5X3X+XK.d..X_.+X1X%X.X_.K.^.%X].].sXz.z.3X3X8X+XH.5XwX3X1X+XK..Xf.1X1X].L.].8X1X$X$X.X@X5XiX$X+XA.f.].8X0XY.+X1X1X>X7X7X7X0X+X].V.+X3X<X>X7X>XoXY.oX<X`.1XI.`.oX+X1X1X].1X7X>X`.J.R.&.A.^.f.g..X.X^.H.$X.X8X>X0X0X3XwX1XoX1X7X8X7X>XV.1XhXsX9XsX",
"~.A. .+X8X5X5X8X<XA.%X%XsX8X>X1XD.K +X'.8XiX$X8X8X%XpX9XdXpXpX5X%X1X1X1X8X8X1X2X2X5X%X%X.X+X5XL.A.^.7.s H.f.u.A.^.g.4.} f.t.3.D K t.f.t.t.W.a.K T f.^.^.2.f.G.6.J.D.oXoXY.3XwXwX0X3X3X7.J.m.<XfX>X3XwXeX3XkX0X;XkXsX3X3XkXkXwX7X<X0XwX;X;X;X3X7X<X7XI.U.u.K..X5X8X6.J j.%X%X.X+Xu.oX+Xu..X.X5X8XiX1Xi..X^..XF. .].pX[.@X+X].A.^.%X8XwXsX8X+X>X7Xf.2.8X8XH.].7X1X5X8X%X+X5XiXg.$X].]..XsX7Xu.].>X>X>X+X+XU.].].Y.D.Y.`.U.].Y.oX].oX`.7X`.+XY.oX+X>X>X%X+X>XoX>X`.U.U.C.u.S f.H..XH.K..X.X^.5X>X7XwX7X0X7X>X;X3X7X7X1X<X>X7X8X8X8X",
" .K ] ^.2X%X@X2X8X8X8X1XwX7XY.5XD.7.%X+XlXsX9XlXwX5X].1XdXjXpXpX5X8X1XwX8X5X5X5X1X2X%X.X1XsX5X+Xu.3.] f.g.H.K.f.t.3.D 3.^.t.u. . .T  .} f.t.t.l f.^.3.T l } f.u.+XoXU.3X7X7XwXwX<X>X>XB.A.].>X`.0XwXeX7X7XwXkXwXfXkX0X>XkXfXwX0X3X<X7X7XT.;X>X0X<X7XU.`.J.+X^.1X3X].f.f.^.pX8X8X( ^..XW.&X^..X+X.X^.H.A.^.].K.H.u.+X%X5X.X^.A.+X8XkX>X%XwXK.1X`.].u.+X1X+X%X+X.X%X5X8X+X8X.X.X].].f.A.hX8X1X].V.U.+X>XA.A.K.+X3XD.u.~.K.u.K.7X].].6.].%X>XoX>X>X>X>X+X>X+XoX>X>X`.I.@.k u.K.^.].K.].K.f.f..X8X0XwX0X7XwX7X7X0X0X7X0X0X7X0X8X7X7X",
"6.< D %X{./.Q.%XpX8XK.7XwX7X0X3X>XD.( 8XNXsX9XlX7X%X5X8X1XsXlXdX8XF._.^.+X5XiX8X1X1X8X8X1XsX1X+X>X+XA.D t.^.F.t.] } t.+X1X>X1XA.u.u.}  .} T D K H.t.N K K d.+X8X1XT.Y.wX<X>XwX0X>X>X>XT.`.].U.I.<XeXwX7X0XfXkXsX0X0XfX3XfXfXeX7X7XwX0X7X7X<X0X0X7X7X>X1X1X+X5X1X`.d.%X>X+XpX8XwX`.K .X.X.X^._..X^.^._.6.oXK.8X+X3.F.p.^.K.K.u.K.0X3X]..X1X.X.XK..XK.6.H.].+X$X].%X+X1X$XH.+X7X>X%Xf.f.+X+X1XA.K K.+Xu.A.1X].K.+XA.~.^.^.F.u.%X.XK.] .X+X8X`.>X7X>XY.+X1X+X].1XoXY.`.c p @X].[ ] A.+X`.A.+XoX7X7X].K.sX1X].oX>XY.+X>X+X1X8X1X8X7X",
"F.s l .XW.Q.^.%X5X6.].kX7X>X>XU.+XY.U.$XjXzX9XsXkX8XsX1X8X8X5XjX%XA.] N H.pX1X8X1XsX+X%XsX5X1X5X.X+X7X| u.t.f.+X3X].oX>X1XwX1XA.Y.+X].u.A.J.U.J.u.] D D } f.7X0X>X3X0X0X3X<XwX>XY.oXY.oX`.7X3X;XE.<XwX7XfXfXfX0X0XwXkX7XwXeX0X7XwXsX7XfX<X7X7X3X0X;X>X1X+X+X%X8X3XK.A.1XF.5X+X3XbXV.f.5X.X^..X^.^.$X].u.Y.].8X7X+XH.f.f.W.6.K.].1X+XK.+X].1X+X]._.H.F.^.+X.X1XH.K..XK.+X8X8X].+X.X>XK.] A.].A.u..XL.u.1X1X1XJ.+X].F.~.].6.f..X.XK.6.+X8X1X8X7X0X7X;XJ.+X_..X1X+X+XU.k ] f.].v ] K.A.`.oXY.u.].] w g.&Xt.d.F.f.t.p.p.N ,.;.4.g.~.",
"K.c p 3.j.@Xl.Q.3.3.t.+XnX>X>X8X>X>X0X>X>X+X%XlXkXkX3X+XlX8X5XjX%X1XS T ^.uX+X8X8XN.T .Xu.6.1X8X%Xu.].K.oX@.| J.].J.oXY.7XwX1XA.J.J.J.].+X].3X%.7.Y.A.K t.%X].`.<X0X<X0X>X<X7X>XY.`.>X>X>X`.>X0XT.T.0XeXeXfXfX0XeXfXwX0XfXeX0X0XwXwX8XkXwX3X<X<X;X`.>X3X7XY.+X0X].`.S  .+X8X0X7X0XD.A.+X.X^..X8X$.6./.1X7XY.].wX1XK.K.g./.F.K.K..Xf.K.^.H.1X+X].^.f.K.1X8X].1X1X3.A.u.f.].+X.XK.].].A. .} f.^.^.].1XA.oX7XY.+X+X+Xu.F.t.d.1X.X^.^.^.^.1X5X+X3X<X;XD.` ` %.+X3X`.3XC.y l /.u.d.K.7X].].u.T 4.H.N a.@X.X^..X.X].K.f.^.p.;.e.s.s.s.",
"A.s D Q.W.Q.&X.Xy.] T 8XNXsX8X0X3X;X0XoX3Xu.$XBXlXkX1X+X~.sX1X$X$X5X>XA.f.W.@X^.6.T /.&XW.g.1X8X8X].K.].8X&.[ K.K.oXT.J.oX3XN.S V.oXoX7X1X>X>XU.`.>X>XA.f.+XU.+X7X>X>X<X3X>X0X0X`.D.>XwX>XoX>X>X3X;XoXwX0XwXwX7X7XwX0XfXeXfX0XwXfXsXsXwX0X7X3XT.I.>X1X7X7XA.^.].2.6.2.1X9X3X0XfX%. .1X+X1X]..XK.N g.1X7XwX3XA.wX1X%XY.f.^..XH.d.^.6.L.L.^.].H..XW.f.+X%X%X].K.0XA.u.^.^.u.K.].6.K.A.A.L.].^.H..X].`.].A.A.K.+X].K.d.u.K./.^..X^._.].^.+X.XV t.Y.m.O.! ~ ! I.1X`.>X@.a v f.3.A.1X+X%X].N e.%X1X>X.X].]..X].].].u.3.^.J 0.!.e.!.W.",
"4.D W.=X%XsX`.+X>X( 8XzXsX8X8XsX3XY.7X>X7X1X1XpXpXwXwXK.t.5X%X1X5X1X1X].H.f.W.g.W.@X/.|.#X5X1X].].].].1X>XV.].I.( J.`.Y.>XY.`.oXoX>XU.>XlX8XK.Y.Y.1X].3.%XoXY.sX7XJ.>X>X>X>X;X<X<XY.7X0X3XwX`.oX7X>XT.3XwXwX7X0XwXwXwXwXeXfXfXwXwXwXwX0X0XfX<XT.`.U.>X>X0XA.f.+X+X].^.sX1X7XJ.D.A..X$XpX3X1X+X6.j.@X8X7X0XoXA.8X7X+X^.^.%X^.H.H.K.+XK.].+X^.f..XH.K.^.+XH.~.u.H.f.K.u.+X6.t.].G.f.f.f.3.^.^.u..X^..Xf.H.K.+X.XH.F..X8XA.H..X_.f.5Xu.u.5X.X.X1X].D.V.D.) %.].>XoXU.< K M v u.+XsX`.3.4.f {.pX0X0XU.A.].].].K.f.F.d.F.J j.{.g.;.s.",
"g.4.Q.=X5X1XA.t.>X+.+XlX7X7X8X1XU.1X8X0X3X3X+X.XjXpXiX].].%X2X5X+X1X].L.^.8X6.l./.{.!.Q.%X7X3XF..X7XJ.Y.+XsX1X+.@.>X`.U.wXoX>XJ.6.oX].`.kX0X].].K.>X5X^.f.u.+X].A.wX;X;X>XK.I.7X;XoXkX7X1X1X>X>X`.oX>X3X7X7X7XkX0XU.wXeXeXeXfXkX7XwX8XfX0X7X`.`.].>X+X].fX>XV.lXsX1X_.8X0X3Xu.F.pX8X8X].1X8XgX].K.1X8X>X>X].].1X%XK..X%XF.^..Xf.].8XA.6.^.~./.^.t.A..X%X~.f.K.K.+X7X+X8X+XH.~._.K.K.K.F.p._.f.a.H.~.~.].+X+X+XA.K.2X+XK.H.].T H.%XU.A.wX8X1X+X+XD.].D.[ ] +X.X].D.i ]  .3..XkX>X>XZ H H $XH.2X.Xu.f.} t.W.f.} W.%X .J W.g.0.V e.",
"Q.g./.@X^.H.^.6.].>X8XwX8X>X1X+X1XsXwX8XwX1XK.1X1X+X+X+X+X8X2X%X].+X+X+X5X8X#.a.j.l.!.%XpX.X+X5XA.y.Y.Y.7X>X].7.) >XwXJ.J.N.J.Y.oX+XA.Y.+XsX1XJ.7X>X7X7X2.t.W.4.f.H.Y.>XoXU.J.<XY.0XfX0X7X>X1XJ.J.>X0X0X>X0X0XwX7X7XkXnX0X7XkXwX0X0XwXwX0X<XT.+X].`.>Xu.sXm.J.sXiX.X1XsX0X7X1X1X1X.X^.^.1X1X8X+X^.K.6.^.$.2.H.^.^.^._.^.^.%X^.^..XL. .6.t.~.g.H.3.~.~.~.^.6.+X].3XK.K.A.].^.K.K._.^.H.t.2..XH.F.g.H./.^.1X>X3X].+X8X+X+Xu.v d.5X+X8XI.1X%X].].].U.D.) ( .X8XK.3.K K 6.{ t.H.^.Y.%.0 ;.s.].t.~.t.H.H.3.j.g.g.g.p.W.d.l 4.j.a.4.j.",
"^..X/.{.{.].].u.N ].1X7X0X>X>X1XwX8X7X8X1XoX%X+XN.+X1X+X7X1X7X1X].>X8X>X>X+X].f.l.%X.X5X1X+X1X+XJ.| G.].+X>XN.( y.sX5XN.#.7.N.A. .J l f.+X+X+XK.1XsXkXu.K f.H./.H.H./.+XY.].>XT.3XfXwX0X8X+Xy.>X+X7X0XwX0X<X7X0X0XeXkXvX7X0XfXwXfX0XfXwX0XV.Y.>X3XoX].>X0XT.].8X5X/.pX8X8X1X7X7X3X| .XsX+X`.0X3XA.K.D ^.u.H.+X^.^.H._.~.$X%XH.K.].A.K.u.6.f.p.W.6.U f.A.^.+X8XA.u.t.t.d.R t.K.F.W.^.p.t./.H.} 2.Q./.H.^..X1X7XJ.1X5X1XG. .V.[ D.K.oX7X8X%X].+XK.1X%.c u. .} w U s.p.t. .h U /.+X`. .,.sX3X0X+X .g.$X1X].H.W.g./.f.d.K R a.W.t.l.",
"%X.X^.@X%X%XD.7XN.>Xy.J.8X>X3X1XwX7X3X>X>XK.f.%X1X>X1X1X1X7X7X1XoX7X>X>X+X+X+XK./.{./.%X%X1X+XX.K.].].6. .1XsXV.A.7.u.v , h l K 2.j d..X8X6.].].Y.8Xu.J t.f.g.j.^.A.t.%X+X+XU.T.fXwX3X>X1X].%.>X8X1XkX>X>X>X7X7X7XwXfXvXkXwXeXfXvXwX0X>XoXV.oX+X3X7X`.>XwX3XK.hX+Xd.5X1X8XsXN.].Y.6.5X<Xt.u.7XK.T .XK ^.^..X+X1X.X^.%X2X^./.^.].K.].F.A.3.g.f.g.^.6.K.F.f.>X+XA.F.A.^.H.3.6.2X.X3.a.Q.f.].h @ U ^././.~.^..X^.f.8X%X].N.+.S ] Y.A.8XlX1X8X1X>X+XD.D.V.p.K V :.!.g.p.f.t.l p.*X7XwX0X+X].8XkXwX3XL..X1X%X+X+XH.g.g.t.3.D 4.g.,.W.",
"%X.X%X%XH.%X8X1X7XoX>X>X5X].+X7X3X3X1X`.$.] D J ,.A.1X8X8X>X>X1X7X8X`.>X1X8X].g.!.^..X2X1X+X].K.A.6.u.S  .9XsXS $.S 6.p.2.F.t.d.f. .^.H..Xu.f.%X].H.2.&Xp.4.j.j.{.] d.%X].V.y.8XwX1X1X1X7XJ.) >X5X1X1X7X7X0X0X0X0XfXbXfXvX0X>XkX3Xu.D H.+XoX].+X3XwXK.A.t.1X7X1X9Xt..X0X+X].L.u.} t..Xu.u.3XfXoX2.g.f.H.^.%X].].$X%X5X1X%X%X^.F.4.6.W.T D 0.f.,..Xf.t.A.f..Xf.3.t.u.K.A.3.H.3.H.4.e.W.g.f.u.H.^.f.W.*Xg./..X/.~.%X$XK.) +.{ _.3XH.%X8X5X5X+X+X+XC.].u.f.1X_.^.g.,.g.g.3.4.W.#X8X3X3X0XD t.8X7XwX3XwX1X+X].>X.XF.t.^.F.h J p.} 0.",
"5X/.].A.1X1X2XsX+X1X1XK.+X1X5X>X1X+XJ.].A. .b D t.t.K.>XwX>X>XwX0X1X3X7X3XwXu.W./.@X%X%X.X%XK.A.u.[ 6.K u.A.^.A.1Xu.+X5X} 3.t.3.] t.f.^..X.Xd.].%XK t.#X6.3.Q.g.N ,./.^.A.y.1X8X+X8XfX3X].N.U.lX1X1X1XsXwXeX0X7X0XbXfX0XBXU.A.u.5 9 T ^.3.} K.+X>X8XsXU.N 5XsX+X8X6.5X1X+X^.^.0 t..X^..XU.NX7XU. .F..XH.g.1X].%X5X1XpX.X$X1X_.W.H.f.^. ., } /.H.^.j.f.t.f.^.d.3.T l l t.t..Xt.0.a.s.s.f.d.H.K.H.t.f.H.j.{.Q.W.8X1X8XoXO.m.].].].g.#X$X%X5X].A.K.K.K 3.+X`.1X+X].6.p.4.p.j.{.5X8X>X8X>Xl R #X7XwXeXeXeXwXwX+X].+X^.d.K. .] h T 0.",
"pXF._.5XpX1X8X7X].5X^.oX8XsX2X].y.A.N.D.D.A.1X7XwX3XoXN.+X7X7XwX].>X8X1X1X+XY.H.^.@X.X.X^.K.$.K.A.( H.d.H.6..X$X5X>XA.K. .3. .6.6.] ^.^..Xd.6.H.u.f.4.W.p.W.H.3.l t.g.^.V.>X1XH.^.^.7XI.N.+X3X+XsX0X8XsXsXwX>X7XwXkXwXnXy.0 f # ,.4.l.g.<.g.%X.X+X1X>XK.K.5X8X8X8X^.5X8X]..X].D .X%X^..X>XkXsX1XK..Xu.] +X`.>X8XsX1X%X@X+X.X_.].u..X%X7.< D @X^.Q.!.p.4.F.H.p.W.D % T Q.j.^.{.^.g.} U /..XH.H.K.d.g.Q.4.j.g.^.1X+Xu.`.I.%.lX7X8XK.W.@X+Xu.t.H.].7.].5X1XwX>X].`.].U.f.g.{.@X8XwX8X7X0XU.J 4.+XfXfXwXwX0XeXwX>X].].K.A. .K l A  .",
"%X6..X%X&XpX6.A.5X1X6.u.1X8XK.K.`.>X%.%.u.].].+X>X+X7X8XA.].`.1X8X8X1X>X+X>X%.7.^._.%X5XK.H.u.5Xy.n d.Y ] 1X^.2XsX>XU.A.1X%Xu.] ] t.5X1Xf.,.p.t.K.3.g.W.2Xp.t.} Y 3._.oXY.kX].^.4.H..X+X>X1X3X+XlXsX1XwXwX0XwXkX0XfXvXy., J U U W.H.p.Q./.W..X.X1X1X>X1X7X8X1X1XsX$X$X$XH.%X1X`.1XK.K.1X1XlXsX3XI.5X].u.H.K.U..X/./.^..X1X8X%X^.] 3.H.6.A h g.t.J ;.G l.W.f.3.3.6 b %X^.^.W.W.^.H.H.l l f..Xd.f.t.f.Q.t.d.^.8XK.u. .wX<X>XkX1X4.^.%X1XwXJ.^.N.u.+X7X7X7X8XD.U.oX>XfX1Xu..X1X8XeX8X8XfXfX6.0 ^.sXsXwXwXwX0X0XkX0X>X<X<X`.D.]  .6.",
"@Xt.@X@X5X1Xf.%X8XA.t.} ].1X1X7X7XY./ !  .K.%X].+X8X8X+X].1X`.1X>X>X1X.X+XD.#.`.+XL.a.@XK.A.#.+X^.K  .T ].8X$XsX1X+X3X>XsXK.K } ^.^.A.6.J ^.%X3.T } H.f.F.H.0.4.^.1X>XY.8XkX+X3.,.1X`.J.0X3X3X7XsXwX0XkXwX1XsXkXoX3XoX( ( f.T f.p.W Q.|.^.p..X_.$X1X].+X7X8X+X8X].~.p.f.g..X+X].1X+X.X1X].%XhXwXD.].%Xf.3.3.} @XH./.^.%X8XkX1X^.H.j t.0./.] K N j w j.=Xf.t.T J D 6.^.t.W.^.^..X^.g. .. l #XH.f.6.F.F.3.f.W.^.A.t.1XeXeXfXeXY.F.jX5X1X3XY.+Xu.].7X>X>X+X`.oX>X8XwX3X1XlX+X3XwXfX0XwXwX1XA.6.6.Q.kX0X0X8X7X7XwXwX0X<X>X0X0XT.| 6.",
"^.5X7.W.pXH.W.H.6.6.H.^.1X8X5X+X].#.` x 6..X.X].+X5X8X1X+X+X>X1X>X+X].U.7.c [ m.b 3 E .X].+Xy.6.H.7.f.@XW./.hX8X7X1X3X3X7X+X+X].>X8XD.( .XsX1X} f.t.H.F.t.W.j./.+X1XY.].wXlX1XK.%X].+XN.0XwX3X0XwXwXwXkX1X>XwXwXoX+XK.V.%.+X6.t.D r Q.g.^.$X.X.X%XK.H.].G.f.1XoX6.H.f..X~.&X8X3X>X.X5X7X3X].hX1XoX8X+X].6.t.f.{.%X^./.pXsX9X1X^.H.T 3.^._.^.6.6.J 4.=XsX].f.j.H.H.H..Xu.f.^.^.^..Xt.u.& l f.d.H.A.>X].K ,.a.g.g.t.+XkXeXkX7X1X%XsX9XwX3XoX.X+X3X`.oX`.1X7X3XwX0XwX3X8XsXJ..XsX0X7X7X0XY.d.W.f.f.^.+XwX0X7X0X7X7XwX0X<X<X<XC.( [ ",
"H.%Xu.].xX~.3.t.t.U.A.g.%X8X^.K.^.V.@.%.K.].1X+X+X`.8X>X+X1X1X1X5Xm.n b p < > o @ 3 Q.1X+X].K T H.^.g.H.%XsX8X7X7X8XY.K.7X1X5X5X1X1Xm.#.sX8X6.T ,.3.f.g.W.j.^.Q./.$X1X+XsXwX^.H.+X1X+XsX0XwX7X7X0X0XfXeXsX8X1XN.K t.] D.>XK.F. .N R l.j.W./.].+X5XA.6.K.].H.+X].5X5X+X.X8X8X7X7X`.].8XwX8X/./.f._.1X+X^.K.^.3.g./.g.4.%XhX1X8X8X+XK.} %X1X3X7X].d.^./.^.A.p.g.g.%X%X].1X+XH.].]..XA.F.6.6.t.A.K.+X7X0XJ.h V a.f.t.^.8X.X1X3X1X%X%XpXsXfXwX0X8X3X;X;X3X7X0X<X7XwX3X8X7X3X0X3X0XwX7X3X0X].A.H.j.H.T N /.sX8X7X8X7XwX0X<X>X7Xm. .u.",
"8X1XK.+X].+X+XK.A.~._.].2XsX1X>XA.K.6.A.].+X+X`.8X.X].].2X^..X5X+XO.l f W..X .u.6.].2X1X7. .].+Xt.+X1X2X0X8X+X1X0X1XoXoX5X0X8X3X7X1XJ.J.7XsX .o [ W.p.g./.Q.@Xg..XpX$X%X1X+X].A..XwX3X7X7X3X1X0X3XfXkXvX].u.u.( D 3.4.2XwXN.^.+X2.1.!.j.p.d.+X+X+X_.f.A.t.3.A.`.<XsX%X5XiXwX8X8Xm.].3X+Xi.g.4.W.W.%X5XG.H.%X3.3.@X+Xf.5X1X+X8X0X%X+XK.f.8XkX0X0XA.A.~.H.p.} Q.W..X%Xu.F..X].^.^..X].u.d.,.^.oXU.;X0XwXfX>XA..X.X_.8X1X].^..X5X5X8XkXwX0X0X7X7X7X>X>X0X3X;X3X3X3X3X1X8X8XwX0X3X].1X0X0X>XA.K.H.W.D J W.pX0X7X3X<X0X3X0X<X3X`.7.u.",
"5XK.H.F.6.H.%XA.K.1X8X$X$X5X8XoXK.oXu.u.].+X.X+X+X~.^.^..X.X1XpXD.n v 6.yXdXlX1X5X8X+X2XA. .pX1XG.+X8X2X+X+X5X8X8X+X1X3X8X8X8X1X7X1X>X7XkXwX0 . m %X^./.Q.@X/.F.6.4.H.%X_.%X].K.1X7X3X3X7X7X8XwXwXfXfX7X6.g._.~.A.3..X%XK.u.^.$X_.g.j.H.H.].[ T 1XH..XY.6.} .X7XfXF.4..X.X{.sX1Xu.1X7X].~.H._..X%X0XwX7XK.^. .f.+X].8X5X+X8X1X.X^.].A.H..X7X>XA.H.H.H..XF.d.f./.%X5XH.^.^.^.Q./.H.].6.H W.A.J.Y.>XfXsX0XkXwXwXsXsXsXfXkXkXfXwXwXwXsX0XwX7X7X3X3X<X>X>X7X>X3X`.>X1X3X8XwX8X3X0XoX+XwX8X7X`.K.K.| h H.3.^.8X3X>X3X7X<X>X<X>X>X%.#.",
"5X8XK.u.].t..XA.+X9X].]..X1X].K.+X].+XK.+X+X1X].K.+X7X1X+X5X%X+XD.u.] } Q.&XxX8X+X+X^.%X%X].5X1X1X].+X1X1X>XsX8X8X7X1X1X8X8X1X+X1X8X8X7XfX>X= $ ! %X].+X.X@X$X$X&X,.C e.&X.X@X%X7X].].+XK.6.+XwX0X7X1X+X%X1X.X].A.H..X+X^.!.Q..Xf.a.W.H..X+Xu.6.5X%X.XwX;X] ^.sX`.h 4.&X^.~.pX.X].5X+X+XsX9X.X5XsX0X7X7X8X+X3.].].>X1X%X+XpX%Xf.H.f.5X.X2.A.K.t.+X1X1XK.H.^.F._._.sXsX>X].~./.@XF.u.F.~.].K.].Y.3XsXwXbXbX3XoXsXwXkXkXwXfX0X0XwXsX0X7X0X0X>X3X7X3X<X>X7X3X>X>X>X>XwX>X>X3X3X>X3X3X7X7X7X3X7XoXl ] 3.U .X3X>X7X7X<X>XoX;X>X<X;X#.",
".X+XF.6.u.].J.V.2Xu.u.].2X1XH.F.%X].U.J.1X1X].^.H.sX3X].+X1X+X>XV.F./..XH.W.=XpXH.2X$X5X+X~.5X1X8X+X>X+X+X>X1XsX>X8X5X7X1X+X9X1X1X7X0X0X0XK., > ` %X$X%X_.$X&X.X@X5X^.U W G <.p.r.] 4.2. .t.5X8X8X1X+X1X.X.X+XK.K.1X1X+XQ.{./.~.^.W.Q.j.H.+X+X+X+X1X+X8XoXN.t..X].K.5X].K.7X5X5X1X+X1X>X0X%X@X5X8XfXwX+XoX5X.X6.^.6..X+XK.5Xu.H.^.t..XH.} ^..X$XsXwXeXwX].~._.^.~..X1XsX`.].].d.K.A.A.^.^..XY.+X7X8X3X6.K : D lXsXwXwXwXfX8X0XsXwX0X3X7X0X>X7X0X7X7X>X<X7X7X3X>X>X7X3X>XoX`.>X7X7X7X1X3X7XwX8X| K t.,..X>X>X3X<X>X;X;X<XT.>X0X<X",
"H.u..Xu.A. .A.+X^.6.Y.K.+XjX%X+X+XH.].>X1X1X+X+X1X+Xy.K.1X8XY.1XD.2X5X_.K.u.^..X^.g./.H..X.X5X7XU.U.].1X+X3X1X1X+X1X1XwX+X1X8X5X8X8X7XwXwXy.= y @.%X].5XH.^.%X.X+X5X%X.X~.^.H.t.] k : @ X X K.pX5X].#X%X^.$X].A.].+X1X%X.X.X.XH.W./.Q.g.H._.6.6.A.f..X].K.J.J.7XsX0X1X`.+X+X1X8X3XoX>X3X>XJ p.%XH..XlX1X+X+X_.f.f.p.+XfXK.^.^.^.^.H.g.H.f.5XpXlXsXsXfX3X8XwXwX>XK..X+XsX8X+X].K..X^.~.^.+X].F..X7X7Xk X R 6.fXsXwX0X3XwXsX0X0X7X7X8X7X7X7X7X7X0X3X7X>X<X7X<X7X7X3X>X3X>XU.Y.N.K.8X7X3X3X7X7X7X3X] 4.U _.>XU.;XL.1X>XN.+XoX1XwX<X",
"H.K.N.].K.A.A.H..X6.A.^.5XjX].H.8X+X1X+X+X1X%X].V.A.A.%X8X8XV.N.9X+X].K.Y.V.^.%X&X^.} ^.^.9X%X5X%.$.f.8X>XJ.sX8X8X6.].+X1X1X1X7X8X7X0X0XkXS o 1 y.+X+XH.W._._.2X1X1X%X%X%X1X~..X1XA.b , q h K.^.^.%X%X+X].2X+X`.>X>X'.^.K.%X1Xf.W..Xp.f.^.H.K.F.p.g.H.F.K.u.V.3X7X3X1X8X>X1X1X+X1X>X3X9X] T .X1X].8XpX1X1X%X%XH.H.K.5X8X+X+X3.f.H.F.a.{.8X].%XkXwX>X].A..X8XwXwX~.%XwX8X`.U.8XsX1X5X+X6.W.3.H.5X>XwXK.N.0XbXeX0XfX0X7XwXwX0X0X7X7X3X7X7X7X3X7X0X0X7X0X3X7X<XwX3X>X3X>X>X;XY.V.`.>X>X3X>X8X1X+X0X1Xu.4.1XT.0XoX^.1X0XoX+X0X0XwX0X",
"_.K.1X`.oXm.J.A.K.A..X1XsX8X>XK..X].+X+X^._.^.Q.u.D.2X.X%Xy.].]..X].A.F.].N..X&X%X6.H.5X0.5X8XD.) y.2X2X>XU.0X+XK.L.t.~.%X.X.X1X8X0XwXfXsX6 . x A..X+Xd.W./.%X%X8X1X%X8X.X].f.t.^.+X+XA.H.^..Xt.^.+X$X+X^.+X>X`.Y.1X].^.H..X$XH.^.~.} /.g.%X>XA.g.l.f.H.6.u.H.^.+X8X+X1X+X1X>XY.7X1X+X].+X5X8XY.].8X1X5X].f.3._.+X%XjXkX3X].^.].+X7X+X8XwXA.+X3X7XF.H.~..XsX0X+Xt.l.8XY.V.J.`.+X>X+X1X].] J {.%X0XkXeXfX7XwXwXeX0X0X7XwXwXwXsX3X3X<X3X3X7X0X3X0X0X7X0X7X+X>X7X7X3X7X0X<X<XC.n 7.].>X1X3X0X`. .1X7X7X7XU.7X3X7X1X7XfX3X1X8X7X3X0X",
".X].2X[ K %.`.].`.1X].1X+X4X+XK.].+X>X^.!.Q.H./.H.oX8X%X1XJ.1X.Xu.+Xu.K.9X].].=XK.j H.^.j..X+X].+XL.A.+X8XoX>X8X+X].A./.{.%X].>X8XwXfXlX] : > x ^.^.H.g.j.^.%X%X5X%X^.%X%XW.^.+X1X1X].^.+XK.A.8X_.f.H.].A.+X+X+X3X>X5X1X1X7X8X0X+X].].H.g.%X7Xy.4.W./..X] p./.^.@X5X1X].].A.oX].1X1X+X+X8X0XfX>X1X1XY.+X6.g A.9X8X].%XkXwXfXfX0XwX7XwXkXfX0XY.+X8X+XH.W.sXsX0XoX>X7X3X>XD.`.+XY.+X$X1X'.s 6.@X+X0XwXwX7X0XfXwXfXwXwX0XwXwX0X8X8X>X>X7X7X7X0X7X0X0X7XwX7X].].7X3X3X7X0X0X0XI.p s H.1X>X].8X8X1X3X1X8X0XK.8X7XwX0X7XwX8X0XwX0X>X3X",
"K.K.f.K 6.>XV.A.1XoX>X+X].2X+XJ.].1XK._.H.Q..XK.H.].5X$XK.N..X+Xu.u.+X+X+X2.p.uXN @ } H.#X.X+X1X+X].].8X5X+X%X].9X1X+X+X.X%X1X+X3XfXkX6.# , y @.iXA.3.s.g..X&X/.$X.X%X5X%X+X+X1X.X1X+XH..XA.K.].+X1X^.t.+X1X7XsX7X7X1X1X8XwXwXwX1X+XV.,./.W.^.K.p.F.%XW.~.F.^.$X@X8XsX7XK.A.+X1X$X8X7X+X5X8X0X0X>XY.K.6.D.oXbXwXeX7X8X0XfXvX7X7XwXsXwXfXkX1X1X+X].1X.XsXkX0X3X<X0XwX<X0XV.D.1X>X+X1X8X+X .{.8X8X;X0XeXwX0XwXfXfX0XfXwX7X0X7X8X3X>X<X7X0X7X0X0X7X7X0XwX0XwX7X0X3X1X1X>X0X0X0XB., f._.A.H..X8X7X0X7X8X0XwX1X8XwX7X7X8XwX0X8X1X].].",
"1X1X1XK.`.1XD.y.1X].+X1XwX8XwX].].Y.Y.H.u.^.+XK.].A.+X8XG.K.].^.u.| 1X+XK H |.j.3.T $X].$X.X1X0X8XU.1XsX1X1X+XoX8X1X1X%X.X%X5X>X1XfXwXp o a V.$X.XY 3.#XH./.@XQ.@X&X%X1X1X1Xf.g.F.H.].t.T a.W.t.^..X.XK.t.%XsX8X3XwX3X7X3X8XsX0X>XU.~.^.a.W.g.t.g.~./.g./.^.g.@X5X].fXwXwX0X1X].+X8X+X+X8XiX7X7X>XD.`.oXkXwXkXeXwXfXwX3X1XfXvXkXkXfXwXkXwX>X+XwX1X>X8XsX0X0X7X<X3X<X3X;XI.J.>X1X7X1X8X7X0X8X+X1X;X3XwXwXwXwXfXwXwXwX0X0X0X8X8X1X3X7X0X7X7X0XwX>X7XwX7X8XwX>X3X7X>X1X7X7X7X7X<X%.| f.g.1XK.%X7X7XwX>X8XwX7X1XsXsX8X8X8X8X1X>XA.f.",
"+X5X7XJ.V.u.$X7.D.1X+X$X1XwXu.2.H.7.D.A.6.+XD.u.N.u.+X5X^.+Xu.].A.6..X5X] g.#X@X+X1XlXU.$.^.wX7X3XK.+X.X8X+X5XoXoX+X1X+X7X+X1X3X>X8XlXV.& A.pXL.u.A.f.g.a.&X{.%X#X%X.XH.^.H.3.T g.} ,.3.0.Q.g.f.A.K..X5X^.^.1X8XwX0X7X7X8XwX8XwX0X>X>X7X0X+Xu.g.g.~.%X$XW./././.&X].fX0XfXsXsX<XB.7XsXwX0X8XsXfX0XeXnXeX0XfX3XfXkXvXwXU.8X3XwX7XkXeXeXfXwXwXwXkXkX7XfXwX>X>X<X7X0X;X<X<X<X>X3X>X7X+X1X1X.X%X$X].].>XwX0XsXwXwXwXwXwX0XwX7X7X0X>X0X0X0X0X0X0X7X7X1X>X7XwXwX0X7XwXN.^.7X3X<X>X>XT.T.u.j.1X1X1X8X7X8X1X0X0XwX1X1XsXsX8X7X1X7X7XA.f.",
".X%X1X>XJ.A.1XK.].+X_.^.^.%X7.F.u.#.K.K.J.D.7.y.A.%X].6.A.5XA.~.A.y..Xg.p.!.5XjX].7X8XoXN.K.wX7X>X8XoX+X1X].K.hX+X3X>X3X3X>X].].7X1XkXT.a #._.A.y.#.d.4.j.H.H.pX5X.X5X^.^.d.t.3.2.j G W.{.H.W.H.6.K.1X8X5X8X1X0XfX0X3X0X7X0X7X7X7X7X3X7X0X>Xt.l.4.e./.%X/.%X%X5XlXwX>X>XsXwXlX7XD.1XwXwX0XsXsXkX3X0XfXfX0X0XfXvXkXkXkX3X0X8X>X0XkXfXkXfXfXfXfXeX0XfX0X0X>X3X7X0X0XT.`.T.3X7X3X>X7X>X>X1XpXH.F.+XK.3X0XwXwX0XwX0XwXfX3X0X0X0X8X3X0XwX8XsX8X1X8X7X7X7X3XwX0X8X>X>X>X>X>X3X>X>X3X<X<X%.m.].>XsX0X].1X8XbX0X1XfXK A.fX0X7X0X0X7XA.A.",
"%X.X.X].].+XoXK.+X~.^.^.~..X$X.XK.u.K.K.u.2.A K } j.p g 4.@Xf.3.h t.t././.pX5XpX8X3X>X7X>XD.8X0X7X1X3X>X+X8X+XsX8X1X>X7X`.U.].>X7X>XpXu.v v l S  .( ( ] Y } g..X.X%X%XH..XK.H.3.,.3.t.^..X/.^.f.H.].+X+X1X8XkXwX0X7X<X7X7X7X0X0X7X7X7X7XeX<X+Xf.h.l.e.e.[.pXeXeXfXkX>X3X0XwXwX8X8X$X5XsX8XsX0X0X0X0XvXvXwXeXfXfXwXkXkX0X3XsX8X0XeXeXkXfXwX0XwX0X3XwXwX0XwXwX0X0X3X;XT.T.3X0X3X3X3X3X>X+X1X].$X+X+X1X7XwX0X7XwX8X8XwX7X8XwXwX7XwX8XwX0X8X3X8X8X7X7X0X7X7X>X>X3X3X7X3X`.7X7X7X+XoXT.I.I.E.>XwX8X].>XwX8X0X7X0X`.].fX0X7XK.>X3X>Xf.",
"g.8X%X%X.XK.H.u.].K.^.^.^.H..X+Xu.$.6.#. .W.3.u.3.N 9 t.2./.W.w @ t.&X{.1X0X7X1XwXsX>X1X>Xy.1X1X7X3X+X1XwX1X8X1X+X7X>XY.Y.>X8X8XsXK.] l 6 6 N 2.d.( l K h : T lXpX8X5X+X^.t.f.a.H.g.g.d.{.f.].f..X1X1X1X8XkXwX7X7X3X3X;X>X7X7X3X0X0X<X7XwXeXfX3X]..XF.5X.X1XwX0X8XsXwXwXfXwX8X8X8X1X5XsX8X8XeXeXkXwXbXvXwXfXwXkXkXwXwXnXeX0X7X7X7X7X7XwX>X7XwXwX0X0X0X0X0X0X0X0X0X<X7XoXT.<X0X3X0X>X3X>X>X1X8X1X>X3X>X8X0XwX7X7XwX8XsX8X8XsX7X0X0X8X8X8X8X8X7X0X7X0X3X3X7XwX7X7X>X0X3X3X3X>X].>X;X-X;XT.T.oX7X8X0X>XF.5XwXoXwX1X8X0X>X6.H.f.%X].",
"p.H.lX8X5X5X^.u..X].W./.^.~.~.#.D.6.D p.3.pXlXsX1XV.K.~.2.h.R 0 +X8X+X5XsX1X`.oXwX1X8X8X>X%.].8X7XwX1X>X1X8X>XK..X8X7X>X1X].+X8X1XY < 6 p ] p.^.%X+X].S s A ^.8XlXsX].+X].t.4.W..XW.H.^.^.H.~.H.^.1X1X8XlXsX7X3X7X>X>XoX>XfX;XT.wX<X7X0X>X<XwX3X0X0XwXvXeXwX0XwXwX7XsXsXsXsX8XsX0X3X8X8X0XwXvXwXeXkXvXnXkX0XwXfXlX7XwXnX0X0XfX0X1X>X7XsX7X7X0X0XwX7X7X0X0X0X0X3X0X7X>X<X;XI.>X0X7X<X7X0X3XoX1X3X>X3X>X8X0X1X3XwX8X8XsX8X1X8XwX0X0X8XwX7X7XwXsX3X>X0XwX0X>X>X8XwX<X0XwX+X1XoXU.1XoX<XT.T.T.I.m.0XsX8X5X1X0XT.>XoX%XsX0X1X+X%X+X~.",
"pX].8X8X8X+X8X1Xf.~.H.Q.W.W.].#.7. .A 4.H.pX1X1X+X3X7X8X6.g N Y 5X8X8XwXoX].>X>X7XoXwX7X3XU.y.1X3X7XwX+X].oX .H.1X1X].6.A.~..X1X+Xh 7 D H..X%X5X1X>X3XD.D /.&XK.5XlXK.K ^.%X/./.^.@X^.~.%X^.^._.^.5X+X8XpXwXfX7X>X>X7X>X>XwX<XI.fX3X7X0X;XJ.fX<X<X0XeXkX3X<XwXkX8X7X0XsXsXsX8X7X+X5X8X8XfXkXkXkXwXvXbXfX0XwX0XwXeXkXvXwXwXkXfX0X0X3XwXwX>XwX7X0X0X0X0X0X0X0X7X0X7X0X<X<X7XT.T.fX>X<X7X1X7X7X`.`.I.>X8X7X8X8X1X0X8X8X8X8X3X7XwX0X3X8X0X0XsX1X3X3X7X0X7X3X7X3X7XwXwX3X`.].>XT.T.1X<X;XoXC.T.E.%.oXJ.%X5X8X>X1X7X0Xt.5XkX0X8X8XK.^.",
"5X8X8X1X8X+X8Xu.j /./..X+XK.].Y.7.A.6.H.^.pX+X.X%XoXoX+XD.c = H.sX8XoX+X+X8X>XoX3X7X7X1X1X0X+.K.8XwXwX`.`.7.] 1X>XK T 4.,.;.uXjXf.D d.+X+X+X1XsXU.+X].1X+XA..X%X8X1XY.].+X$X5X8X$Xt.^.^.%X1XK.t.Q.%X^.%X2X1X8X3X3X7X>X>X>X3X0XT.7XkX>X0X0XU.0XeX;X<X3X0XeXeX0XfX8XsX8XsXsX8X0X1X1XsXwXwXwXvXkX0XeXbXkX0X3XwXfXkXeXfXeX0XfXkXfXwX>X0X0X7X7XwX0X7X7X<X0X3X7X<X7X0X7X0X0X<X>XT.;XwX3X0X>X3X3X3XoXT.U.3XwX1X8XwX8X0X8X8X8XsX>X8XsX8X7X0X0X3X0X0X0X7X3X7X0X0XwXwX7X0X7X>X7X3X3X;X3X3XY.`.>X;X<X`.J.Y.].$XpXsX1X8XwX0X].1X3X3XwX7XwXsX",
"+X8X+X].1X%X+X].K..X5X+XoX>XA.7.A.K.f.f.A.+X1XF..X+X1X3X3X7.= ].iX+XY.+X8X>X1X>X;X1X1X1X1XJ.7.N.1XsX8X3X;X` ] f.w 5 s.e.U f.sX8X1X+XK.^.oX1X7X1X>X1XK.1X1X1X8X5X1X8X8XsXsX8X1X5X1Xu.^.2X1X1X1X+XH.W..X%X5X2X8X1X1X0X+X+X>X;XeXoX<XnX;X>XkX0XT.wX<XR.<XkXkXeXkXfXsXsX1X>X0X8X8X9X0XwXfX0XwXkXvXkXfXeXfXkXkX7X0XkX0X0X0X0XkXeXwXwX3X0XwXwXwX8XoX<X0X0X<X3X<X7X0XwX7XwX7X`.3X;X>XwX7X3X3X>XoX8X`.>X>X>XoX1X0X0X0X8X8X8X8XsX>X7XwX8X3XwX7X>XwX0X0X<X0X0X0X7X0X0X3X>X>X7XwX7X3X7X>X>X3X7X>X7X0X7.K.0X1X.X9X8X0X3XwX7XfXkXfX3XU.kXwXfX",
"K.].].+X].>X1X1X7X5X3XoXoX3XU.u.A.] f.#X6.H.%XK.+X8X].sX7.u.l _.5X+X`.K.1X1X>X7XU.+X>X6.]  .2.6.7X>X3XK.A.] A.h 9 p.W.s.zXwX+X>X+XY.K A.sX8X1X+XsXA.1X1X1X1XsX>X+X8XwX1XwXsXwX0X3X8X8X1X1X8XsXlXA.+X+X8X+X1X5X%X^.%X1XW.$XD.wX7XI.eX0X;XkXlXU.oX0X`.0XfXkXfXfXfXfXsX8X7X8X8XsXsX8XsXkXkXkXfXfXkXwXfXfXfX0X0X0XkXwXeX0X7XwXeXwX0X0XeXwXfX0X7X>X>X0X7X7X0X<X7X0X7XwX0X7X7X;X;X<X3X7X8X3X>X;XsX3XI.>X>X`.7X8X`.3X3X8X8X1X8XsX0X0X8X>X0X7X0X7X0XwXwX0X3X7X0X7X>XoX>X3XwX7X7X3X3X3X7X0X7X>X>X<X0X;XoX7XfX8X1X3X<XwX3X3XkXkXwXV.]._.].",
".X.X%X1X>X].+X>X+X8X7X7X`.;X1X^.K.[ V.| } ^..X$X8X+XA.$XA.+XA.H.].8X>X`.1X+X+X8X3XoX&.A.f. .5 t.5X>XoX2.6. .h f R l.{.8X7X7X>X>XN.$.].0XsXsX5X$X%XK.wX8X1X7X8X1X+X1XsX7X8XsXfX0XwXfX0X8X>X8X1X8XsX1XsX8X1X+X%X5X/..X%X~.%Xy.oXkX<XT.sX>X3XkXwXP.0XwX0XwXwXkXfXbX0X3XwXwXsXpX8X8X0XwXfXwXfXfXkXwXwXkXeXeX3X0XfXfXfXwX3X7XwX0XeX0XwXfXwXsX3X0XfXC.;X0X7X<X>XoX0X<X3X0X7X7X>X;X>X3X3X>X7X3X>XsX>XT.`.T.>XT.0X7X8XsX1X^.].7XkXwX3X7X1X0X7X7XwXoX3X8XwX0X7X3XoXoX>X7X3X1X7XwX0X7X0X0X3X0X<X<X3X>X<XoX7X0X3X7X0X7X7X0XfX7XsX| D A 3.3.",
"6.K .X8X1X].G.1X].1X8X+X;XoX].A.Y.Y.J.7.] N f.pX1X_.K.$X8X].T A._.7X8X+X].1X1X+X7X`.U.Y.A.D * j./.K.] t.j - h ,.s.p.&X1X7X7XoXA.7.Y.8XwXwX9X8X>X].8X8XsX1X1X8X1X%X%X8X7X3XsXkX3X7XkX0XfX0X7X1XwXfX7X8X5X5X%X1X5X.X.X5X>XY.oX>XwX0XR.>X>X7XfXnX`.;XkX0XfX7XfXfX0X].W.~.kXsXsX8X0XwXfXkXwXwXfXkXfX0XwXeXwXeXwXfXfXwX7X7XwX3X7XfX0XwXkX0XkX>XT.7X<X>X7X7X3X3X7X<X;X<X7X7X<X7X>X>X7X3X>X0X;X>XwX3X7XT.;X>XU.0X0X>X8X1XA.1X.X%X8X7X1X8XwX7X7X0X>X7X0XeX3XoXoX>X>X0X7X3X7X0XwXwX7X7X0X7XwXeXU.>X`.<X0X0X0X0XwX0XwXeX;X$.l 7 9 g.5XsX0X",
"7.D W.%X5X.X].8X].1X>XY.oXoXY.K.].K.K.^.~.] 6.].%X_.%X_..XK. .~.A.pX+X].oXoX1X+X1XT.[ v 6 : 5 R 4.4.T w * * U g.J p.=X+X1X>XN.6.].+X7X8XpX8X8X1X1X1X5XpX8X1X8X8X8X1X5X8X1X8XsX0X7XwXwX7XsX7X.X0XkXsX8X8XwX8X8X1X5X>X8X3X>X>X+X7XeX<X;X0XwX8XsX].;XwXwXwXwX0XwXoXW.f.H.hXfXfXeXwXfXsXkXsXwXfXfXvX0X0X0XwXfXwXwXfXwX0XwXwX<XfXwX0X0XwXwXwX7X<X<X0X<X<X0X3X0X<X7X<X;X<X7X0X0X7X3X0X7X3X0X3X1XwX7X1X>X>X8XY.I.3X].>X8X>X+X>X+X.X+X7X1X1XsX3X7X7X0X8X7X`.oX3X>XoX0X7X8X0X0X8XwX8X1X8X0X0X7XJ.oX>X7XeX7X>X8XwXfXkXnX( 0 4.j W.dX8XwXwX",
"7X1X6./.8X.X8X].+X8X>XV.U.>XY.+X1X+X].A.K.H.F.H.%X.X&XH.H.$Xf.A.u.5X( 7.].1X1X].U.@.g T K D Y 4 V s.3 * : } 3.5 * /..X8X7XoX` | +X]..X5XsXsX8X8X8X1X1XpXsX0X1X8X8X5X1X8X8X8XwX0XwX7XwX0X8XlXwX7XwXwX8X8XfXwX3X0X0X0X7X7X7X<XT.7XkXwXR.T.3XfXsXsX0X1X>XfXfX0X7X7X^.t.@XsXsXsXkX0X0XfXY.F.1XwXwXfXkX0X7XsX0X7XfXwXwXfX>X0X0XwXfX<X7XwXeX7XeX7X<X>X>X<X<X3X7X3X0X3X<X;X<X0X7X0X>XwX0X7X7X7X3X8X0X7XoX7X`.N.U.T.oX>X>X3X0X;X>XY.>XwX8X>XwX8X7X>X3X3X>X7XoXoX3X>XwX0X0X0X3X7X1X0X7X8X1X>X3X<X>X7X>X0XwX7XsXlX8XU.#.5 w g.Q.l.=XwXwXT.",
">X8X5XA.].1X8X>X+X5XH.V.A.^.^.A.].1XK.K.F._._..X_..X^.6.t.@X^. .V.%X[ A..XH..X].[ y.0 R ] = = . 7 w 9 d.3.T h X p.%X^.>XsXI.! @.+Xt.g.pXhX8XsX8XwX8X5XsXsX7XsX+X1X5X%X8X1X5X0X7X0X0XwXwXsX8X8X5X1XsXwX0XwXkX>X7X7X8XfXY.1X7X0X0X0XkX;XT.>XsXkXsXsX8X7XwXfXfX7XfX8X+X$XwXsXsX0XwXsX7XY.~.8XfXeXwXwXfX0XfXfX0XwX0XeX7X3XeX0X0XwX0XwX0XfX0X0X>X0X;X<X7X<X3X7X0X3X7X0X<X<X<X<X0X0X7X7X0X0X7X7X3X8X3X].oXC.Y.7XI.3X7X>X1X>X>XT.`.<X3X0X1X7XwX7X>X7X3X1X7X>X>X0X3X7X0X0X0X1X8X1X8X8X3X7X>X8X0X>X7X0XfXwXU..X/.w @ # N j.#X@X@XsX7XJ.K.",
"Y.>X%X%X3XwX>X].3XK.F.].u.H.~.d.].8X^.].L.+XH./.^.^.A.u.H..X.XV.U.+XU.V._.].+X`.( h V ,.T T p = l Y 6. .2.3.0 } pXU.Y.>X9X>XO.+.K.sXlX_..X.XpXiX+X1X5X5XpX+XsX5X1X8X5X2X%X5X3X3X0XwXfXwXlX>X6.1XsX8XsXwX0XwX0X7X0X7XfX>XwX0X0X8X1XfX7XY.7X3XkXsXsXsX1XsXkXkX0X7XsX0X1XsXwXkXwX<XwX0X3XwXwXwX0XwXeXfXwXfX8XwXwXwX0X<XwXwXwX3X0XfXwX0X0X3XeXwX3X<X<X3XwX0X>X<X>X0X0XwX0X3X3X7X7X7XwXwX3X3X7X7X3X>X1XY.I.>XwXT.>X>X;XY..XK.K.oX1X3X`.3X3X0X3X>X8X7X>X7X0X3X0X8X3X8X0XsX8X7XwX7X0X7X7X3X7X8XwXwXwX`.K : 5 t r 4.^.5X1X$X$X8X1X+X1X^.",
"#.7XwX7XfXwX>Xt..Xd.^..XH.^._.K.5X].+X7Xu.N.K.^.^./.H.6.].+X%X+X8XJ. .[ +XK.D l 7 H.@Xt.t./.6.H.^. .] S p./.t.uX0XR.T.].1X3X&.&.1X8X8Xf.W.^.^.4.f.pX8X8XpX1X8X9X5X8X1X5X%X7XsX3X0X0XwXfXwXwX>X>XwX0X7X0X7XfXfX3XkXfX0XfXwXkX<X>X3X7XsX+X>X7X0XwXfXwX8XsX1X+XfX7X3XsXkXsX8XwXfX7X7X0X>X7XwXwXfXfXwX0XwXfX3X8X7XwX>X7XfXfXeX7XwXfX<X>X0X7X7X0XwX3X;X0X0XwX3X>X>X7X0X<XwX0X7X7X3X7XwX3X>X3X8X7X8X7X3X>XoX>X8XI.oX`.>Xm.i.t.f.].3X>X+X7X3X>X0X7X>X0X8X0X3XfXsX3X3X8XsXsX8X1X8X>X8XwX3X1XwX8XwX>Xp o # e.4.l.=X8X1X8X1X+Xg.^.].+X8X>X",
"F..X1XwX3XwX>X2.{..X.X{././.%X2X].K.oXY.U.>X7X+X+X6.].>X.X.X.X~.pX] K ].A.l D G } oXl  .f.]  ..Xl N 7 h ,.{.W.sXfX>XU.>XwX>X;XJ.]._.@X.X.X_.d.g.{.2X].+X5X8XsXsX8X5X1X8X1X8XwX7X0XeX0XwXeX0X0X1X0XfX3X0X0XfXeX0XkXkXwX7X0XsX3X7X3X3XsX8X>X7X1XwXgXfXfX3X8X$X7XwX3X0XkX7XwXeXwXwX3X0X3X7X0X0XkXwX0X0X0XwXeXwXwXwX3X0XeXwX7X7XfX0X;X0XwX3X0XeXwX;X<X;X7X0X0X0X7X>X>X7XwX7X7X0X;X7X0X7X>X7X7X0X3X>X7X>X+XoX>X>XY.Y.>XI.[ 6.t.d.%XoXoXwX8X>X3X7X>X7XwX7X7X7XfXwX7X7XsXsX1XoX7X+X8XsX8X8XsX1XlXm.@ J !.@X.X%X+X1X1X8X1X].%X.X].'.u.^.",
"H.H.sX0XV..X~.a.Q.@X%X/./.^.^.+XA.].U.`.>X>X>X7X+XU.D.A.1X8X+XF.%Xu.d.5X[ 6 7 f.%Xz 0 2.W.S T F.0 7 0 R p.#X^.%X8X8X3X0XwX0X7XU.#.^.^..X.X%X+XA.^.@XH.H.5XlXsXsXsX+X1X8X8XwX3X7XwXfX0X0X0X3X>XwXeXwXwXfXwXfX0XwXwXwXsX3XfX8XfX7X7X>X>XsX8X>X7X8X1X8XwX0X0XsX1X8X7X8XfXwX8XsX0X7XwX>X3X>X+X1XkX1XwX0X1XwX7XfXwX<X0XfXwX0X3X0X7XwXwXeXwXwXwX0XwX0XoX<X>XwX>X0XwX0XT.<X0X7X0X7X7X7X0X0X0X0X>X1X>X7X7X>XU.`.>X`.+XoXY.>XU.#.b N /.K.`.7X7X7X>X7X7X7XwX0X8X7X8X7XsXsX7X1X8XU.7XsX8X8X8X1XsX1XsXU.s .XiX9X1X8X1X8X8X~.].].+X^.g._.+X8X",
"_.H.7X0XF.t.g.6.H.pX.X^.$Xf.^.+X+X1X+X`.oX>X0X`.K.6.c u.8X.X+Xu.1X7.{ &Xy.| ] 3.^.A.K J J D N R : 0 g.@X2XsX0X1X+XK.+X1X7X+XD.K.d.F.%X.X+X^.2XK.f..XW._..XlXkXfX>X3X1X8XsXsX0X>X7XfXwX0XwX3X;X7XwXwXkXvX0XwXeX0X7X3XsX8XfXkXsX1XoX>X3XkXsX8X].J.1XwXkX>X8XlX7XsX8X3XkXkX0XsX0XoX8X0XoXA.6.] 2XsX7X9X8X7X7XwXwX`.3XbX<X3X7X0X0XfX0X0XeXeXeX7X7XwX0X0X0X7X0X<X>X0X7X7X7X<X7X0X0X7X0X3XfX>X>X7X3X7XoX`.U.`.+X`.>XY.>XU.R.C.1 7 g.K.>XfXfX0X7X7XwXwXwX0XwX8X8X3X7X8X1X+X7X8X1XkX+X+X8X>XsX1X3XK.A.8X8X8X8X8X5X+X.X.X].].H.f.f.1X1X8X",
".X%X0X+XQ.a.t.F.iX8X.XH.8X].Y..X5XsXD.u.Y.>X+X$.K.#.g l f.H.%XK.1XN.#..X.X%XY.6.5X6., s : 0 R U 9 V %X8X7XwXwX0X>XJ.K.6.d.H.].K.K.].+X+X+X.XH.H.H.H.H.%X.XsXlXfX3X1X8X8X7XsXkX8X3XsXJ.7X>X3X3X0X0XwXkX0XwX0X0XwXwX0X8X0X0XlX7X8X>X7XwXsX8X1XY.oX`.8X8XwX7X7XwXkXwX0XfXlXK.f.^.f..X+Xu.u.H.D g.pX1X%X8X8XY.oX0X0X3X3X+X1X0XeXfXwX0X>XwXfXoX0X3X7X0XeX3X7XwX>X7X3X7X0X;X>X3X0X7X>X0X7X3X<X0X<XoXD.J.>X`.N.>XY.C.oXK.K b h .   N K 6.t.3.%X8XwX0X7X7X8XwX1X1X7X8X1X3X8X7X7X1X5X>X>XsXwX8X1X+X7X1X1X1X7X8X8X].H.K.+X+X3XA.6.].1X8X.X",
"+X].+XF.{.g.3._.cX5X.X_.1XV.A..X2XpX7.U.+Xy.oX.XK.u.1XD ,.p.g.%X1XA.K.+X.X+XK.+X^.3.q & 6 T W G J V iX0X>X>X8X0XoXK.].3.H.f.W.~.H.].$X$X%XK.f.H.F.3.^..X^.%XsXsXsX7X8XwX3XsX0X .h @ f 8X7X1X8X1X].1XkXwXeXeX0XwXwXfX3XfX7X_.8X8X8X>XsX1X+XwX].G.A.].+XfX7X>XwXkXwXfXwXwX6.W./._.W.^.f.H..X.XF.^.%X.X%X+X>X7XeX0XwX3X3X>X>XfXfXwXfX7X0X7X3XeXwXwX0X0X0X7X7X0XwX0XoX;XoX<X7X7X0X7X3X1X3X>X3XU.J.Y.`.N.K.Y.U.7.N.u.K 7.k l 0 ] ].+XY.K } A.+X1XwX7X7XsX8XwX0X8X8X8X1X7X0X8X1X8XpX>XsX1X1X8XoX8X>X1X>X7X7X1X1X].Y.U.].+X1X1X+X].+X%X",
"F.F.@X/.^.f.p..X5XpX.Xp.^.+XY.A.8X5X+X8XU.+X+XpXK.] +X( f.5X6.+X1X8X+XpX].] A._.u.g. .= 6 R 1.<.J 2X8X3X+X+X8X7X8X7X`.].K.6._.~.].+XK.].1X^.H.K.u.H._._.H.5XsXwXlX0X0XsXwX1Xh @ 0 j ,.Q.8X7X].^.{ 2.8XbX7X0XeX0XwX3X+X1X7XoXkX8XsX1XoX>XY.sXu.} H..X8X7XwX7X`.wX9XkX>XwXK..X%X^.^..X.X^.$Xf.^..XH.^..X^.sXeX0XwX7XK.+XU.d.sXkXsXwXwX3X7X0X7X0X0X7X7XwX0XeX<XI.;X<X<XwXT.<X0X<X;XJ.3XJ.;XI.`.>X`.I.D.Y.[ ( ( ] K S  .| i.g.dX7XwXBX`.<XkX>X].1X7X8X8X7XwX8X1X3XwXwX>X1X5X8X8X%X8XsX8X0X0XoX0X`.].+X1X1X+XwX>X].+X+X1X1XK.K.~.H.F.",
">Xd.@X/.g.p.^.2X.X5X%XF.^.%X+XK.8X7X>X>X8X].].8XU.S ].[ 6.1X>X].+XpX) _.H.] 3X+X1X1X1XN.V.] ,.,.f.lXsXU.3X1X7XwXfXkX3XK.^.f.A..X+X.XK.].].%X^.1X~.f.^.^.+XkXwX0XlXwXwXbXC.7 s r.^..XF.H..X+Xf.^.K.} $XpXt.1XfX0XwX<X>X>XoX0XlX+X.X].6.D.u.1XA.t.K.^.H.+XhX7XN.8X0XsXwXK.F..X%X/..X.X%XT J t.@X%XH.]..X/.%X1X1XsX`.K.8X7XwX0X0XwXkXwX3XwXeX3X<X0X0X0XwX0X<XU.oX;X3X<X0X7X;X>X>X;XI.oXoXT.>X>X&.T.V.V.) c ( S b A.].oX>XG..X8X0X0X0XeX7XwX7XwX>X8X1X8X8X8X%X+X>X7X1X1X8X8X+X%X8X8XsX8XfXnX0XJ.D p.d.^.1X1X7X0X>XK.]..X+X.XK.K._.d.",
"0Xu./.W.^.f.sXK.~.5XwXJ.].$X>XsX+X+XoX1X8X`.Y.`.`.! D.| v %X8XJ.#.5Xu.F.6._.1Xy.1X+XsXfX8XoX6.6.7.7XNX| Y.sX7XkXsX3XkXY.]..Xf.f.%XK.K..X^.].~.+Xf.^.K.1X8XfXwX0XfXwXfX>Xm { .XK..XK..X^..X].f..X1X$X.X2Xu.8X0XwX7X>XoX7XT.+X+XK./.^.3.u.i.^.].f.A.K.f.H.8X3X;X+XsXwXlXK .X5X%X.X$X%X.X} p./.^.~.H.%X>X^..X^.^..X+X`.0XkX0X0X0X8XfX0X>XeXwX>X<X0X0X0X<X7XoX0X<X3XwX0X;X3XI.T.Y.>XC.oX<XT.I.&.I.Y.@.) c b ( [ 6.7XwXwX;XY.9X7XwXwXwXwX0X0XwX7X1X8X1X8X8X%X].2X1X1X1XwXwX8X8X+X+X1X8XsX>X] h.C # @X+X.X5X8XK.u.+X+X+Xu.6.].7X+X+Xf.",
"wXu.Y /.$X1X5Xu.K.%XNXc.V.sX+X5X1X+X+X7X7X1X7X>XN.V.c./  .5X5XA.u.5X.X~.f.^.pX+X1X5X+X8XpXK.m.[ n K.BXU.+XlX8XpXlX7XwXeXU.u..Xu..X.X].^.F.^.^.^.].^._.sXwX8XkXwXwXbXN. .+X~._..X^.K.f..X+X.X_.%X.Xf.1XW U sXwXeX`.`.>XU.%. .^.$X^._.[ u.u.6.^.~.K.A.3.H.+X1XL.].8XsXzXK.Q.%X5X%X.X5X&X.X.X^.f.t.6./.5X%X].^.^.H._.F..X9XwXkXwX7X0XwXwX<XwXI.7X0X<X;X>X0X;X3X0X0X<XT.I.T.;XC.I.T.Y.`.oXN.m.T.m.) @.K s S ( 1X>X>XkXwXoX].wXwX0X7XfX0X7XwXwX3X7X3X5X1X5X+X1X3X8X+X+X1X8X8X0X1X8X9X1Xu.9 3 F :./.$XY.K.^.^.t.K.].+X].K.~.H.].1X^.} ",
"F.D 4.=X{..XpX1XoX1XlXU.N.1X8X].sX8X].>X7X>X1X1XY.D.&./ A.%XfX) 6.]..X+X8XA.1XpX^.2X+XsX8XV.Y.`.&.oXlXwX8X8XwXwXkX8X3XwXI.A./.H.]..X+XF.u.H..X.X_.~.%X7X0XwXwX`.sXJ.k .X^.H.].H.].K.A.].+X%XK.J ,.W./.4.g.Q.g.$XoX].`.D.| #.^.5X/.A.F.6.] 6.f.A.g.t.] A.3.^.f.%X1X8XhXf.4./..X5X%X@X2X^.^.~.F.%X7X1X^.f.g.].1XF.W.t.p.W..X.XwX0XwX7X7XU.0X<X0XT.T.0X<X>X3X3X0XT.%.T.T.I.C.c.Y.`.I.`.D.V.J.7.] K / k [ K.`.0X8X8X5X8XA.+XkXsXwX0XwXwX7XwX7X1X8X8X8X2X1X8X8X5X1X1X].7X8X+X8X8X1XlX#.O H >.R *X8X8XoX%.6.} H..X1XK.u.K.U.K.+X1XK.3.",
"4..X_..XW..X%X8X3X>XsX>XoX>X8X8X0X8X3X+X1X7XY.`.8X`.O./ N.1X+Xm.U.A.8X8X3X.X_.uXK.8X8XsX].J.`.<XI.C.+XwX8X2X8XY.].8X0X0XU.+X6.u.^.%X.Xu.].^.1X1X1X1X0X8X0X7.D } t.t.6.H.A.^.u. .].A.K.%X+X%X6.N ^.W.W.j.s.g.E e.j.H.u.A.6./ u.%X.XH.F.] K T  .f.^.1Xu.v A.+X+X.X} ^.pX+XW..X%X5X#X@X5XH.4.%Xp.^.1Xu..XW.^.+X4X6.^.~.H.g.g.Q.%XsX1X<X0X0XfXT.V.Y.N.J.].3X>XoXT.` D.>XU.B.c.U.;XP.b.D.&.V.| n b b l ] Y.3XwX0X>X8XK.u.N ^.sXfXwX8XwXwX7X1X1X].1X1X8X2X.X%X#X%X%XK.+X1X+X].1X1X%XA.0 h 0.%X9XwX>X1X8XC.c ^.~._.sX+X].2.] u.K.].+XK.",
"f.W.%XF.H._.%X%XwX3XwX1XU.<X+XlXbX3XU.1X1X8XU.T.>X1Xm.@.A.1X+X8X3X`.+X+X8X+X1X+X8X5X2X%XK.+X3XU.R.T.>X>X7X1XG.+X].+XwX>XT.`.H..X_.^.].+X+X8XY.<XkX7X>XfX7Xs K t.t.g.6.f.^.K.K D l K sX.X/.%X.X]..Xt.F..XW.j.g.<.t E C U w J f..X.X^.H.6.S D ~.%XA.F. .6.8X.X.X.X .%XjXxXjXpX.X&X@X#XpX%X^./.g.j.W.1X+X^.p.^.H.f.W.H.H..XK.f.%XlX3X<XoX].>XT.6.u.t.t..XwXb./ J.m.T.C.I.m.B.D.C.O.` m.) ) S ( h h ] 5X1X>XkX7X7XwXy.w 4.%XsXfXwXsXkX1X].>X7X1X1X1X1X8X2X{.@X@X5X^..X$X1X+X+X+X.Xf.^.^.K.+X+X8Xu.6.].+Xm.U.1X1X8X+X8X1X1XA.6.] .Xt.",
"7.p..X3.F././.W.1XsX8X8X+X1X+X5XlX1X~.1X3XsXI.b.>X+X7.] K.A.+X7X0X;XK.^.sXwX7X+X+X%X1X+X+XoX1X1XT.%.;XoX1X1X1X+X.X5XwX>X>X>X1X1X2X^.].8X>X>X`.Y.fXwX>XkX`.= g t.T 2.t.f.f.N : h ] 5XpX^.^._.^.^.H.T .X+X^..X^.t.e.a.j.g.<././.%X^.2.^.u.k h d..Xf.^.%XH.t.j.K.5X5X%XsXxXlX+X%X%X5XlXu.W././.H.a..X+Xd.2.W.W.H.H.H.g.%X8Xu.6.^.1X].V.V.+X3XoX>XJ.A.f..XU.+.V.Y.T.7.U.I.&.m.) / ! ) ( S K c c ( K.7XwXsX>X0X0XwX0X( ,.|.5XsXfX8X7X8X+X3X7X1X%X%X%X.X1X%X%X%X%X_.%X%X+X^.^..X]..XF.].].+X]..XK.K.].+X]..XJ.D.K.H.A.K.L..X6..X].K.6.",
"^.F.f.f.^..XH.^.sXsX8X5X%X%X%X%XpXpXpX+X%XpX`.g p f.] 2.^.H.+X].8XU.A.+X>X.XK.].8XpX.X].1X`.;X>X].y.Y.>X+X>X`.+X1XwX3X`.`.7X3XwX7X8X8X0X0XP.P.>X0XfXwXkX7.o & J 3.} f.t.J 0 t.^.+X9X5XA.T H.W.j.W.4./..X].%X].^.^.^.%X+X1X%X~.5X6.R 1XU.( u.7.+X1X1X.Xf.t.g.| 1XsXlX8XsXsXt.%X^.&X.X] ^.{.g./.j.Q.%XH.f.&XpX%X^.~.].7X] f.H.f.a.^.A.].1Xm.J.8XY.D.D.>X%.I.J.$.C.U.I./ ! +.! O.! ( c v n #.y.>X7X8XkXkXV.0XwXwX0XN.6.Q./.pXsX3X7X>X+X8XpX_.W..X_..X^.W.$X8X1X+X1X1X7X].+X1X].%X].K.A.].+X>Xu.].+X>X+XK.+X>Xy.t.u.K.^.H.J.].wXK.6.",
".X%X^.t.f.^.H.8XkX7X8X5X5X%X.X.X%XdXK.f..X%XV.X   * ^.1X+X1X].`.7XkXI.>X0X7XJ.].5X%X%Xf./.+XC.oXU.1X>X`.1X+X>X1XwX7X>X0X>X>X0X<XwX7XsXfX`.B.C.<X0X7X0XvX%.o 2 q T t.A.} A.^..X+X+X5X.X} g.f.4.j.p.0.H.%X1X+X%X+X+X+X1X8X5XA.].pXL.~.^.1X1XD.n ].8XY.A.8X+Xu.J pXjXf.K.8XK.1XsX8X.XH.MX.Xg.g.{.%Xg.$X#.6.@XpXsX%X+XwXY.T H.F.f.f.^.u.K.K.U.].K.oXm.V.+X7.m.@.C.m.O./ m ! K | ` O.a S ( D.>X7X>X0XsXkX0X>XeXwXfXkXN.W.$X%XhX8XwX7X3X8X5X%X/.j.$X8X_..X+X+X+X1X].K.%X4X8X].K.+X].K.1XK.A.8XK.K.+X].1X.X].K.K.C.S ^.H.K.K.].i.K.1X+X",
"H..Xd.f.H.H.+XsX8X5X9X8X%X/.0.{.$X#X=Xt..XD.7.6.b 6.].+X7X>XY.>X>X1XU.`.fXkXT.].+X_.!.H.^.+Xm.U.>X3X7X1X>X+X8X3X8XsXC.7X`.+XwX<X3X0XsXkXI.c.;X<X3X>X0XbXU.& & $ 9 a.f.^.u.3.f.f.3.{.g.T N J 3.a.0.a.^..X.X.X%X.X+X1XpX5XH.H.1X1X.X].].iXlX%./ ].sXu.G.8X8XA. .$X#Xj.%X]..XhX8X^.3..XsXuX.X@X5X9X8X8Xu.H.pX8X5XH..X_.+X^.u.u.f.d.t.~.^.u.t.3.f.+XD.7.D.K.%.O.%.n / ` ! c ] ( S h l 7X8XC.>X7X3XwXsXsXwXfXfX0X>XA.A Q.5XsX0X3XwXwX8X8X$X5X2X+X$X5X%X_.$X].f.H.K.].H.H.+X1X^.f.6.6.K.A.u.A.K.H.A.K.1X].K.K.X.t.N.f..X1X1X].].K.1X+X",
"H.^.A.W.g.1X5X8X7X8X8X5X5X%X%X5X%X&XcXuX@X.X .^.+XY.J.A.1X1X].`.`.oX7X7X8X7X1X3X>XK.^.#X/.2XU.b.>X1X`.>X0X1X+XU.8X1XY.wXwXY.7X0X>XkX>X8X0XT.;X;X>X>X7XkXN.% & & & N ,.C 3 9 R T T g.V V R 4.@XD t./.%X^.$X.X+X.X+X.XhX+XK.%X8X8X.X.XdXoX9X`.Y.1X+XY.1X5XA.] f.W./.{.^.} .XpX%X,.Q.%X^.Q.{.|.@XpXlXsX5X%X5X5XK.d.d.3.g.1XJ.] f.t.A.f.6.A.d.t.f..X[ u.u. .n ! ^ #.m.) n c S c  .6..XsX8X@.oXwX0X0XkXfXwXwXwX7XD.H.@X.XwX3X3X0XwXsX8X8X1X5XsX5X1X%X_._..X$X1X~.K.].K.+X1X]..X^.A.u.t.H.K.6.y.u.].].u.6.A.].3.A.lXN.u.8X1X1X>XU.].>X",
"W.H.^.H.W..X+X8X8X8X8X1XwXlX2X$X5X2X5XiX/..X$XJ.f.u..X+X.X%X^.].`.>X>X>X1X+X1X+XY.].+X8X8X1X+XD.J.%XY.].sX3XD.`.fX7XsXkXkX>X`.0X>XwX+X3XfX0XT.`.>X>X3X0XJ.6 > & $ o 5 C J 3 C t V e.U g.g.W.J 0 H.@XW.R R Y f._.5X5X8X1X+X1XpX1X1X8X1X].8XfX0X>XV.1X5X].] H.H.H.g.#X^.6.t.H.pX.Xa.W.a./.W./.@X@X#X5X8X8XjX.Xf.K. . .t.f.6.K H.3.6.T } .XA. .H.u.3. .K D n a D ) a c x < $.U.oX`.7X7X].oXfX0XwXsXfXfX0X>XwXY.u.sXsX1X0X>XwXsX0X2XsX%X^.2X1X.XH.].+X].].+X1X1X^.+X].+XA.oXH.f..XA.A.G.u.u. .Y.].K.A.u.6.f.u.d.%X`.6.+X+X+X7X+X].3X",
".X~.f.d._.^..X1X9X9Xf..X5XjX6.,.uX1X$X%X5X8X8X].u.].K.H..X+X/.^.U.1X].].1X1X9X>X`.>X`.sXkX>X+X+XU.+X+X1X1X>X+X+X0XwXwXwX7XwXT.>X3X>X0XwXkXkX-Xm.<X>X3X7X>Xa < 1 c 6.3.Q..X^.l N C j.j.p.a.W 5 ] %XW.w w a.V g.%X8X2X1XsX8X+X1X8X+X1X%X+XNXkX>XD.K.1XwX].] g.t.H.^..X#Xg.p } pX^.T Q.g.W././..XQ.#X#XpXlXxX.XA.K.K.u.A.6.3.d.+XA. .t.g.3.l K ] D  .a g g k < : * * : : z F.A.K.8XwX7X>XwXwX7XwXsXeXwX7X7XvX].~.lXfX0X>XwX8X5XsX1X8X%X1X2X%X_.].%X5X+X1X1X1X].+X3X+XA.K.K.A.u.K.A.A.G.u.u.] u.i.A.].u.A.u.u.+X%X].+XK.].+XK.%XK.A.",
"].].A.K.+X]..X]._.J 3 ;.W e X W @X&X5X%X5X1X1X+XA.K.%XK.$X5X+XU.K.+X.X1X3X0XoX+X1X0XD.+XsXwX>X+X1X+X>X1X$.U.U.K.5XkX0X1X8XwX>X>X7X7X<X<XwXkXfXC.I.3X3X7X7X( 1 x | F.%X+X2.N : 4 V {.!.R U 0 - <.].D 0 t.H.H.5XpX.X+X5X5X%X5X+X%X+XA.$X8X8XK.U.Y.>X+X1X| J 4.H.^.@XW.g.W.p.j.Q.^.3.j.{./.{.p.Q.&X@X{.dXlXiX%XK.S  .u.G.A.+XY..XwXT. .3.g 0 H V r A 6 , 0 = = h T 6.K K f.f.H..X1XwX3X0XwX7XwXwXfX7X0X0XkXsX .a.lXeX3XwXsXpX1X8X+X5X5X1X%X2X5X$X^.K.K.1X%X8X1X+X+XA.^.H.u.t.A.1X].T  .H. .T ] ..u.6.] u.+X].8X+X+X1X>X].oXH.^.5X>X",
"V.K.Y.].K.} ~.F.f.J 3 r E 3.A p.j.p.%XiX2X%X$XsX].H.+XA.].5XY.oX+X1X>X3X>XU.G.%X7X].#.K.8XsX>X1X%X].+XK.#.D.3X>X].8X8X7X7XwXsX>XoXwX;XT.3XfXkX3XI.<X3X7X0XU.c  .f.a 6.f., , D f.#Xf.<.4.f N f..X] 6 : } 5X5X8XsX1X].5X5X5X%X%X.X.XF._.5XH.W.8X`.>X7X3X$. .~.^.$X].6.4./.H.W.l.Q.] ^.W.W.Q.t.} W.3.W.pXpXW.W.3.b r.H.K.K.oX} 3. .h T K D ,.t.6.] Y v g K S ] f.6.v ( u.A.A.^..X].7XwX0XwX0X0XwX0X7XkX3X1X1XN /.lXfXwXkXfX0XsX.XW.5XiX8X8XsX+XF.K.2.].K.1XsX8X+X.XA.3.].F.] 3.H.].i.6.H.] }  . .6.3.t.t.A._.+X7X0X>XK.].J.>X].i.+X",
"].C.( 7 0 } 0 ] .XH.A g.@X*XdXpXH.3.J ].pX@X%X.X+XL.u.].6._.K.>X1X7XoX].A.6.%X.X+X+XH.K.8XwXoX1X1X+X%XK.V.1X>X`.+X.X+X1X8X1XwXfX`.>XeXoX`.7XwXwX0XT.0X>X>X>X7XJ.D < b Z 1 a 6..X@Xj.] N 5 a.=X/.K 6 h f.H..X.X8X1X.X+X8X+X.X5X%XH.Y ^.%X5XH.$XsX3X`.8X].] f.^.@Xf.3./.1X].2X~.5XH.g.H.g.f.j.3.p.g.{.5X.X5XjXf.u.].].+X8X7.6 J U p..Xu.T ^.D l ] K ] ] 6.6.[ v K  .2.F.K..X+X+X1X].wXwXfXwX1X7XwX0XsX`.7X#.V uXsXkXfXwXsXsXsX9X8XsX8XsXsX1X^..X8X].1X].+X%X5XoX].G.A.u.K.6. .K.f.H.F.t.3.} N } r.6.u.6.A.u.H.].K.+X1X8XG.Y. ...t.",
"1X@., @ 6 F.} ^.{.p.@X&X%X%XpX9X.X&X.X} U g.%X.X%X^.H.].K.A.H.+X8X>X#.$XK.K.hX+X+X1X_.H.%X0X`.%X1X1X+XoX`.>X8X;X>XoX`.7XsX7X7XfX7X>X7X7X;X>X3XwXfXT.;X0X>X3X7XfX%.< n l 6 1 } /.d.p.w h A 0.a./.t.t.]..X6.0 0.pX%X.X+X^.^.%X5X.Xt.f.H..X9X/.%X5XA.3.H.A. .6./.H.j.H.8X8X8X$X%X8XF.p.@X.X~.F.t.Q.j.l.%X5X2X5XK.+X1X1X+Xv 7 T t.W./.H.K.Y H.g h W.u.] K ] K K D 6.t.d.~.H._.1X.X>X8X8X0X3X7X0X0X0X3XsX7X$.w W.pXsXkXlXsXsX5X1XsXpX8X+X1XsX8X].sX].A.3XK.H.i.K.u.A.].3.6.H.K.6.d.t.H.F.K.} f 3.} 6.K.K.J.A.6.K.].K.u.A.+X.XH.| 6.F.",
"1X$.7 & $ #.dXpX.X,.Q.5X@X.X8X8X5X%X5X%X,.r e.@X^./.$X1XK.K.+X].8XJ.`.5X].].1X1X].1X+XU.+X>XY.1X+X8X+X>X7X3X7X>X`.T.>X3X0X7X3XwXsX>X>XwX3XoX;XwXfX3X>X0X>X+X7X7X8Xa 1 S K ( t.d.A N g.W.d.H.0.4.@X5XK.K.].6.T /.5X%X+X_.%X%XN } 8XA.t.3.f.@XpXW.g.Q./.f.t.3.Q..X^.8X8X+X]..XpX8X] p.g.g.p.W.^.^.j./.%X$XH.$XpX7X1X].D 0 3.H.H.K T @XV.l t.g Y W.v q D K ] 6. .6.^.H.p.H.^.].8X8X0X>X7X>X7XsX0XwX7XwXV.j .X8X8XsXsXsXkXkX7X9X9X8XwX5X1X8X1X>X7X+XA.t.D +X1X>X^.K.K. .A.K.+X} u.u.t.~.A.f.Y T ]  .] J.K.6.K.A.H.].].J.^.f.u.]. .^.",
"sX7X[ , . u.uX&X5X.X{.5X.X1X+X+X5X%X.X%XuXg.U J V ;.4.2.K 4.,.y.} %X%X5X+X].%X1X].+X+X].J.>X1X>XY.7X0X3X>X+X+XoXoX>X7X7X`.3X7X8XwX8X3X1X0XY.>XwX0XfX<X;X<X>X7X7X8XoXp 1 $.].N T F.u.3.2.^.] ,./.+X^..XA.+X+X7.6.^.8X+X+X].A.7 4.jX3.t.K t.pX2X.X^.H./.~.t.t.W.%X%X+X+X+X1X1X+X] ,.W./.W.F.Q.f..X.X.X.X} W.5X1X8X+X#.v 3.F.~./.D ] #Xl 0 ,.2.R R z N d.t.6.d.d.~.f.u.F.^.~.^.%X1X>X3X8X3XoXwX0XwX7X3XZ t.lXfXfXkX9XsXsXfXfXsX8XkXkX8X1X8X+X+X1X+XK.N.K.i.A.7XsX+XK.^.+X+X1X6.3. .u.K. .K F. .6.6.u.u.].+Xf.A.N  .+Xu.A.u.u.f.u. .",
"$X>X7.c a ] .X%X%X@X{.5X5X$X.X.X5X%X$X5X%X%X_._.^.g.3.D 7 : @ o   R 5X5X.XL.$X$X].+X^.H.].>X>XwXoX+XwX1X`.K.^.G.].oX8X3X>X>X>X0X7X0XeX>X0X8XoX<X0X3X>X<X>X0X>X1X7X7Xv 1 ! A.K d.^.%X] ] d.3.%X.X.X%Xt.H.^.] A .X~..X5Xb - W.~.5X%X].H.6.~.^.5X5X.X^.H./.H.f..X2X^.%XwXf.^.7XK 0.|.Q.3..Xu.4.3.6.,.a.j./.5X%X].+Xt.K.H.f.W.H.f.} 6.j.} K {.H.] 3.u.d.A.3.d.F.W.d.6./.H.^.^.K.U.u.+X3X>X0X>XkX>X7XVXV.N /.sXbXkXwXwXsXkXfXbX8XwXkXkXfX8X0X1X1XoXoX].oX].H.A.oX7X+XA.K.K.H.d.H. .] A.6.] K u.} 6.f.f.u. .L.} A.f. .u.].Y.^.A.T  .K.",
"A..Xd.] 0 . g W.^.@X.X1XiX.X%X1X$X5X8X5X1X1X].1XK.H..X1X ., % % o K 1X.XK.%X+X]._.5XK.`.+XoX1X>X>X>X>X7X>XK.K.+X3X>X7X>XwXoX;XsX1XoXkX7XoX8X0X>X>X7X0X<X<X<X7X7X7X0Xg & u #.d.A..X_.%X^. .] .X%X/.^.t./.H.f.A.%X1X]..X] h .X].].%Xf.f. .] p.W.2X%XF.] W.Q.f.%X/.%XsX0X^.%X1XJ W.8X6.h Q.J : N J p.3.j.&X+XK.+XY.oX1XsXt.4.^.t.t.3.6.t.3.f.f.K f.f.t.t.6.~.H.F.g.j.W.W.f.t.F.] } 5X+X1X8X3X<X].1XkX7.R pXkXkXsXkXlXkXkXsXsXkXsXsXwX7X3X7XsXwXU.K.L.A.7X+X7XwX.X1X3XK.6.Y D } J l A.6.t. .3.T u.3.A u.t.A.f.t.t.K u.1X].+X.Xf.K.].",
"1X+XuX] . Y 7 j 5X#X&X$X5X$X$X8X5X8X1X1X1X2X$X].H.3.p.F.].K. .u.F..X] f.+X$X+X`.+X3X+X`.T.>X>X>XwX].A.%X3X>XY.+X3XoX7X>XY.D.7X7X8X1XwXsX>X3X0X0X;X>X0X7X0X>X>X0X3X7Xh > y $.H.F.H.H.f.f.} 6.^.~.^.^.t.F.H.W.^.%X+X.XL.%X8X].K.+X+X5X+XA.H.$X5Xu..X,.J .XH.t.%X5X.X8X0X1X^.T U @X1X>Xg J j N U Q.3.U p.Q.p.} j.^.].K.g.j.j.Q.^.].2.3.3.} ^._.3.4.2.H.F.~.H.H.f.F.t.4.s.t.6.6.T 3.&X.X+X1X>XU.1X+X^.] g.pXwXkXkXlXkXfXsXkXlXsX+XsXwX7X7XwXkXfX3X`.7XY.+XoXoX1X7X+X].u.K.u.T ] r.i.A.K.t.T K A.].T Y A.A.f.H.2.u.t. .K.%Xf.] f.} f.",
"8Xf.N : v 3.z K Q.{./.@X1X1X+X7X7X8X8X`.+X+X8XK.f.K.K.%X.X^.A.A.f.A._.^.A.^.%XA.K.+XK.Y.`.<X7XwX0X>XJ..X8X0X<XJ.K.K.F.N.m.>X3X8X3X7X0XsX0XwX3X0X<X;X>XwXwX7XoX>X7X+X= & y V.^.~.u.].6.f./.^.t.u.p.@XH.u.A W.5X+X.XH.^._.K.d.+XK..X%X.X1X8X.X5X1X+Xu.d.8X1X5XhXA.^.%XwX8X+X} 4./.%X( 0 J ,.,.e.0.5 ,.^.@X/.a.l.s.^.t.Q..X#XH.].Y.] g.t.t.F.H.] T } /.^.3.f..XH.6.z 4.e.p.] Y R |._.u.~.^..XK.H.].A.4.pXfXfXkXsXlXfXlXkXkXbX7XK.%XsXvXwX>X1XfXeX7XwX+XK.K.3X0X3XF.$.6.H.6.L.6.K.^.} t.t.A.f.t.3.T } 2.T R t.} d.H.t.A.t.6. .f.] 6.",
"2.O   @ Q.t.f.Q.Q.f.1.Q.~._..X%X+X5XsXK.].+X1X]._.+X+X].+XK.H.1XV.V.1X].K.6.H.H.].+X+X3X<X>X>X<X7X8X>X>XlX7X7XU.F.H.2.6.Y.`.7XkXoX1X8XwX0XsX0X7XwX>XU.wXwXwX<X`.7XoX1 > x ^./.^./..Xf.H.#XW.6.H.W.W.^.~.] {.K.%Xf.} t.f.H.1X].]._._._.1X.X.X1XkXV.3.f.%XfXnXlXl d..X.X1XkX+XY W.p.j D R V U 4.w l /.#X.X^.W.g.Q..X%X%X%X.Xt.^.^.6.f.d.d./.f.A.d.f.^.f.Y W./.f.] s A 9.g.4.K p.|.f.H.K.^.g.t.^.u.j W.sXsX8X8XsXsXlXsXlXlX1X1X8X.X8XbXwX>X>XsX0XwXoX7X1XN.>XoX`.+X1X#.u.H.u.t.H.3.]  .T u.H.f.H.d.f.U N J 4.6.6.] T ] K N A.oXu.A.",
"@ X   @ e.l.=X^.H.p.4.j.j.a.W.$X+X1X_.].K.^.1X5Xu.A.H.A.+XK.6.u.6.K.u.].+X%X3.f.1X>XwX0X<X>XoX>X0XoX8X1X1X1X8XJ.t.f.t.t.y.].1X0X1X8X1X8X8XkX8X3XwX7Xc.>XwXwXkXC.I.8XM > m _./.@X.X^.{.^.H.F.^.^.H.^./.t.] H.3.^..Xt.^.H.^.1X+X$X+X+X$X%X+X+X8XsXm.D f..XfX1X.XA._.8X1X0XY.N.K } J h 9 Y 7 j j - r #Xf.H.^.H.f.#X%XpX%X%XH.u.3.H.H.H.~.^._.].K.d.t.6.N t.p.H.6.6.g k g.@XH.t.g.W.f.u.].].d.^.K.Y e.&X%XW.W.5X5XdXsX1XsX8X5X1XsX8XwXfX3X3X0X0X<X8XoX7X>XU.Y.y.K.1X1XoXK..Xf.^.^.3.H.f.3.f.+X%Xf.t.f.,.Y 2.,.U J f 3.].} Y K.>X>XU.",
"= & X X C k.{.{.Q.f.p.3.j.W.p./..X1X.X1X%X1X+XK.} N 4.t.] H.D } p.g.2.K.H.W.^.} f.8X0X;X7X7X>X`.>X>XwX8X].sX7X`.6.H.^.6.d.+X>X3X8X0X8XwX8X8XwX1X3XbXC.m.8XwX8X;X+XwX[ & s K.W.%Xf.W.Q.@XW.f.^..XA.H.%Xu.D g.^.^._..X.XK.$X$X_.%X%X].%X$X8XY.7XsX`.S u.8XsX^./.9X1X3XfX;Xa 0 j h 7 * 5 N 9 N 9 E W..X3.Q.^.F.,.j.!.W.W.^..X].6..XH.W.~.H.^. .l 6.f.]  .| p J } [ D D /.H.3.p.t.d.A.D.K.K.A.A.f g.@X/..Xg.|.5X2XlXlXlXwX+XlX5X%X8X7X].1XkX7X<XwX>X7X>XK.].>XK.K.K.1X+X+X.X_.~.f.3.H.^.} T F.@XW ,.].^.,.J ] } 6.K.A.J.u.3.>X`.>XG.",
"0 : X o 1.e.l.l.Q.W.t.,.W./.s..X.X8X+X.X^.].+XG.] h 6.A C R 3.g.g.0.t.u.f.^.+XK.d.+X7XoX0X0XoXoX>X7X8XsX3XwX8X7X>X].K.d.H.K.>X>X1XwX1X0XwX8X0XsX>X .D f f.sX7XwX3XwX( & u 6.j.%X/.&X{.^.g.g.g.H.H.H./.f.T 3.f.t.@X%XH..X$X.X.X%X.X~./.+X0X1XwXwXkXI.N.lX3XwX3X>X3XwXeX/ p % N h & * N 4.] w C *X&XW.4.W.F.3.p.T j.C U s.{.1X8X8XA.~. .H.f.Y +X .l ] ( u., 0 p.] l J g.3.} /.6.d.].A.A.A.] J 4.&X%X^.].2X&X5XsX8X5XpXwX7XfX8X3X>X>X+XkX7X>XwXsX0X+X+X+X].1X].+X.X+X+X8X^.g.H.^.6..XH.H.p.p.g.g.R 2.t.<.R T W.+XK.Y.+X].N.].J.y.u.",
"@ : , } s.l.@X/.|.Q.p.0.{.{.Q.g.W.8X^.~.t.f.f.2.2.D J D 0 0.Q.^.p.j.u.] F.].1X+X1X+X].>X3XfX+XoXoXY.0XkX0X8X8X1XH.8XwXD.Y.K.1X`.+X7X1XsX8XfXwXnXD.s g r W.5X.XlXkX<Xp & u A.Q.$X^.@X&X^.p.g.H.f.W.H.d.f.H.4.f.d./.$X^._..X_.%X$X%X+X7X>X3X3XwXwXfX0X .2X1X3X3XK.1X0X7.1 D g H.D s h Y T * - E a.@XW.} 4.j.W./.T g.0./.g.N K.] D j f V p.W j.] h b 0 K +XD ] [ v v J f. .d.^.U ,.$X^.A.] T f.j.W..X.X%XsXlXsXlX%X.XiX$X>X5X+X3X7X>X0XkX7X1X7X>X8X7X>XK.+X^.u.1XK.A.1X%XA.$X].+XH..X@Xe.0.$X5Xp.;.R 4.] R N t.f.].u.6.A.i.t.K.V.l ",
"6 T t.@XW.f.g./.%X#X^.t.W.{.Q.%X2X~.].+XH.H.d.2.6.D N } 3.t.^.^.H.F.4.t.H.].]..X+X3Xy.1X>XwX1X`.>XU.7XwXwX8X>X].^.sXsXK.+X+X7X>X].oX8XsXwXwXwXlX7.v D 3.pX2XsXlXfXI.= > -.~./.$X/.Q.#X=X/.^./.2X8X| K /./.t.g.H.^.%X.X/._..X$X^.5X0X0X0X0X0X0X>XeX0Xy.p..X3X<X>XU.oXV.<  .f.l J  .K h N } 4.p.4.a.a.4.t.g.H.g.g.g..XH.D w R 3 # 3 H U G 0.W 5 f h * } 3.V H.a a K f.%XiX] ,.J W.%X .] t.^.^.K.^.^./.iXjXzXsX8XdX2X_.1X1XwX8XwX3X7XwX8XkXfX0X+XsXfX`.>X+X5X1X8XA.+X8X1X^.^.t.d.+X8XpX%X1X1X5XQ.4.;.,.} ^.f.$XA.T N ] N.f.K.K.+X .",
"} T 2.f.{.6.K g..X=X!.p./.p.!.,.U H.^.^.3.W.f.t.6.D 3.4.A.] ^.6.g.f.6.^.].K.D.K.3X0XD.1X>X7X5XoX1X`.#.1XkX8X+X+X].8X7X1X`.>X7XsXoXC.>XsX0X8XkXlXU.S S %XlXsX1X.X0XA.. 1 s /./.@X@XW.@X@X.X#X#XpXkX) 6.g.W./.p.F.f.d.@X/./.&X].1X7X7XwX;XeX0X<X3X0XeX>Xd.1XoXU.oX].lXN.l 6.T ] ( g [ k T {.4.g.g.R 0./.j.a./.j.W.@X%XJ = h V - - W C C s.U H ] l w = j V 4.N.) y..XK.^.u.s 4.W.@Xd.] /.K.F.H._.%X5X5XsXsXjXlXwX+XW..X9X0XkXfXwX7X8XeX7X9XsXfX3X8X0X>X].1X1X5XsX].wX+X1X.XH.g.^.1XwXkXwXwXkX$X.Xp.a.R 0.^.K.t.u.T 6.6.A.d.A.J.]. .",
"f.H.f.t.g.t.J H.#X@XQ.Q.!.4.j.U g.%X+X+X^.~.] t.} t.2.a.f.H.A.t.f.t.t.^.+X].U.K.`.7X`.].8X1X].`.sX0X%.`.wX1XA..X+X1X1X1X1X>XwX7X].J.U.7X8XsXsXkX>X` V.lX8X]._.>XsXb . > ! %X^.@X&Xt.^.|.*X{.5XjX>X] ^.^..X~.g._.h d.@X/.^.$X1X0X<X;XwX-X0XwX<X7X0XT.oXY.Y.;XI.>XlX3XA.H.6...D 6 l ] ^.u.h d.f.l t.H.%X{.#X@XW.W.#Xf.0 : & - G E W 9 9 1.E e.] : f j 4.|.R H.+XN.D 7 2.3.,./.W.3.R g.^.^.^.%X$X8XsXkXkXnXlXhXeX`.1XkX0X0XfXhXsX1X8X0XwX1X3XkX0XsX].d..XwX1X$XK.`.1XK.%XiX+X1XsXsXvXkXwXwXwX8X$X3.j.H.} R Y V 3.K.+XK.] F.A.6.3.D.",
"/.g.H.Q./.W.p.p.W./.l.Q.Q.,.g.5X8X].].8X+XA.] Y } H.3.f.H.6.t.t.F.u.T H.K.].5X].Y.oX1X].8X8X>X>XA.1X<X>X0X1X8XJ.].1X9X>X3X>XwX%X%X+X>X8X0X8XwXsXfX>XsXlXoX`.sX0XU., & 1 ^ +X%X_..X~./.@X=X|.#X5X+XA.%X5X^. .2X1XD._./.g./.].fXkXfX0X-X<X3X<X0X3XT.C.;X>X1XwXR.0X8X3.u.v = T u.6.] H.H..X] ] ] A..Xt.f.5X{./.^.Q.t.h s : * N T 9 # 9 3 G :.H 5 j @Xp.p.@Xg.a.G f T p.3.H.@X^.,.t.t.^..X].].5XsXsXwXkXkXlXkXlXwX;X0XfXwX0XfXsXsX5X>X3X8XwX>X+X7X+XH.5XhX+XsX7XH.7X>XH.%XsXfXwXkXnXbXkXfXfX0X8XpX/.p.3.N } F.6.H.^.6.f.J 3.3.3.2. .",
"$Xf.f.W.p.a.W.H.g..X^.W.p.1..X8X>X1X+X].].].K.] ,.^.K.A.K.f.u.3.H.d.} A.].^.8X+Xy.$.+XK.7XfX8X3X1XoXoX<X0X<X8XD.D.oX+XsX>X].1X.X5XsX7XoX7X8X0XwXkX0X0XsX7X<XwXkXy.* > u V.$X.X^.^.@X.X#X&X*X5XuX5XH.%X1X1X1X8X8X7X`.K._.1XsX>XJ.A.2.6.u.oX0X;XT.%.Y.wX0XY.3X<XfX#.N D : T j.f.f.6.f..X^..XK.] K _.^.t.@X^.W.H.H.} K h % = N 0 3 @ r 5 - e.4.,.{.*Xj.g.W.{.H.t.6..Xf.D A %X].6.6.g._.].A.^.W.2XsXwXkXkX1XsXbX0X>XwXsXfXsX8X8X9XlX8X1X8X>X+Xt.%X.XlXlX8X%X1XfX].].+XK.^..XfXfXkXbXkXnXkXfX1X%XpX5X^.^.Y f.f.2.H.6.t.F.7.u.2. .2.T ",
"].+X1XK.J g./.3.<.#X@X4.W W.8X>X7X+X3XU.+X1X_.A. ./.K.V.u..XA.u.~.H.f.].^.].8X+XF.#.1XK A.3X0XfX7X>X>X7X<X0X3XU.T.J.A.sXsXA.].sXwXkXwXoX>XsX1X0XkX0X7XwX0X7X0XsX| . 1 x ]..X%X.X^.@X5X&X&X@X#X&X5XiXsXsXsX0X8XwX0X`.3XkXfX0XS 4.g.a.g..X7XT.T.I.&.eXfX0XY.3X0XfXn k f.^.K.6.3.A.u.A.f.F.t.t.Y D ] @X^.6.W.H.^.6.3.l * * = 0 l 7 9 r C 5 e.e.s.{.{.#X@Xg.^.K.f.p.^.6.K l W.%XK.F.^.+XV.A.%XpXsXwXfX8X0X1X9XsXkXkXfX8XfXfX8X8X8X8XjX7XA.H./.8XsX1X+X1X.X1X>X8XsXA.+X+XH.%X8X8X1XlXbXnX1X%X5X1X1X5X+X+XK.+X6.] 6.f.H.K.A.K.d.6.D.K.",
"1X1X+X+XK.<.e.,.} /.&X4.W.%X3X>XsXoXU.K.A..X+Xu.u.f.u.H.2.u.K.K.3.,.f..Xf.$X1X.X.XV.V.u.0 oXK.].wX>X3X3X<X0X>X`.U.U.U.].pX+X8X0X1XsXlX0XJ.+X1X8XwXwX0X0X0XwX3X7XK & u ~ ].%X%X%X^./.&X$X@X5X&X@X&X2XsXwXwXwXwXsX3XwX8XA. .6.3.H./.W.^./.t.t.#.V.;X`.0X0X<X0XwXI.g ~.F._.6.6.^.6.A.F.2.K.2.t.F.].H.f.f.] 3.W.3.l H.} = o 0 0 * 7 9 j.G % <.e.k.!.|.@XQ.5X^.u.T p.1XK. .K |.].].6.f.~.H..X1XsXkXkX8X8XwXfXsXwXfXkXfXsXwXwXlXwX1XlX].p.^.8X7X1X.X].u.t.3._.8XoXkX+XH..XH.5XsX.X/.sXbXkXfXsXsX.X.X%X1XsXwX8X~.+X^.^.L.^.f.] A.F.A.A.",
"lX]._.2X%X^..X%XpX1X].+X7X+X7X7X3X7XJ.].]..X].].+X7.3._.6.f.^.].A.d.g.~.g.H.K.+X2XA.U.0XT.3XV.A.7X1X7X7X0X3X`.>XoX].1X+X>X].+X8X1X5XlXsX>X].3XwX1X7XfXwX3XsX7X7Xg < y O.+X.X5X.X.X/.&X^.~.%X5X&X5X.X5XsXwXsXsX8XsX3Xb t.f.W.W.H.H.^.j.p.p.p.6.A.`.+X0X0X7X>X#.D d.u.] d.6.H.W. .u.d.d._.3.t.%X/.%XK.+X>XA.F.c K  .K % = , = * @ U j.;.: 9 ;.l.*X=X@Xj.%X6.A.1XA.^.7X+XK.].d.%XA.d.H.^.8XfXfXfXsXkXfX0XsXwXwXsXsXfXsXsXsXkXwXsXK.} {.jX3X3X.Xd.^.H.K.u.t.K.L.%XpX+X/.H.5X8X2X5X5X].5XbXbX1X@X%X.X$X9XwX+X8XfXlXW..Xi.].K.A.A. .6.",
"sX8X].1X1XJ.wX1X8X>X>X1X1XU.3XwX+XoX7.+X8X].].+X1XA.].].K.].+X+XsX+XK H.f.].+X1X1X^.+X].>X`.3X8X8X7XoXoX3XY.].7X3XD.3X1X7. .W.jX8X5X9XlX5X7.wX+X1XwX0X7X0X8XkX;X, & y b.+X.X.XW._./.%X^..X%X@X%X%X8XsXsX9XhXwX8XlX6.4.^.^./.g.t.F.+XA.3.H.].].V.C.0X3X7XwXoX6..Xu.M  ..XH.d.6.6.H.3.H.5XH.t..XH..X8XK.1X].+Xu.n < 6 = & = = * & R j E 9 * E z.|.&X@Xs..X].+X+Xu.Y.1XA.J.oX+X].+X8X+XH.8XwX7XsXwXfXsXwXsXsX0XsXsXsXsXsXsXlX1X6.R %XhXsX+X8X5XH.Y H.].L.u.u.2X8X8X^.~.%X/.%X5XpX%X_.fXbXsXsX2X5X%XpX1X7X0X8X8XpX8XK.+X].+X+Xf.u. .",
"5X8X].+X8X>XY.8X8X>X>X3X>X1X7X7XoX3X`.<XJ.Y.oX].1X+X+X+X1X8X0XoX%X+XY.+XY.3X8X+X%X+XU.+X>XoXY.1XsXwX0X0X`.6.+X8X7XoX>X`.Y.A.1XpXsX1X>X8X8X>X7X8XU.7X0X8XwX0XkXJ.. > x A.+X+Xu.W.$X^.$X%X%X.X.X{.5XsX5XsXkXwXwXsX>X} Q.6.f.j.f.t.+X7X>X].8X>XC.>XI.<X0XwXnX>X6.%X6.n ] %X_.D d.F.S D H.&X{.f.F.W./.+X].7X].A.^.#.p , o % . o % = # 9 ;.V 1.!.!.|.@X|./.@X1X1XK.>XY.L.>XK.>X1X$X5XwXsX5XsX;XY.8X8X8XfX0XwXwXwXsXkXsXkXlX8Xr.R W.iXpXwX8X1X1X8X1Xt.].A.1X+XN.5XkX>X^._.%X8XsX].pXnXkXfXfXnXkXsX8X] .XsX1XfX+X5XwX1X.X1X.X+X1XH.Y J ",
"1XkX3X+X1XwX0X3X7X8X1X8X`.].7X8X1XD.>X<XY.>X>X1X>X1XG.K.>X7X8X>X1XsX`.;XwX>X>X>XY.1X].U.1X`.+X%XwXsX7X7X3X+X+X].+X3X>XU.1X`.+X8X8X1X+X8XsX5X].9XY.>XwXwXwXeXfXK % 1 n W.^..XK t.pX.X.X&X.X.X.X@X&XpX8XsXlXwX+X_.,.4.j.,.W.g.F.f.$X>X>XwXfX0X;X7X0X0X7XfX0X] +X`.V.g ] %X^.A._.^.S 6 a.{.%XK.K.].H.H.~..X].1XA.u.v a % = o o o . 7 j.;.e.|.!.!.{.{.{.g.W.8X3XoX`.oXU.>X>X>X+XsX7X1X8XsXwX>XoXsXfXfXkXsX7XwXwXkXpXkXfX$XH.J @XhXsXsXsX3X8X8X2XK.G.K.V.].9XsXoX9X7X].^..X8XkXkX1X1XbXfXwXbX7X1XlX].8X1X.XkX+X/.5X1X/.%X.X^.].+Xt.].",
"0X1XK.1X3X7XwXwX7X>X8X8X7X>X7X7X1XU.Y.7X1X7XT.+XoX8X3XD.>X7X8X>X8XwX`.>X8X+X].+X].+X1XU.`.>X%X+X7X8X1X1X8X7X>X+X+X1X+X`.+X+X+X1X>X3X;X3XwXsX`.+X8XoX7XfXwXkX] - < 1 / %XK.| l H.5X.X.X.X.X@X{.%X5X5XsX1X8XsXt.a.j.g.a.^.~.t.f./.^.pX>X7XkXkX0X>X>XfX3XK.u.F.lXD. .3.f.^.K.F.H.^.H.D p.%Xg.H.~.H.^..X+XK.+X1Xu.u.v v ( i 6 % & . ,.e.E H k.!.|.&X&XW.^.%X3X>XA.oX0X>XY.1X1XpXsX3XwXwXwX8X8X>X+X7XwXwXkXwXwX8XlX.X@X4.p.W.2X3XsXwX7X0XsX1X1X1X+XoXK.>X]..XjX+X7X.XH.5X.X.X8X%XH.%XpX%X5XvXfX8X5X1X%XwXlX8X3.g.#XsX1X].1X>X+X+X.X1X",
"].L.+X5X%X%X1X5X+X%X8X8X1X>X>X7X1X1XoXU.>X3X>X3X`.3X8X+X+X8X+X+X7X+X`.K..X8X>X>X`.>X1XD.;XA.2X+X>XwX1X1X9X+X>X+X].3X3X].K.>X+XD.`.>X`.`..XpX7X>X0X+X>XfXkX7.# = 1 ! ].5X] l @X.X@X$X.X/..X~./.2X%X5X1XK.8XsX+X^.3.a.^.W.g.p././..X5XH.8X`.A.7X<X3XfX;X .$X+XL.G.A.d.A.A.K.H.W.~.F.f.2.Q.H./..XK._.].K.u.%X^.^.1X6.g S s ] s = o C H V ;.!.|.|.&X&X&XsX>X>X>XI.3X1X>X7X`.K.5XpX+X1XwXwXwX7X+X+X^.8XwXfXkXsXwX0XK.,.&XdXbX0X1X0XwX1X0X5X].sXsX8X].oX].].1XsXwX1X+X%X%XY 4.&X.X%XpXsXsXfXfXeXkXkX1XwXvXy.X.T /.5X%X.X].7X8X>X.X.X0X",
"1X3X1X8X1X+X%X5X%X%X%X8X1X3X>X1X+X1X>X>X+X].1X`.1XwX>X+XY.1X1X1X].K.+X].+X1X1X3X+X>X>XoX<XU.^.pX+XsX8X+X1X1X8X+X].+X1X$X.XA.$XJ.K.D.A.%X1X8X8XoX1X8X3X0XfXy.o > @.+X.X^.} ~.$X/..X$X^./..X.X.X_.^.%X+X+XsXkX^.f.A W./.W.^.~./.H..XQ.^.W.p.H.5X0X0X0XN.H.8X8X].H.~.d.f.H.F.H.d.4.p. .J H.^./.1X+X3XK.H.^.1X8XA..Xs 1 p v K ] : o X E e.l. X|.#X&X@X5X8X1X;X<X0XwX`.>X0XoXN.pXjX1X>X1XwX0X>X1XsXsXsXwX8XsXbX].6.H.^.&XsXlX1X5X0X8XwX8X+XpX8X8X1X].A.} f..X1X8X.X^.5Xi.o } pX5X%X.X8X5X1X1XwXwXvXkXmXT.7 ,..X%X=Xg.t..X^.1X^.W.%X.X",
"1X+X1X1X8X5X2X.XW.H.+X8XwX1X+X1X3X>XT.oX].`.7X+X8X0X>X1XY.oX8X0X>X1X+XU.1X>X>X+X>X3X1XoX7X0XK.^.5X8X1X+X1X5X8X8X1X+X+X+X5X.X1X>XK.u.].+XK.^.9X3X+X>X7X7XwX7Xp y ].8XA.]..X^..X.X/./.@XW./.%X^.^..X5X1X1XsXsX6.^.H.e.j..X^./.^.g.H.^.%X^.W.5X8X8X0XfX7X8X>X+XK.d.K 4.J T 4.} p.p.f.H.^.j.H.W.g.%X1Xt.^.].%X7X1X`.< p D D 3. .v * X = 0.1.!.|.&X#X/.&X%XoX0X;X7X>X;XwX7X3XV._.hXwXwX>X>XwXwX7X0XwX0X8X5X8X+XG.^.jXfX8XsXsXwX8X0X>XwXwX%X1X1X1Xf.f.6.A.+XA.1X5X^.f.iX.X6.@X%X.X.X@X%X@X5XlXfXeXeXkXwX6.H.p.@X%XQ./.W.g.f..X^.%X%X!.",
".X5X5XW.} $XY J H.%X8X1X1X1X1X0X3X>XoX>X;X;X+X8X1X3X3XwX3XU.7X8X7X7X>X>X>X`.I.1X3X>X8X1X+X].1XK..X1X8X+X1X7XsX].f.%X8XK.+X+X1X+XU.U.].1XK.A.1XwXY.+XfX>X7X3Xn p 6..XW.H.6.~.@X.X.XW..XW.H.@X$X^.%XsX+X+XsXlXV.H.%XQ./..X_.W..XH.W.^._.{.&XfXfXwX0XwX0X7X] f.2.] ,.p.6.t.p.H.^.H.H.F.t.4.g.H.H.^.F.H.W.].^._.%X6.1 a K T t.6.} D 6 % 0 s.#X/.l./.|.uX+X8X>XoX+X7XwX7X0X7XD.1X%X5XzX>X>X8X0X7X1XsXwXiX8X]..X8XdXwX3XfXsXfX0X0X0X3X8X1X8X1X8X.XH.$X_.u..X].1X%Xt.t.4.g.%X5X%X%X^..X%X%X5XlXfXkXeXeXoX].%Xf.H.@XH.@Xj.p.g..X$X.X%X%X",
"%X%X5X5Xd.t.t.1X5X1X8X>X1X7X8X8X>X7XoXC.oXU.].8X8X>X7X7X0X>X>X3X8X`.>X+X8XC.7.8X>X+X1X5X+X+X8XV.%X+X7X>X1X1XsX+X2.=X1X>X+X.X1X+XoXU.oX+XU.V.A.5X1XoX1X8X>XI.h g _.^.W.2.,._.@X{./.^..X/.H.$X.X%X%X%XhX1XsXfX<XD..X%X@X%X^..X.X^./.W.@X.X].+X1X+X.X1X3X>X6.} ,.g./.K.d.H.d.f.H.j.H.f.R 4.W.W.~.^.Q.^.^.^.W./.d.7 < v t.t.p.t. . .] ,.} l.&X%X.XW.R g.1X>X3X>X7X7X7X8X7XfX>X`.5X1XdXsX7XsXK.8X+X8X8X_.4.5XnXK._.8X+XwXlX0X1XsXfX0X0X3X+X8X].].+X+X%XH.].+X_.@X .Y a.j.&XpX5X$XH..X2X%X8XsXlXvXfXwX>X@X@X%X^./.!.s.,.!.Q.W.!.Q.@X5X",
"$X.X.X&X^.^.sX1XwX7X3XwX7X>X1X8X3X1X`.I.`.1X>X>X8X7X7X7X8X1X>X+XoXoX1X].+X`.D.8X8X+XoX+X8X+X8X1X+X+X1X8X7X1X8X1X8X5X].V.K.1X+X1X1X].>X7XK.#.A.].%XK..X8XK.k , S &Xf.Q.A.K t.&X^.^.Q..XW.f.%X.X+X$X.X.X8XsX8X>XK 4.%X.X2X5X^.^..X.X%X%X^.~.^.f.f.<.W.7X3Xu.p.&Xd. .t.f.H.A.H.H.H.~.d.t.g.p.H.W.Q.j.W.W.H.^._.l =  . .S ] p.4.f. .2.6.K f.&X~.H.~.f t.5X1X7X;X<X7X3X8XwXwX>XU.kX1X8XsXsXsXA.} Y W.&X^._.pXlX3X1X5X1X8XkX0X7XfX3X<X0XU.].%X5X1X1X+X.X^..X+X.Xg._.^.5Xd.5X5X%X@X/..X%X+X.X.XsXsXwXwX0X$X@X@X*Xl.l.0.g.@Xg.!.W.@X{.1X",
"1X%X%X%X5X5X1X1XfX0X8XsX0X>X3X1XoX7X>XoX1X1X3X+X7X8X8X7X>XsXA.`.3X3Xb.'.1X+X].8X1X+X].+X1X1X3XwX+X1X%X+XpX+X%X1X1X+X1XC.N.1X+X1X>X1X1X1X+XD.7.%X+X+X].`.K , 7 H.Q.H.W.A.K W..X/.^.^._.W.H.^././.1X1X%X7XwX7X>XH.%X~.@X.X5XpX].%X].+X%X%X.Xd.d..X+X8X7X8XD.6.%X+XK p.g.~.^.A.F.H./.H.d.6.g.t.a.H.Q.W.H.^./. .& D p.S 6 h W.@X^.~.A. .D d.g.W.F.F.J } f..X].1X1X+X>X8X8XwX1X>XkX7X>X8XoXD * r l.&XlX8X7XfX0XwXkXkXwX0X0X0X7XsX1X%X7X#.7X7X5X%X1X1X1X.X^.].$X^.%X.X%X^.&X%X8X$X%X$XH.~.H.$X8XpX5X0XwX0X1X@X Xz.g.e.j.p.0.@XW.W.!.5X",
"^.5XpX1X+XsXwX7XwX0XfX8X7X3X1X8X1X+XoX>XsXsX>XoX1X8X7X0X`.].^.+X>XoX7.].+X`.+X8X8X+X+X8X1X+X1X8X+X+X+X^.]..X1X1X4X+X>XU.) >X7X1X1X>X6.+X1XoXJ.+X8X+XoX&.< % 4.0.g.@Xg.g.W.1X.X{..XH./..X.XF.@X9XwX7X7X3X7XwX>X].5X] .X2X%XjXsX].].5X1X.X3.W..X5X9X3X7X0X7.} g.5XN.i.A.].f.t.~.H..XH.t.F.W.3.f.~.{.H.H.H.f., * U g.A l 6.%X%X%X%X.X( A f.W.^.H.f.+X%X+X1X1X].K.A.].7X>X7X0X>XlXsX>XA.0 - } .X5XfXeXkX0X0XkXwXfXbX7X7X1X+X+X8XwX9X`.7.3X8X].5X+X+X+X^.H.j./.%XsX1X.X.Xd.%XsXsXkX_.W.8X8X8X8XsXpX8X7X7XwXsX/.!.e.e.] T t.=X@X3.4.5X",
"H.5X5X$X1X1X9X+X>XoX>X7X+X7XsX%X5X1X+X8XwX7X1X+X>X7XwX7X .U.1XpX>XD.K.N.+X+X1X1X8X8X1X+X+X1X7X8X+X+X5X+XA.$X%X1X+X+X+X].].5X1X>X8Xu.h $X1X].1XN.u.u.| [ [ Y ,.} g.5Xd.H._.^.3.W.%X^.^..X9X8X8XkX0X3XfX0X<X>X3X>X.Xp./.%X8X9XfX.X%X.X2.R /.$XH.%X^.H.].( J t.].].>XJ.f.H.u.f.].H.^.1Xf.H.K.K 6..X^.g.f.^.K : K ] e.f.3.W.%X%X.X^.W. .d.^..XW..X%X%X].3X7X1X1X>X>X3XA.oXfXfXwX0X^.f.K u.7XsXfX<XwXfXsXbXfX7XwXfXeX8X+X+XH.5X0X1X8X~.1X].K..X_.^.%X~.t.t.,.@X5X_.H.%XF.^.5XsXkX8XlXK..XsXwXfX8X5X%X8X8X+XpX~.,./..X6.J H.5X#Xp.g.pX",
"6.5X^.%X.XL.%XH.+X].A.wX+X].A.f.5X5X8X5XjX+X+X8X7X+X8X1X^.>X+X8X`.D.J.+X+X+X1X1X1X8X].+X+X1X8X@X5X+XF.2X].~._.8X+X+X8X>X].sX1X8X0X[  .g.} u.u.( Z H.K..Xb 0 7 U l.&Xf.p.+X .T @X]._.^.%XsXfXU.1X0XfXkX8X>X`.7XfX0X.X%X^.5X5XD.t.g.} ] W.&X.X^./.p.f.U ] p.f.8XD.>X>XK.u.K.^.K.j.^.2X6.f. .h R W..X~.W.A.6 l 2.,.g./.H.W.Q.H.W.f..Xf..XK.^.F.$X+XK.].+XsX1X8X0X>X3XD.].`.kX`.l e /.sXnX7X3X0X<XkX8XwXlXfXY.1XsX7XwX8XY.>X+X+X1X5XpX$X].~._..X^.@X%XK.2.g.&X/.W.W.%X%X5X.X9X8X.X8X].^.8XkXwX7X&XuX%X8X>XN.`.8X%X6.t..X/.g.s./.!.@X",
"t._.H.^._.^.^.H.+X+X].+X+X].2./.%X5X8X1XpX5X1X8X8X>X1X8X8X1X1XoX>XU.K.+X+X].1X+X1X1X^.8X$X$X5X&X%X1X+XsXA._.$X1X>X1X8XwX7X1X8X8Xy.% J 3.2.u.u. .0 t.+XN.$.u.oX+X] 4.1.W.f.V g.@X.X8X1XwXsXsX`.1XsXkXlX0XfX>X8XfX0XlXY.d.t.,.R ^..X%X%X~.%XwX].t.H.t.p.W.f.H.1XN.`.>X>Xf.H.A.f.^.+XV. .f.u.K ,./.^.^.f.S ]  .K g..X.XH.H.p.W.~.g.W.&X.XH.f.F.^.^.H.H..XwX7X7X7X`.].sX0X| ] 6.J Q.lXwXfXT.>X7XfX0X1XwX9X+X1X9X%X5XfXeX+X>X1X.XfXwXsX%X.X%X^.$X%X_.@X~.^..X$X^.^..X%X2X.X%X5X8X8X8XsXsX3XwXsXkXwX.X&X$X].` `.nXjXK.^./.W.s.k.!.s.|.",
"K.H.^._._.H.H.W.@X]..X.X1XA. .5X%X+X1X8X8X1X1X8X8X5X1X5X%X8X>X7X>XU.].1X].U.U.1X1X$X$XpX.X%X8X%XK.1X+X+X5X_.+X+X1X1X8XsX8X1X5X8Xp D ].>X8X1XY.>X+X1X>X>X0XfX7X1XJ.D R g.,.@X+X5XsXwXhXlX7X7X>X>XsXbX1XH.lX0X>X>XsXD.h ,.V /.pX.X$XsX%Xf.5X5XK.u.f.^.g.H.3.4.+Xm.;X>XoX+X+XA.f.$XY. .K.A.+XH.H..XK.d.6.] K. .t.{.^.H.^.g.F.F.f..X{..XH.~.H.K.^._.F.^.].8X3X7X3X>XoX1XwX0X6 } pX8X0XwXeX7X7X7XwX0XfX>X+X1X8X9X%X5XsXfX7X1XkXfX0XwX8XpX8X~.1X+X%X^.^./.W.H..X@X5X^..XiX8X$X%XsXsX5XwXkX7X3XwXsXfX].2XpXH. .K.$X~.2X1XK.^.l.0.{./.|.",
"K.f.^.W..Xt.f.d.=X^.H..X.X] f.5X1X+X7X8X.X8X1X7X8X1X@X%X1X8X$X1X5X+XJ.K.K.U.+X+XpX.X].8X.X5XsXiX].%X5X%X1X^.%X1X2X8X5XsX+X8X1XY.k ].>X0XwX8X1XoX>X>X+X>X>X0X<X8X>XA.K.A.3.a.%XhXkX8XwX].f.t.6.6._.2XY t..Xa.6.4.j.G 0./.%X%X%X~.%XpX8X^.^..XA.] f.^.f.K.g.K.1XI.`.Y.+XoX7X+X].0XoXN.F.1XA.~..XH.] 6.^.} } .X^.W.H.f.W.^._.f.@X_.H./.H.^.^.H..X5X>X+X5X7X0X0XwXoX`.oX0XwXa D 5XwX0X3X0XwX7X7XwXwXfX7X7X7X1X1X8X.XpXfXwX7X0XwXfXwX+XpX5Xt.$XF..X.X^.^.^.^.%X.X/.+X%X1XiX5X5XpX5XdX8X7XwX1X7XwXsX].@X2X%X3.@XK 3 @X1X`.g.[.{.a.@XuX",
".XW.^.^.+Xu.f.f.H.H.t.,.} g.5X8X+X1X1X1X+X1X1X1X1X+X].%X8X1X5X1X9XK.K.].+XK.+X+XlX+XH.1X.X%X8X2XpXiX2XpX%X.X].%XpX5X5X1X^.8X>XS l 1X3X7X].A.+X>XoX3X].1X5X1X>X;X<X>XwX>X3X] N H.u.D j } 4.W W T H..X/.t.a.%X/.t.g./.W.@X^._._.%X.X1XsX5X .^.d.6.^.0..X1X1X7X+XU.oX`.7X>X>X3X0X>X<X`.].K.Y.K.G.6.6._.H.2.f.H.H.W.f.W..X^.^.K..XA.f._./.~.~..X%X3XoXU.%X8X3XsX3X>X7X>X>X8Xb j /.8X3X0X>XwXfX<X7XwX0X1X%X+X1X+X1X5X^.8X8X8XwXkXnX1X@X5X5X@X.XW.{..XH./.~.H..X2XW.&X^.$X5XsXsX5X9XbX7X7XwX.X%XwXwX9X$X@X5XH.F.f.f.#X%X>X+X@X#X^.{.sX",
".X].$X.X^.^.W.p.g./.T 4.^.iX8X+X1X+XK.%X%X$X_._.%X].].2X8X5X1X8X8X7.1X1Xu.].sXsX1X%X].A.$XpX%X%XpXpX5X8XpX.XK.1X8X%X8X@X~.1X>XK.u.1XwXoX+XK.J.J.+X7X1XK.^.+X>X;X>XwXeX>X<X8XK.K.: 5 U Q.Q.^.^.^.1XwXsX+X$X5X1X_..X+X^..X.X~.$X$X.X5XwX8X].H.H.t.t.j.f.^.oX7X>XY.;XU.3X+X+X>X3X3X;X0XC.K.].7.#.K.%XK.( f.f.g.j.H.^.H..X/..Xu.>X].^.].^.$XW.5X7X1X1Xu.+X8X1X0X1X8XI.>X3X].6 q 5X1X3X7X3X3X0X0X<X0X>XH.~.1X1X1X].%X%X+X8X2X5XwX1X$X&X%X5X%X@XF.g.^.W.@XH.^.^.%X.X@X.X1X8X5X5X5X9XkXwXkX1X/.@X8X8XkX8X/.5X5X8X1X1X8X>X+X9XsX8X%X.X1X",
".X5X.X%X~.Q..X/.@X.Xt.g.#X2X%X+X+XK.+X%X~.^..X%X8X].K.pXsX>XA.+X1X( T H.f.].6.N U @X.X+X1X1X5X&XpXhX5X$X8X^.~.+X8XsX+X%X1X%X1XK.A.].y.A.u.S K K.].8XsXu.K.8X0X3X1X0XkX>X<X0XkX0Xs R Q.#X%XsX7XoX].1XwX3X5X].+X1X+X].].$X]..X+X%X%X1X8X5X%XH.t.@X].+XoX+X7X<X7X>X>X`.Y.+X+X>X>X<X>X;XT.Y.A.Y.`.+X+Xd.] ^. .,.Q.^.f.^._.%X.Xf.].^..X.XK.@X.X.XoX7X+XK.+X1X8X8XwX>XoX7XkX%.@ K.0XT.wX8XfX`.>XfX0X>X+XK.K.5X8XpX1X.X.X^.^.^..X/.Q.|.@X%X_..X^.Q.W./.f./.2X.X.X.X2XH._.8X5X5X5XsX5X5XsXkXfX1X8X7X0XwXfXwX7X$X2X+X>X3X`.+X9XsXsX8XsXoX",
"/..X@X5X5X.X/..X@X%X.X].1X5X.X%Xf.^.%X_.^.^..X^.2X^.^.1X1X7.] ^.+X6.T p.^.w C ;.uX.X%X%X^.^.sX8X8X1X8X5X>X8XsX`.7XdXU.K.2X%X9XwXY.].S A.K , f.8X>XoXU.].8X>X].7X$X1X0X0XwX`.7X0XA.p.5X8XkXfXwXeX3XT.].$X.X%X_.+XsXA.+X+X.X+X+X$X%X^.%X%X.X.XF..X^.+X7X7X3X3X<X7X<XR.U.oXoX>X`.;X3X<X;X7.^.5XU.6.A.^.u. .Y f.H.} @X1X6..X_.1X0X+XH.^.^.&X.X+XC.`.$X+X1X+X8X+X7X8XwXwXeX) l sX7XU.wX7X7X0X<X0X7X7X<XD.K.^.jXlXsXK.H.g.g.Q.Q.@X{.!.=XkX].F.Q.@X_.@Xf.^./..X/.%X.X].5X5X.X%X8X1XiX@XiXkXfX0XsX0X>X3X8X+XQ.!..X$X8X>X8X8X8XkXwX7XwX>X",
"W.W.|.&X5X&X%X%X%X+X1X.X_.5X.X^.H.@X4.^.$XH.^.^.$X.X]..XK.K.u.Y g.5X8X_.~.,.!.uXpX^.%XiX^.g.5X5X8X8XsX0X>X7XkX7XY.8X%X.X%X%XkX<X] K.7.b l 0 +X<X;X<X<X3XwXoX>X1X+X>X7X0XeX>X3XkX+XK.kXwX0XkXsX7XwX;X7.%X+X.X^.%X+X+X%X].]..XH.^.5X^..X.X$X%X6.6..X.X7XoX+XoX`.>X>XI.I.Y.>XoX>X3X;X>X;XC.J..Xt.F.F.].#.D f.Q.f.3.5X.XA.~.$X8XwXsXf..X%X.X%X5XU.].pX+X+X%X8X8X0X>X7XkX3Xb t.7X`.3XwX7X0X0X<XI.<XI.C.D.H.].pX%X@X%XW.f.^.H.#X/.{.{.&XNXY.F.@X.X@X^.^._.~.$X%X^.^.&X.X%X2X2X%X8X5X5XpXkXfXkXwXwX>X3X0X1X$X/.5X.XuX1X7XwX0X8XsX+X9XwX",
"g.g.{.#XW.{..X.X%X%X8X].H.5XpXt.%X~.W..X.X^..X%X.XH.f.@X .+Xh T j.#XkXoX~..X%X+X.X+X%X1X1XsXlX7X8XlX7X1X8X7X7XsX'.5X5X1X2X1XsXN.l ^.| s T g.lX;X;X7X0X<X3X0X].3X3X3X7X7X0X7X3XeX0X>X].sX>X1X~.f.1XwXU.K.+X].].5XL..X%X.X^._.^..X%XH.^.%X$X_.f.6.K.f.+X].].J.J.oXoXT.;XI.;X>X;X0XI.oX>X`.J.+X+X9XJ.v 6.F.F..X} g.5X^.W.^.8X8X0XwX^.H.%X_..X^.K.5X+XK.+XsXpX1X8X3X7X7XwXc ].>X>X>X0X7X0X0X;X`.7XC.J.K.J.+X%X.X#X=X@XW.W.{././.Q.%XQ.uXlX+X^.%X/..XF.f.@X.X%X^..X/._.%XpX.X&X$X%X&XsXfXfXfXwXwXsX7X3X8XfX].2X_.%X8X5X7XwX+X5X.XpX7X",
"<.p.#X^.a.%X.X^.^.1X8X+X5X$X2X/.%Xp.{..X@X.X/.@X^.F..X^.K.D 3 1.V Q.sX7X].wX1X2X+X^.K.+XoX1XxXlX0X8X7X0X7XwX3X1X1X1X7X<X>X+XsX].] H.3.f.H.1XsX3X;X>X0X3X0X3X+X3X>X7X3XT.oX].1X8X0XeXy.].+X].1X^./.8X3X>X>X3X0X0X.X_.$X%Xu.K.]..X_.^.^.@X.X.XH.F.H.f.%X+XY.D.`.<XU.<X>Xv.R.7XD.`.oX1X>X>XoX>X3X0X@. .+XH.^.H.} $XA.H.W..XsX>X7XsXA.d..X2X%XH.^.$X].5X>X1XsX8XlXsX3X7XnX) N.>X3XU.>XwX7X7X;X<X<X;XC.V.]..X~.^.=X!.=X.XH..Xa.Q..X@X/.#X8X^..X5X%X1XD.] %X$X5XsX+X_.%X.X5X$X8X@X/..XjX0X8X8X8XwX7X{.%X3X0X].%XiX3X8XpX8X7X1X8X@X5X].",
"t.@X.Xf.j.5X]..X.X1X8X>X+X^.%X^.@Xj./.5X.X%X~..X1X.X%X2Xd.O ,.&X+X5XlX0XA.7X].^.^.^.1XV.6.5XjXjXsX0X7X0X7XfX0XsX+X+X;X>X>X8X7X>XV.].].].K.].7X7X<X;X<XwX0X`.7X>X;X>XsX<XV..X8X0X0XwX3XA.7X`..X8X1X8X7X3XoXA.^.1X_..X@X@X .H..X.X.X_..X$XW.W.^./.~.t.+X>XoX>X>X;X;X<X3XB.*.3X>XY.+X7XoX>X>XoX3X+XU.>X].A..X^.^.W.w t.8X8X8X+X>X+Xd.%X1X^.%X.X].~.5X5X7X>X1XsX1X8X7X7XbXb K U.3XT.I.wX7X<X0X;X<X>XV.N.+X].~.^././.=X&X/./.W.{././.%X^..X.X.X%X%X5XK.~.%X.X5X9XK.+X5X$X1X5X8X&X5X5X@X8X1X.X%XhX^.|.=X1X7X8X^.5XwXsXsX8X1XwX1X%X5X].",
"Y g.{././.$X1X+X^.%X].6.].5X].H./.Q.@X^.@X8X^./.+X^.%Xd.5 Y #X^.%X^.K.H.H.K.u.A.^..X8XK.A.@X2X+X1X1X8X7X0X7XwX0Xf.].Y.<X3X7X7XC.m.].oX`.K.K.+XsX0X<X<X>X<X>X7X<X`.;XeX0X`.;X0XlXwX3XeX>XU.7X1X8X7XkXkX7X<XA.W.%X1X+X.X{.p.^.^..X.Xf.$X^.H.{./.^..Xf.g.1X`.>XE.T.<X<XkXT.c.;X1XY.`.1X+XoX>X>X]..X5X>XL.H..X.XQ.W.H./.1X1X].$X+Xt./.%XH./.^.5X1X^.%X+X8XsX+XsX8X0XfX7XT.6 Y.Y.T.C.C.wX0X3X<X;X`.>XD.7.].+X^.g.@X#X%XuX%XH..X@XQ.@X&Xf.@X{..X5X%X.X+X1X+X.X5X%X@X%X8X%X2X5X5XiXjX%X%X+X1X5X8X5X2X$XuX5X>X>X^.uX1XwXwX0X0X0X3X^.iX0X",
"T W.%X%X.X.X.X_.H.p.H.].d.^.^./.W.H.^.j.f.5X5X@X.X+XK.K f.5X^.p.j.{.H.F.h J .Xu.F.g..X+X.X$X^..X1X+X+X7XwXeX%. .+X>X<X<X0X<XU.m.A.J.].].].+XK.7XwX3X>XoX0XoX0X3X1X+X3X;X;XoX1XkXfX<X0X0XY.fXwXfXwX0XnX7X0X>X>X8X8X1X+X.XQ..X^.H._./._.F.^.@X.X.XK.F./.].D.>XT.<X;XoX7X<XC.Y.>XoX`.>X<X>X>X8XK.^..X^.].6./.&X.Xt.H./.^.1X].%X8X^./.{..X.X.X5X5X.X+X%X+X8X0X+Xp.1X7XbXV., +XT.C.`.I.>XwX0X;X<XC.>XY.U.K. .H.H..X%X5XpX%XA..X{.@X@X{.%X%X.X/.%Xg.g.^.%X$X+X%X%X5X5X5X%X^.5X5XpX%X@X@X.X].pX8X1X%XH.g.uXiX]..XuX5X5X1XsX0X0X7X3X5XwX",
"_./.%X1X.X/..X@XF.+X].~.f._.H.} /.0.W.W..X%X$X%X1X8X6.u.%X5XfX1XA.%XH.T 3.W /.+Xd.~..X_.pX%Xp.{..X%X8XsXkXT.S ].1X7X<X;X0X<Xy.A.N.Y.+X1X1X+XY.>X7X0X7XU.U.>X3X7X3X1X>X;XV.].wX8XoXfXwX0XI.+XwX0XwX0XsXfXwX3X<X1X8X>X1X+X]._..XH.W..X.XH.H..X@X^.A.6.1XT.P.U.3XT.T.>X>X>XT.+X].1X1XU.>X7X1X5X1XK.,./.5XD 4.#XH.H.Q.H.Q./.+X9XsX>X^.%X.X&X5XA.$X5X8X1X1X+XsXK.,.8X3XnX#.v >X;XI.`.B.T.0X<X>X;X;X`.T.D.6.] H..X^.%X5XpX%Xg.%X.X^.%X.X.X^.%X.X.X/.@X.XF._.%X/.&X^.5X5X/.Q./.$X&X@X%X%X{._.%XsX8X/.@XH.uX%X%X&X&X5X8X1X3X8X3XkXwX8X8X",
"H./.%X$X&X~.W.%X_._.^.^.H.+X^.f.@Xf.^.5X1Xt..X1X7X1X1XH.K.lXkXeXkXfXJ.^.8X.X.X.X].+XH.t.d.R p.@X.XpXsXsX>X$.H.8X7X0XT.;X0X<XT.V.].J.+X1X].+X7XY.+X>X>XY.$.+X1X7X3X>X>XT.b .X0X7X].8XwX7XV.f.sXeX<X>X0XkXeX0X>X7X8X8XoX1XsXA.^.~.H..X{.g.~..XW.W.t.6.+X;X`.J.>X>XY.oX>X+X1X`.U.1X0X`.`.8X+X8X8X>X1X8X1X+X+X2X].1X+X.X/.t..XsXsX8X].~.%X$X%X.X.X.X5X2XsX5X1X7XwX0XwXfX) `.<X>XU.I.C.B.0X>X>X<X>X;XC.( 0 %X_.~.H.^.@XuX5XH.5XH.3.%XH.%X#X@X%X@X5X.X@XK.5X1X~.W.W..XpX+X.XW.&X_.%X%X2X5X5X].+XdX%X5X&X%X%X%X2X%XpXsX8X7XsX3X8XkXkX+X",
"Q././.W.&X.XW._._..X.X^.K.+X+X1X].].+XK.u.g.5X7X0X>X^.]..X8X7XwXlXU.d.@X^.W.j.g._.H.] 6.] t.&X5X/.$X1XH.d.H.W.%X0X7X0X<X0XT.<XI.3XY.kX3XV.f..X+XN.A.K.+X7X+X1X+X>XD.`.J.A.>XoX+X+X+X1XwXy.f.8XeX7.A.fXkXfXwX>X>X8X7X+X1XlXu.W.^.^..X.X^..X^.g.@X+X>X>XoXoXoX>X].oXoXY.>X>X+XoX+X8X8X1X1X1X1X1XsXlX7X1XwXlX8X>X1X1X+XH.A.5XsXsX1X5X+X/.5X%X1X8X]..XpX8X8X8X<X3X>X0X0XS Y.7X<X>XI.m.B.7XT.oX3XY.1Xm.g j {..X .j j.@X5XsX^.W..X/.@X.X.X&X/./.2X$X@X#X5XjXV.V.^.@X@X.X$X.X%X^.H._.$X1XbXnX3X+XsXfX8X^.$X&X^.$X5X5XdX7X5X8X0X7XkXlX8X",
".X@X{.H..X@X%X.Xt.%X.XH.^.8XoX3XK.5X`.u.p.5XsXwX>X .3.iX.X3.5XbX>XH.$X$X%X%X_.H.g..XA.^.H.^.$XH./.g.p.p./..XL.5X0X;X0X>X-X0X0X<X+X1XwX3Xy.t..XY.y.L.A..X.X].+X>XU.V.+XA.].J.+X+X+X+X>XeXD.A.1X7XoX+XwXfXfXwX7XoX0X0X1X+XfXK.^.1X+X%X1X5X1XoX].8X+XT.;X>X>XoX+X>X7XY.oXY.].+X1X>X>XsX%X1X8X1X+X8X0XsX7X1XwXsX+X+X`.1X>X%X%X+X9X%X].^.8X.X%X$X8X%X.X5X1XsX8X<X>XoXwX3XD.y.8X0X;XI.I.%.Y.0XT.Y.oX3X#.D t.a..X) } 5X5X%XuX/.^.5X@X.X_././..X^.@X5X2X5XuX%XA.f.uXuX$X_.%X^.W.g.@X_.2XkX+X^.1X+X.X8X$X/.$X&XH.$X%X1X$X5X.X2X0XwX5X8XsX",
"/.%X].$X/..X@X^.t.^.f.f.g.1X0X0X8X5X>X>X+XwX1XsX>XK.8X1X[ t.jXsX7X+X%X5X8XwX8X.X1XwX>X].~.f.H./.t.J ;.#X%X3X0XeX%.J.8X0X;X<XwXY.f.1X.X+XA.H._.].1X>XK.+Xi.K.+XU.oXoX].].J.]..X+X.X>X>X<X>XoX7X>X7X7X7X0XwXwXfX3X>XfXkXkXwX8X1XlX0X7X7XwX8X>X+X1X1X].`.>X7X+X+X1XK.K.1X1XoXL.pX1X+X8X8XsX8X1X1X3XwXwX7X7X8XkX>XoXoX1X1X+XW..X%X%Xf.H.+X+X1X@X~.%X1X^.1XsX0X1X>XA.`.oX8X| ].3X;XoX<Xc.D.>XtXT.>X>Xn 6 Y .Xd.t.pXjX^..XiX5X&X@X.X.X.X$X/.@X5X&XpXpX|.yX#X@X@X&XpXjX1X%X2X%X2X$X8XsXkX_./.uXuX%X1X5X#X%X1X].^.g.@XH.@X#X_.^.@X.X%XuX",
".X+X%X%X.X%X.X%X+XF.].1X%X].sX7X7X8X8X>X7XwX1XfXfX1X1XA.u.+X5X1X1X+X8X8X+XkX0X1XwXwXoX7.6.D j.%X+XK.t.%X+X7XwX;X[ +X1X0X7XV.1XK.].1X3XY.K.K.H.%X7XoX>XN.A.].^.J.+X1X>XJ.].+XoX1X%X3XoX0X`.0X7XoX3XwX7X<X0XlX7XA.6.].3X7XwXwX8XfX7X1X1X5X1X+X1X3X3XY.>X1X1X1XoX].+XoX>XsX0X].%X8X+X>X8XpX5X8XwX8X8X7X8XwX3XsXwX3X3X+X].+XH.{..X8X].^.^.%X.X5X]..X+Xf.$X8X>X5X].N.A.>XwX#.7.>XwXU.`.C.U.>XT.;XY.8XS 0 T #Xa.a.^.pX5X+X@X=X%X#X/..X%X.X.X5XpX{..XuX&X5X&X!.g.W.W.g.Q.^.5X.X_.8X~.^.@X/.=X&X5X5X+X2X/.%XsX.Xg./.^.H.W.@XW.j./.@X@X5X",
"+X.X1X1X%X%X.X5X+X+X1X`.3XsX1X7X].3X8X>X8X>X9XsXsX9X7X+X.X5X1X5X8X5X9XwXwXkXeXfXwXwX0XoX`.+X1X7XwX3X8XwX0XfX0X<Xm.y.1X3XU.].+X]..X+XwX].f.K.f.1XJ.1X>X$.].] : ^.].K.sXD.].K.Y.+X8X<X3X<XY.oXY.oX>XwXkXC.1X+Xf.^.6.p.{.f._.wXwXsX7X7X9X1X1X>X0X0X>X].1X>X1X7X`.U.3X].].sXhXoX+X8X8X>X8X8X8XsXsX7X3XwX0XwX>XsXwX7X0X>X>X8X.X/.{..X.X{.^.].^.lXkXwX1X+X8X+X$X$X].].K.].>Xn % X..XJ.@.oXoXY.>X;XU.8X) v g T W R e.#XpX5X2X.X5X&X@X#X%X^.&XpXuXW.#X@X@XdX%Xt.4.T s.s.s.Q.Q.W././.t.g.!.{.&X&X=X#X&X8X2X.X%X.XW..XW.^..XQ.Q.@X.X^.#X#X",
"+X.X7X1X1X.X%X%X5X7X>X`.8XfX>X1X>X8X3X>X3X7XkXsXsXkXwX8X8X1X8X8X5X8XsXfXvXwXwXbX0X0X0X>X3X3X0X3XfX0X<XkX;XV.6.6.F.F.>XY.+X.X.X+X.XH.+XK.f.K..X8X6.%X3X[ L.[ = A.].1X7Xu.].~.A..XsXK.3X7XC.K.+XY.>XkXJ. .].p.j./.H.6..X^.W.%X8XwXwX0X+X1X1XK.+X8X3X>X>X].1X7X].+X1XoXY.sXlX1X>X8XlX1X>X7X0XsXhX3X8XfXwX8X1XlX+X`.sX7X8XsX$X.X%X^.%X/.^.%X.XsXL..XsXsX8X8X1Xu.A.$X%XJ.A.6. .: R ^.N.Y.>XY.7X>X>Xm.< S p = 0 E E !.5X5X5X&X5X5X%X%X%X.X.X&X&X&X@XQ.5XsX5X5XsXu.g.J J N U .X.X&X/.~.@X@X&X%X&X5XkXsXkXsX$X+X^.5X+Xf.W..X/.^..XW./.{.",
".X%X^.5X1X^.^..X8X1X`.+XsX0X8XwX>X`.0X1X7X3XwXfXfX8XsXkXwXwX0X8X1X5XlXfXkXwXfXkXkXeX0X;X;X7X`.`.bX<X0XwXT.{ p.f.+X+XY. .3.&X$X^.f.f.f._.H.g.%X8XL..XA. ..X].]. .u.=X1X#.A..X] .X%X| ].<XV.U.3X6.+XwX .+X].^.p.l..Xu.f..X/./.^./._.8Xf.1X7XK.+X1X1X>X7Xu.+XfX3X>X1X3X7X0XkXwXwX1X8XsX+X8X3XfXkX0XwXsXkXsX8XsX3XY.8X7XsXsX].]..X%X^./.^..X%XpX8X_.1X+X1X1X5Xy.7.A.].t.f.K.2Xl . V j.].I.`.>X7XoX) & T p % j 0.q.!.=X5X=X%X.X%X5X5X/.&X.X/.dX.X/.uXpXsXfXlXpX%X^.7 : e l.&X5XuX].1X5X/.@X&X%XuXsXsX7Xt.g.8X+X8X+XH.H.iX1XF.a.j.W.{.",
"].L._.5X%X.X1X8X1X+X+X+X9X1X7X1X+X7X7XK.8X1XsXsXsXwXY.1XjX8X1X2X1X8XbXwXkXfXkXkXvX0X0XwX`.;X<X0X0X0XfX0X0XY.A.9X>X3XV.K U ^.%XA.t.p./.$XH.f..X8XK.f.u.K.H.^.K.6.]..XlX/ #.^.] H.H.t.A.kXR.N.+XA.].J. .1Xu.^.^.a.Q..Xt.H.{././.j.!.8XwXwX3X1Xf.1X>X8X0X3X3X0X0X3X7X0X3X0XwXwXkX8X>XfX0X7X0X0XwXwX7XsXlXfXsXkX0X;X7X8X7XwX>X.X%XH.%X$Xf.^.%X1XzX1X%X8X8XG.F.A.k 6.H.^.%Xd.~.k   X E H.Y.>XU.8X>X) 0 g.t.s j s.j.@X5XiX&X&X&X%X%X%X%X@X&X.X@X@XpXsX5XuX5X5XuX%X8XK : <.yX5XsX].^.%X+Xf.@X5X%X@X.XpX.Xt.1XsX1X+X8X2Xt.^..Xf./..X/.@X",
"sXI.%.8XsX0X8X8X7XfXV.+X8X1X>X>X1XsX>X+X>X+X9XpX8X+XV s.5X8X8X8XsXbXfXfXfXfX7XbXvX0X0X;X>XE.;XkXoXvXkX0XR.3X7X8XwX;X[ 3.@X^.].d.d.] |.^.j.p.%XsX>X6.H.^.6.+XK.6.d.^.hX( 2.H.K.f.A.K.6.F.>XN.K.+XoX6.H.%XK.H..XH.f.{.g.d.H..X^.W.l.5XwX0X7X8X].8X8X7X3X>X0X7XfX0XeX0X7XwX0XfXkXeXwXeXfX7X7X7X3XsXsXwXkXkXnX7X3X>X>XlX7XfXU.A.f.t.&X^.^.%X%XpX+XH.+X1XA.d.d.p.6.d.$XK.%X~.A.u.]   7 s.^.1XoX+X7X`.+X^. .K f.%XA..X%X5X5X5X5XiX2X#X@X@X@XH..X5X/.5X%XuX=X@XyXsXsX>XD C @X.XdX8X5X$X@Xg..X&X.X#X/.@X5XsXwX8Xt.p.%XlX].t.^._.%X{.Q.Q.",
"nXC.D.+X7XsX7X8XhX8X7.wX>XoX7X0X0X0X3XwX].].F.g.^.H.f.W.2XNXkXkXbXfXfXkXeXkX>X0XmXkX0XE.0X`.>XkX0XkX8X0XI.7X7X7XwXT.] F.f.1X7XA.].K g.&X.X.X5X+X+X .H.H.u._.^. .F.H.H.] F.F.~.A.^..Xu.K ^.H.K.+X1X6.A..X+XA.^.] 4./.g.f.W.^.{.j.s.{.1X7XwXwX8X1X1X1X7X>X].~.8XfXwX1XsXfXfXeXwXwXwXfXeX0X>XwXfXwX7XfXsXlX7X8X7XsX0X1X+X6.3.} U j.j.H.#X.X5X8X].H.f.H.A..X^.Q.2.2.K.u.^..X^.r.].u.l U U <.].+X7XU.[ ] h 0 ^.$XH.+X&XpXpXiX&XpX5X5X5XQ./.%X{.p..XpX.XiXuXuX&XuX5X8X+Xu.f.f.&XuX&X@XQ.W./.{..X%XW.@X@X%X^.a.W.j.g.pXsXA.f.^.Q.{.Q.5X",
"sX3X8X1XoX7XwX+XlXU.V.kX`.`.wX7X8X3X0X8X8XD.N ,.5XlX8X1X0XnXkXfXvXfXkXkXkXkX>X<XvXkX0XB.oX3XkX7X0X0X3XwX7X<X7X0X0X>XA.H.t.%X>XL.K.} .XpX1X$X].H.H.H.f.u.u./.].y. .u.g.H.~.A.K..Xu.K.K.[ K t.f.f.].K.H.^.{.t.p.p.{..XH.F.W.^.Q.W.W./.5X7XfXkX0X1X+X1XfX7Xt.g.^.+XsXsXfXfXfXwX0X1X8X0X8X3X>X>X.X].].1XK.5X .^.].6.6. . .a.f., J W.0.g..X&X5X1X].K..X1X7XK.F.f.] 6.d.H.^.u.K.K.K.H..XA.} G 0.^.t.] } h 7 0 4./.$X%X=X&X&X5X&X#X*X&X_.^.@X&X^.t.5X@X%XuXjXpX#X*X|.8XwX8X1X~.W.#X@X#X{.g.Q.{.W.p.{.#X%XNXV.f.=XQ./.8X.X8X~.a.j.l./.pX",
"wX3X3XlX7XC.<X>XsX].>X0X>X3X0X7XwX8XwX1XwX0X2.<.NXfXwXkXkXfXfXkXvXkXkXfXkX0X1XeXeXfX3XI.>X7XbX0X<X7X3X0XkX<X>X0XwX>XH.A.t.H.+X].K.^.5X2X8X^.p.j.j.W.f.f.u.3.^.u. .6.H.a.j.K.7.H.p.H.^.( ] 3.0 R $X^.F.d.j.^.t.H.^.h @ w ^.W.W..X^.%XsX0XwXfXwX8X7X3X1Xu.N ,.j.l.5XfXfXbXsXwXJ.H..X+X1XvX>X].8XK. .a.p.W.W.^.].u.D 3.d.^.t.6.].+Xf.p.=X%X%X2X1X8X8XhX+XK.6.u.6.[ ^.G.#.S _.+XA.].H..XA.b } 3.w V 0 3 4.,.e.%XpX1X%X/.^.2Xd.p.@X@X%X5X/.%X.XW.@X/.5X=X&X&X.XpX|.8X+X$X.XW.j.@X%X#X.Xp.g.Q.g.W.@X%X2XbX>X6.{./.%X8X$X.X^.0.W.p.{.#X",
"wX0XwXsXwX&.;XwX7X8XsX>X<X0X7X0X7X0XwX7XwXkXu.H.nXfXlXwX7XfXfXnXfXfXbXeX0XlXfX0XeX>XfX>X;X0XwXeX<XoXwXoX8XkX<X7X8X3X8XJ.U.1X+X].^.^.^.%X.XR 0.g.p.f.g.t.6.] f.3.3.6.2.,.W..Xu.] F.W.g. .] u. .V <.Q..X] 4./.f.^.t.l J H.H.f..XQ.j.&X+X8X0XwXsXwX7X0XK.U 0.l.Q.l./.5X1X1XsXkX1X].8XkXfX7X].+X5X8XA._.2X1X1X].$X$XK.A.`.D.y.i.]..X.Xd.@X~.$X5X5X5X1X5X3XG. . .] u..XD.A.V.K.A...f.f.^.%X$.s = * 9 e ^.H.4.Q.&X/.%X+X5X%XiX.X%X5XiXpX%X.X%X{.@X&X^..X@X$X5X5X%X|.@X~.p.Q.^.H.W.@X%X%XT W.@X/.^.%X2X#X.X5XG.H.{.%X8X1X} p.!.4.g..X#X",
"0XwX0XkX0Xm.>X0X7X3XwX;X7X0X0XwX7X0X0X>X0XwX3.9XkXfX0XwXfXlXkXbXkXeXvXeXwXkXfX<X0X0X0X;X0XvX0XwX0XT.0X>XY.kXfX0X>X>XsXoX>X8XK.+X].^.%XH.R g.f.j.H.t.T H.t.p.6.3.t.3.4.2.g.Q.H.u.f.F.u.D J ] p.4.C ,.s.s.s.Q.j.p.j./._.~.W.f.W.H.W.j.s.5XfXwXfXwXwXkX#.,.yX&XsX8X^.W.g.@XpX5XkXeX<X>X+X^.2X%X+X.X].+X8X5X2X.X.XH.t.3.6.u.u.[ ].^.%XH.^.%X8X9X$X^.1XsXA.2.6.3.A.].].A.~.u./ | u.~.H.^.].A.c 1 = 3.%X1XA.] A.{..XH..X&X2X%X5X5X9X5X5X5X8X.X.Xt.#X%X^.%X%X5XjXpX/.^..Xa..X_.H..X!./.W.W.{.^.%X+XJ.K.H.{.%X1XA.W.{.{.g.f.p.!././.W.%X",
"wXeXwXkX7XI.7X0X3X0XkXT.>XwX7X>XwX0X7X7XfX8X8XkXbX0X7XwXbXwXnXnXkXkXwX0XkXfXeX0XeXVX;XT.vXvX0X0X<X<X<X>X>X7XU.wX3X<XfXU.u.].^.%X+X^..XH.p.( q 4.R V f /.g.t.] p.t.6.d.p.4.p.g.f.K.6. .] Y D 4.{.j.p.,.0.g.s.j.f.W.H.^.W.H.t.W.W.H.W.l.Q.8XwXkXwX+X] V s.*XpXsX8XfXH.^.5X^.&XjXnX>Xu.&X8X5X.X].1X.X.X+X%X%XW.^.H.2.f.~.^.%XU.+XpX8X+XW.%X+X5X%X.X8X.XF.t.T ^..XK.].^.~.t.2..X].$Xt.].u.~.L.7.% H.lX].D.$. ..X^..X5X_.W.%XpXjX^..X%XpX8X1X%X_.^..X.X%X#X{.=XpXQ.Q..XW.%Xj.} f.W.@X@X&X^.W.8X7XN.].0X7X+X3XJ.f.W.@X&X@Xp.e.!.l.4.$X",
"kXeXwXfX7X;X0X7X>XwXwX>XwX;XoXJ.wX0XwX0XsX5XnXfXkXkX>X3XnXfXbXbXkXkXkXwXfXwXwX7XfXfX<XT.eXeX0X0X;X;XC.+X1X+XK.%XbXwX7.6.K..X.X5X~.~.^.^.G. .l T C ,.H.{.a.3.] 3.4.t.,.f.,.3.Q.j. .L.f.3.6.g } &X/.{.W.t.A T /.#XQ.W.H.W.W.f.f.{.Q.j.W.W.%XkX>XK 4.4.W.&XsX+XpXkX`.t.%X/._..XuXsXF.^.8X%X%X&X.X]..X%X.X$X.Xp.{.+X+X+X].K.4XD.K.1X@XQ./.@XH.^.@XuX&X@X^.A.D W.=X.X].F.W.d.W.W.K.K.].+X].K.u.%X$.A.].%XL.y.v ( f.pXjX1X].%X/.H.} a./.8X5X8XpX.X^.3.^.5Xg.!.%X$X/./.@X.XW s.3.^.@X/..X5X%X.X+XY.oX7XwX7X8X7XK.oXA.#XpXlXH.W.|.W.0./.",
"sX0X8XsX0X`.wX3X3XkX<X>XkXP.I.U.kXkXsX+X+X^.hXwX0XsX8XwXbXnXsXfXkXkXkXfX3X7XfX7XkXvX0X;X<XeXeX0X<XT.$.+X1XwX0XsX0X[ #.+X^.^..X+X^.H.].F.^.F.u.6.l j.#Xf.} p.d.T 0.t.t.4.0.j.g.t.6.H.^.3.u.{ t.%XW.Q.H.W.t.7 ] t.@XH.g.f.g.f.} .Xa./.0.p.5XlXA.J *X/.%X8XsX5X8XK. ..X%X%X@X.X%X%X.X%X+X2X%X5X2XH..X/.d.W.g.W._.^.^.5XK.].+X+X].G.^.~.W..X^.W._.@X%XdX.Xu.g 2.W.5X].f.p.F.H.d.].D.K.J.oX3X>XK..Xu.H.%X.X#.[ b 3.jX5X8XK. .} l 5 e.j.5XpX+X&X/.^..Xp.{.@X@X$XW.W.W.4.;.p.#X^.@X^.f.%X_.&X2X>X`.>X0X3X0XwX1X1XY.u.%X5XsXH.W.&X1XW.g.",
"0X7XwXsXkXI.<X8XfXkX`.>X<X`.>XwXbX+XoXwXY.%XsX7XsXkX>XwXlXlXfXfXkXkX0XwX3X3XkX0XfXfX3XwX<X<X<XeXwX7XT.+X1X0XY.oXi.A.$XK..X1X].K.+X.X+Xu.H.2.H.f.s t.!.p.3.H.W.6.a.] K K g.@Xf.[ d.K.f.f.S A.H./.W.Q.^.p.W.g o 9 @X^.j.H.d.0 N 5Xg.Q.t.1XjXnX3XW.%X5X%X1X1XhXsX .^.%X5X5X%X6.+X8X%X%X%X2X%X%X.X3.%X^.g.p.p.^.~._.~.1XU.K.+X+X'.A.^.^./..X@XW..X^.5X5X5XA.u.K K #X%X~.u. .F.^.F.A. .6.g.%X0X>X].%X..%X+X].].].^.%X1X5XK.q 7 V 4.,..X.X.X8X/.#X.X5X_.Q.^.W..XW.W.f.N l.uX/.{./.t.H.sX1XH.2X7X>X;X>X3X>X8X7X+X].K.^..XH.W././.$XH..X",
"wX0XwXwXkXE.;XkXsX1XU.>X7X3XwX8XU.J.8XkXsXlXbXkXkX0XwXlXkXkXkXfXfXwXoX7XwX0XwX7X3XkX3XeXeXC.;XfXkX0X7XkX<XO.u.+XK.1X.X^.%X+X].+X+X.XK.^.].H.H.K.S #.j.p.a.H.d.g.H.S (  .f.^.%X#.#.6.6. .(  .t.&X/.{.@Xg.s.A . 9 a.W.a.6.h 0 f.jXjXsX8XsXpXlXlXjXlXlX].5X].1XsXK..X%X%X5X.X^._.H.1X1X%X.X.X%Xf.Q..X$XW./.H.4.f.d.A.U.1XK.+X].~.+Xu.].^.$X^._.K.%X_._.&XH.^.6.k <.5X.Xt.u.6.^.+Xm. .N.A..X.XwX+XH.H._.%X.X%X+X%X].K.iXpX6.6 <.s.W p.f.%X8X_.@X#X%X/.^.W.j.j./.!.W.<.@X@X^./.@Xg.W.@X/..X5X1X>X<XY.`.>X>X7X8X1X+XH.+XW.^.%XW.W./.@X",
"0XwX0X0XlX3X>X0X0X7XY.wXwX1X7XoX].8X3XlXf.8XkXfX8XkXnXkXwXwXfXwXwX>X1XwX8XsXwX>X].wX7XwXeXI.;XkXkX7X0XkX<Xc.N.+X1X7X1X7X8X>XN.K.%X].fX;XK.K.^.L.G.6.] J W..XA.u.K.( [ 6.K.A.pXN.#.u.A.S b  .f.%X&X/.@Xt.f. .. ] 3.A f.D 0 {.8X1XlXwX0X1XiXjXjXlXlXsXsXf.W..XsXwX6..X%X5X5X5X.XsX.X^.].%X%X%X5X5XW.W.W.%X1X2.4..XK.A.`.1X1XK.K..X%.K.~.A.f.%X+X+X+XH.&XH..X6.#.] ^.5X6.K A.d.K./ ]  .u.H..X%Xj.Q.2X.X^..X.X.X~.6.f.].2XD & = U 4.j.j.5X^.t.4.{.&X#X/.Q.l.s.@X/.4.Y {.%X^./.@Xd.W.p.@X%X8X1X+XwX`.U.>X>XoX+X+X+X+XH.^._..X%XW.j.W.",
"fX>X7XsXkXfX+XK.1X0X7XwX`.U.1X7XwX7XwX%X* 7XlXwXfXlXlXkXwX7X0XwX3X>XkXwX1XsXwX>XY.wXoXT.0X>X>XkXkXrXwXwXkX<X[ +X5XsXfX3XeXeX@.i.+X+X1XA.6.].^.H.f.H.H.] D H.f.u.H.6.] K.K.i.^..X7.#.6.#.c ] f./.=X.X.XH.p.H. .t.g.^.K.`.6.5XwX7XsXsX8XsXpXsXsXlXjXlXlX+X4.dX%X%X_.%X%X5X5X5XsX8Xf.@X%X.X&X5X%X.X&Xg.W.5XfX].g.u.K.].U.].1XA.u.8X3X7X3X>X1XH.1X7X~..X/./..XA.H._.6..X6.S g l 6.A.u.A.f.f./.{.#X@X/.@X.X/.$XiXf.t..X.X1X.Xc 6.t.N Q.|.j.0.l./..X&XuXg.g.l.s./.!.g.a.{.5X^.H.W.a.l.l.#X5X.X+X8X7X+X7.N.+X].+X+X1X.Xf.H.u./.#X/.s.l.",
"kXI.7X0XkX8X].>X7X8X+X8XU.oXwX0X8XwXNX+Xs bXkXkXbXkXfXwXwXwX8X3X`.3XkX8X7XkXfXJ.oXwXU.T.oX3XwX0XbXwX0XeXeX0X>XK.+XlXeX0X0XeXb.| .X]..XF.K.5X>Xu.H. .f.f.#.K p..X^.6.6.%X6.u.A..XN.x 6.%X$.] f.%X@X^..X.Xf.g.g.,..X>XN.1XU.1XsXwX9XsX8X@X/.lXsX5XjXlXlX/.R /.pX2X1X^.#X%X&X%XpX^.Q.@X5X$X^.5X.XH..X^.H.uX8XK.H.u.A.`.K..XK.u.%XwX0XT.oXfXeX .|.&X]._.^..X.X%X^.d..X2.] g b H.].A.H.f.A.u.^.3.#X%X/.#X{.&X@X%X$X{.H.].].%XV.6.%X6.] %X%X^.3.a.@X&XuX/.g.s.l././.g.0.%X5X.XH..XF..XuX1XH..X7X0X].`.Y.V.>XU.].>XsX1X.X2.^.5X&X@X!.Q.",
"fXwX7X0XwX8XoX>X8X8X1XoX3X7XwXwXwXlXbX8Xu.NXkXnXlXkXkXwX3XfX1XoX>XsX0X8X7X0X0X>X].oX1X7X>X3X1X0XwXfXwX7X0X0XeX>X0X3X>XfX0X>X<X^ ^.^.G.+X+XkXI.| K.u.K.6.#.#.K.A.6.6.H.H.6.u.].].].^ A.].A.f.K.] t.&X^..Xu.H H g.+XI.Y.].K.9X9X1XsXsXsX$X@XuXjX%XpXzX2Xk.g.<.pX1X~.%X.X/.{.@X@XW./.{.@X%X5X5X&X@X.XW././.W.g.g.^.t.].$X1XK.A.lX3X<X7.u.+X1X[ ~.%X%X^.K.^.F.{.@Xt.^.~.n a F.5XF. .H.A.^. .u.{.j.W.H..X/.^.%X/./.^.^.^._.2XD.S A.+X+X%X+Xu.3.p.{.uXuX&Xj.4.l.W.a.W.@X%X%X/.%X8X+X>X<X<XK.].K.+X`.+XV.].Y.Y.+X3X8X1X1XA.H.pXpX&X{.W.",
"wXsX0XoX>X>X1X1X1X+X1X1X7X7XkXkXkXsX7X8X1XnXlXnXkXkXkXwXwXwX1X>X0XwXwX8X3X1X0X7X>X>XY.>X0X7X+XoX0XfX3X`.<X3X0XfXbX>X>XwX0XY.eXV.]..X>X3X;Xm.i.K.) ( ].D.#.K.+X( l f.H.+XoX7.+X1X].` N.J.c p g.A.K @X@X.Xd.U g..XH.P.U.u.g.jXsXsXsX5XsXfXpX5XpXiX#XlXiXH..XT f.&X=X5XH./.#X{.#Xa./.Q.{.%XpX5X%X%X@X.Xa.p._.W.p.g.d.W.H.$XK.K.8X3XN.H.3.f.d.F..X$X^.2XH.^..X^.&X^.H.^.u.K #.%Xf.f.^.K.f.H.t.^.W./.g.t.|.Q./.uX@Xt.d.&XH.%Xu.$.u.H.^.5X]. .N U l.=XpX@Xp.3.p.3.{.@X/..X%X+X1XwX1X8X>X>X].u.+X].A.1X| D.N.J.oX>X7X1X+X^.s.=XjXpX/./.",
"0XkX+XJ.oXY.8X0X0X7XsX1X1X7XlX9XsXsX]..X%XlXnXkXfXkXsX0XfX8XwXwX7X3X0X8X0X1X3XwX3X7X>X>XwXkX>XK.sX8X1XoX3X;X>X3XsXkX0X<XwX<XeX3X7X0X>XK.C.m.u.1Xm.$.A.D.>XV.C.v  .K.t.+XK. .].1XJ.b #.u.| K _.1X6.] /.2XF.].H.^.g.K.U.3.R 5XlXkXfX5X5X8XsXpX5XjXpXpXjX{._.l .XuXuX2XW.%XpXA.J W.#X^./.@X%XpX5X%X%X^.f.4.f.Q.g./.g.f.H.^.~.A.^.f.u.^.f.2.N Q.@X.X].%X~.f.pXt..X+XA.H.F.].7.K.6.d.^.K.A.f.W.t.t.W.Q.g.g.#Xa..X%XK.l 3.Q..XK.6.^.%Xt.f. .D 0 U Q.&XuXW.U g.U t.dXg.W.&X$X$X1X1X].1X>X>X>X+X+X].]..X] 6.( t.H.t.1X7X+X.X/.#XdXjXiXuX",
"0XwX].T.C.U.sXwX0X8XsX1XsXfXsX9XsXlX>X8X8XsXlXkXwXwXwX8X0X0XlX0XwX3X8X3X>X1X7X1X8X+X+X1X1XsX+X>X7X1X7X>XwXoX`.+XwX0X7X0XeX0X0X7XfXT.>X<XE.<XI.oX`.u.J.v.v.T.[ ] F.K.A.].oXK.K.+X+XD.[ ..+X].+XN.A.s u.5XK.K.d.%Xt.R .X .V H.bXfXkXpXg.5X8XpXdXdX&X|.&X=X%X2..X@X&X5X@X8XsXD.] uX2X~.H..X5XpX%X%XH..X~.t.W.&X|.W..Xf.^.^.~.].%XA.H.^.5XA.] /.&X/..X/.^.K.5Xf.t._.u.#XH.$.6.].1XN.u.W./.f.g.f.2.a.l.W.a.W.Q.t..X%X6.T H..X] 6 A.H.f.3.N J Y l.{.=X&X@X^.{.R ^.5X/.f..X.X/.^..X%X7X`.].3X3X.X].oXV.A. .6.H.~.f.8X0X_.5XsXiXpXxXsXuX",
"7X1XoX`.`.<X0X7X7XfX+X+XnX3X>XbXsX8XwXwX9XnXkXfX>XsX1X1XsXsX9X8XwX1X0X1X+X1X1X1X+X].1XoX1X.X8X0X7X1X1X8X1X+X`.>X8X8X+XA.>X3XA.Y.`.<X<XR.R.D.<X0X<XY.0XO.*.7X#.D.+X2XK.+X>XT.`.>X+XA.D.A.U.m.].J.J.m | %X%XK.f.2XA.2.4.R U W.sXfXsXsXQ.5X%X/.&XuX*X{.2X%X|.g.g._./.uX5XsX8XK.%XpXsXu..XH.pXpX2X5X.Xf.^.H.W.|.Q.W.#Xt.g./.F.f.$X.XA.K.1X$X~.u.{.@X^.j.W..XH.%XF..Xf..X_.7.6.2XsXK.u.N.H.H.f.H./.W.W.j.p.g.j.f.^.^..X5X+X5X@., a.{..XH.2.2.W./.%X5X{.=X%X6.f..XH.%X~.H.K.+X].^.1X8X7X>X+X].%Xu.].u.1XH.].+X].H.5X1X.X%XpX8X5XlXlX%X",
"wX>XoX>X>X3X`.>X8XkX>XwXkX8XkX1X7XsXNX+X1XkXsX7X>XlXwX7XsX8XlXwX8X1X>X0X3X1X1X+X].+X0X>X1X7XsX8X7X1X+X1X+XK.+XK.^.+X].] `.0XK.u.K.0X<XB.I.I.3XT.0Xy.K.) m.+X| 1XJ.t.( Y.>XoX`.Y.V.1XA.+XT.n.oXA.U.#.[ d.5Xg.g.#XH.,.,.U ;.5X+X1XlXpX@XpXsXz.|.=X|.#X.XH.%X{.&XW.p.5XsXsX+X.XQ.%X=X3.d.~.%XpX5XuX2XH.d.H.W./.H.l./.H.p.g.H.f.$X8Xu.+X].^.%XK.^.@XH././.g.H..X/.%X~..X.Xf.u.A.5Xf.~. .A.6.2.p.W.@XQ.g.a.W.a.H./.H.%XkXwXbX0X%.H.1X+XK.+X^.f.^.5X5Xj.%XW.t..X{.].].H.6.u.A.>X_.$X1X0X3XoX].pXK.+X].].K.+X].].%X8X5X^.1XsX8XpXlXhXpX",
"kX>X>X>X3X`.`.0XfXoX`.0XkX8X1X+XsX8XNXhXpXwX0XkXkXsX7XsXsX8XzX8X/.1XoX>X1X].0X1X%X1X8X+X].+X>X7X8X7X>X8X+XoX+XK.} ].`.u.`.+X`.J.].Y.>X-XC.C.<X`.<X`.D.$.m.U.Y.].i. .$.J.oX].U.U.U.U.+X1X3XT.<X<XT.`.7. .W.Q.^.^..Xd.,.U /.3XU.1X9XbX1XpXpXg.#X&X/.&XQ.^..X@X^.W./.5X`.7X%Xj..X#X.X%X_.^.$X5X5X5X5X^.6./.{.*X4.t.W.j.Q./.W.^.^.6.g.2X^.^.%X.XK.@XH..X#X@X.X/.f.^.H.H.H.^.F.u.^.H.A.u.^.D 4.#Xf.j.Q.W.a.g.W.g.W._.1XeXwX7X0XfX0X`.]._.$X]..X.X.XpXK.f.5X5X.X5X1XK.d.].oX3.+X.X8X+XY.fX0X+X8X+X+X8X3XA.1X.X].8X+X^.pX8XwXwX8XpX5XkX",
"kX0X7.`.>XoX;X>XsXoXwXwX8X8X1XsX1X1XNX8X^.lXfXbXfX1X7X8XsXsXlXsXH.].A.K.u.K.1X8X8X1X>X8XK.+X8X7X8X7X1X8X1X>X7Xu.6.K.K.f.K.+X`.N.u.J.<XV.%.&.T.J.3.A.D.V.V.`.+XJ.N.U.].u.Y.].+X`.`.%.>XsXoX<X;X>X8XwXoXt.d.W.H.f..Xl.C U 3X>XT.wX0X1Xj.*X@X!.@X&X/.*XQ.@X%X/./..X%Xg.f.sXK.g.&X.X%X1X.X^.^.5X5X2X%X5Xf.^.Q.!.|.4./.|./.&XW p.g.t.g.%XH.$X%X_.~..X5X_.{.^.&X^.H.t.^.6.t..X_.d..XF.K.u.| K W./.4.e.l./.{.W.j.p.W.K.H.sX<XK.%X7X7X>XY.K.+X`.u.H.^.^.~.^.%X^.1X0X7X8XA._.8XU.u.G.]. .1XwX+X2X~.H.5XhX3XoX+X%X+X].f.^.sXfXsX8XpX8X7X1X",
"fX].oX>XU.7XY.oXsXwXwX0X1X8X3X7XwXsX9XsX#XjXnXwXsXsX0X8XsX1XpXjX1X].].A.6.].2X8X+X1X+X].].1X1X^.].8X+X+XK.].+XK.oXU.]..Xu.N.].u.D.B.I.N.C.) %.`.A.| y.V.D.A.U.3XoXL.Y.+XU.C.>X8XK.C.T.sX<X;X7X>X7X7X3XK.u.6.j.6.H.#X,.4.5X`.;X>XfX>Xl.=X@X/.!.&X@X.X%X5X.X^.@XW.@X^.f.2X%X%X^.F.2X%X%X5X.X].8X5X5X5X.XW.0.{./.j.s.*X@X{.,.Q.W.H.~.u.%XA.%XH.6.H.@Xu./.f.^..X^.t./.^.~.f.~.K.].A.K.d.| v t.{.g.,./.Q.@XH.W.W.6.D /.sXD.F.pX1X7XL.9X^.A.1XK.K N ~.1X5X_.]..X].bXkXoX].1X>X6.K.+Xu.8XwX+XdX$Xf.5XsX1X>X7X1X+XN.+XkX3XwXsX1X7XlX8X+X",
"sX>XwXU.>X7XN.1XsX7X7X7X8X8XwXwXhX5X7XkXlXjXkXfXkXlX8XkX8X$X8X8X8X>X1X7XJ.u.1XsX+X+X8XK.+X+X+X].].8X+X1X`.oX+XsX1X[ ].].A.6.oX].7.%.D.7.y.@.C.V.Y.K.6.y.y.C.;X7X>XK.K.K.I.V.U.7X1X7XP.;XwX<X0X>X<X>X7X0XY.u.t.Q.H.@Xt.1.@X1XT.oX8XvXA.&X%X/.{.@X#X^.%X%XH..X&XQ.=X/.6.^.pX5X.X^.2X%X%X+X%X+X+X5X.X5X%X^.H..X.X/.!.|.&X{.6.t.4.^.6.] @Xf.^.3.H.^.Q.W.p.^.H.^..X^.^.5X^.K ^..XF.A..X~.K.v l &Xj.W /.Q./.H.~.@X6.d..X%X].~.^.jX0X1X8X1XU.J..XK.u.pX1X+X.X8X+Xf.u.8XlX`.u.K.^.U.7X+X1X7X].sXlX+X].sX8X0X0X7XoX#.8XsX0X0X7X+X7XkX9X+X",
"wX3X8XY.+X8XoXV.0X>X+X0XkXwXsX1XwX8XkXsX1X8XbXkX8XsXkX8X1X8XsX8X1X+X>X8Xy.+XA.K..X+X7XH.^.].1X1X1X1X2X.XK.U.oX0X>XY.U.D.].J.A.K.`.m.m.g `.$./ ] ].].K.K  .u.D.3X].G.A.oX`.`.oX7X>X7X>XU.0X<X>X<X<X3X0XwX3X3X$.f.Q.Q.0.l.l.@X].6./.2X+X%X5X#X{.%X{..X%X#X/.#X&Xg..X%X.Xt.H./.#X.X%X$X=X.X.X#X%X%X.X5X2X%X%X/.Q.W.W./.yXQ.] : g.@X .3.@X.Xf.t.^.4.3.{.H.H.H.H.^./.H.^./.^.$X$X^.u.^.^.F.K D &X/.j.e.l.Q.Q.~./.^.$X^.].K.H.W.sXsX0X0XwX3X`.U.3Xu.3.@X1X+X7XkX`.t._.8X^.7.K.1X].oX8X+X>XwXsXsXlX0X3XwXsX+X].].t..X8X+X].7X8X7XkX7X1X",
"8X3X7X7X7X7XD.C.;X>X+XwX9XsX+X1XwXsX8X8X5XlXsXsXsX8XsXsX1XwXsX8X8X7X1X].6.>X1XK.^.H.3XK.+XL.K.+X].^..X1XoX].3X8X+XU.`.K.Y.D.oXV.#.) P.@.K  .k #.K.F..X .Y $.N.Y.].].A.].].Y.>X8XK.>X0XC.0XwXT.;X<X7X0X0XwX0XI.K.].j.j.p.h.a.=XK.f.} ^.pX+Xj./././.@X%X%X&X^.@X^.^./.%X%X_.d.%XiX%X%X%X%X%X5X%X.X%X%X^.5X@X^.g././.#X{.p.Y T .Xf.#.U.A.A.K..Xt.W.} W.@X6.u.6.%X/./.Q.%X$X~.d.$X6.t..X].[ 2.#Xg.p.g.s.Q.H.~.^.~..X%X+Xu._.fX7X1XsXvX0X3X>X<XV.] F.1X7X3X3X0X1X8XkX>X6.].D.].$X>XK.8X7X>X0X5X2X.X1XwXwXwXu.H.+X+X.X].].K.1X7XsXsXsX",
"sXwX>X7X>XJ.D.oXU.+X1X5XkX1X+X9XsX9X8XsXlXfX8XzXlXsX1X%X5XsXsX+X+X+X7X>X+X3X7X1X+X.X8X+X.X.X].K.K.u.A.%X>X+XK.+X1XA.oX].8XC.%./ ( u.V.#.K  .n / K 6.H.d.N  .6.6.] K.].H.].D.;XwXI.`.kXoXT.fX<XT.0X3XeXfXfX7XoX1XwXH./.p.g.p.&X8X#.Y {./.U 4.l..X%X@X$X&X#X5X5X^.H.^.=X5X&X2Xd.t.^.5X&X1X8X%X%X.X%X5X5X.X^..XH.%X#Xp.g.&X5Xf.j.].c u.u.A.]..Xd.f.t.3.W.4.T t./..X/.&X$Xd.H.H.W.6.H.d.H.^.f.l.p.R Q.j.f.H.~.K.^.K.$X5X+X<X`.U.8XsXhX3X1XwX;X` K.sX3X>X+X1XwX0XwX1X>XD.].>XJ.^.+XA.+X .G.sX|.:.|.3X+X8X3XK.K.8X0X1X3X1Xu.+XA.^.%XkX",
"fXwXY.>X+XV.7X>XI.8X0XsX1X+X8X9XsX5X8XsXsXkXkXlXlXsX1X%X1XsX8X1X.X].1X].1X8X7X>XA.8X+X^.F.^.F.f.+XH.6.L.+X].+X+X0X7X>XY.( V.K 6.u.( y.6.K K c ( D } d.~.(  .3.D.D.3X8XK.f.].7XoX3XT.>XwXB.-XfX<X3XwX0X0XfX3X0X8XwX>X/.W.g.%X%XiX+XA..X .<.g.Q..X#XpX5X5X%X5XpX%XH..X&X/.%X#XH.f.f.pX5X%X5X.X=X5X5XpXlXK.W..X^.%X.XH.&X/.^.f.<.^.v $.V.V..X%X^.3.^.t.^.t.D f.@X%X_.^.%XH./.g.g.t.} F.F.{.^.s.4.,.l.W.t./.^.d.A.^.%X$X8X3XT.oXsX1XjX8X>XkXD.| 7X<XoX<XJ.>XwX>X1X1X+X>X .G.].J..Xu.3. .].8XyXx.&XU.].K.6.].+X8XwXwX8X1X+X+Xr.%X8X8X",
"wX7X>XY.I.`.wX7X`.3XsXsX^.^.%X8X8XsX7X1X8X.X%XzXwXhX1X9X5X1XsX.XH.].].].1X+X1X].K..X+X].+XK.f.f.K.A.K.K.+X8X>X>XY.7X3X( 6 6.u.].y.v K | @.c 7.S #.2.U 2.u.] A.J.;X0XoX+XK.D.>XoX+X<XB.>X<XR.wXeX0X0X>X0XfX3XwX3X8X>X.X%X.X^.@X5X8XN.]..X_.3.T ^.#X5XjXlX5X&XjXsXH./.&X5X^.f..X%X.XH.5X%X5X%X.XpX5X%X5X6..XH.^.g.f.=X5X@Xt.j.4.f.K 7./ @.1X].%XG.f./.Q.^.u.f.^.&X^.t.%X&X2.H.Q.] u..Xd.%XQ.e.4.,.e.l.a.f.g.H.d.t.%X.X5XhX;X<XwX8XlXwXwXeXI.J.7XI.>XoXY.1X>X1XoX>XK.A.6.K 2.A.8Xf.A.u.u.+X5X8X1X1XK.N.K.1X1XfX7X8XsX1X3X+X].7X8X5X",
"wX8X3XoX;X>XkXI.>XoX0XwX_..X8X1X2XjX8X8XlX~.p.zXlXkX8X.X/.1XsX+X].1X1X_.8X1X].+X1XL.+X1X].8XH.} A.K.].u.F.+X>X].u.].oXA.N.oXK.$.7.K D.Y.%.v u.( ( 6.} ,.u.Y X.A.7X3X>X+X0XN.].oX>X0Xm.-XkX;X;XkXwX;X7X<X0X8X0X3X+X8X8X%X5X].%X+XsX].K..X^.^.t.] W.@X5XwX5X%X5X9X5X%X@X.Xp.2X5XH.%X^.5X%X%X%X.X&X.X.X.XK.H.H.^.&X{.{.@X/.3.4.W.g. .c v 2.+X].~..Xt.6.p.#X^.H.K.$X5X@XF.%Xf./.6.3.^.f.^.p.Q.p.p.p.<.W.a.3.f..X~.K.+X1XsXsX7X<X;X7XwXlXkX0X>X0X<XI.`.oXY.1XU.+X3X].H.5XK.A.].] ].].^..X] f.H.H.%X].D.Y.u.>X8XkX7X].wX>X7X`.oX>XsX8X",
"wX7X3X>XoX3XsXT.>XU.0XsX>X1XsX8X5X8X5XsX8X8X_.iXnXwXsXiX$X+X8X8X1X1XsX$XA.+X~.^.7X8X+X^.K..Xt.K.K.+X].].1X].$X].J.u.L.oX+X>X7.C.I.K N.V.@.#.G.X.] t.u.%X0X6. .| >X>X1X].U.D.D.+X>X3XT.C.kX<XR.0XwXT.wX0X3XfX7X>X3XsX8X8X8X>XwX8X8X+XK.^.+X.X9XK. .H..X1XK.t.Q.&XlX+X@X{.%XjX+XK.5X~.~.2X.X.X%X5X%X{./..X^.@X@X&X@XW.@XW./.u.t.l.] p v K W._.p.H.t.4..X%X@X.X .^.@X.XF..XH.W.d.t.^.f.^.p.g./.s.p.p.j.W.H..Xt.^..X7X0XwX0XkX3XB.3X8XkXfXwXwXT.>X>XoXB.I.0X].U.7X+X].1XU.7X3XK.T 5XsX8X6.t.f.t.^.F.K.u.7.K.wXwX1XoX0X8X>X>XK.8XfX3X",
"wXwX7XT.Y.7XwX7X>X`.bX3X^.1XhX1XsX1X8XhX8XpXwXd.lXsX1XsX1X1X%X%X.Xt..X1X].K.^.].8X%X].].`.^.1X1X3.3.K.K.1X].A.].>X3.+X>XU.].U.V.y.( [ |  .( } H.6. .^..XsX6.U.>XoX>X].oX1XU.V.7XoXoX;XU.>XkX>XC.0X>X>XlX3X>XwX0X0X0X7X0X8X>X7X0XwX+X+X%X^.].%X0XN.^./.5XsX1XF.%X5XsX%X@X5X].H.%X.XH.F.5X.X%X5X%X#X{..X$X%X%X=X=X8X.X@X/.^.u. .t.f.g = T ^.Q.H.p.p.Q.Q..X&X+X .f.H.@X.X^.g./.f.g.t.H.^.H.p./.j.p.R j./.K.^.^.%X+X+X7XeX0XwXwXI.>X8XwXfXsXwX>X7X;X7.7.;X1XK.V.3X1X`.>X7X7XoXV.] %XsX5X+XH.g.f.p.H.u.u.D.K.+X>XJ.%XkX1XoX3X].sXsX`.",
"0XwX7X>X`.7X8XsXoXJ.sX8X>XpX8X+XlX5X1XsX8X8XsX .A 8XwXsX8X8X+X+X^.F.f..X^.].f..XH.t.1X>X3XwX].].K.u.f.].8X].t..X7Xu.>X3XK.+XU.%.Y.U.v n ^.3.J F.K.] _.d.~. .] >X>XoXJ.].oXK.V.1XD.U.`.>XT.8XwXE.;XsX<X0XwX<X7X0XwX0X3X0X8X3X>XwXfX+X1XwX%X].+X1X1XA.^.lXkXkXsXkX+X1X.X^.1Xg..X$XH.%X^.$X5X5XsXpX%XW./.&X5X%X5X5X.X%X&X_.g.a.t.,.f.] < D {.g.~.d.a.s.^..X%X+Xd.Y g.pX.XA.W.g./.p.6.F./.p.l.l.g.g.f.p.{.H.H.$X8X>XD.wXeX>X7XwXkXT.I.wXhX0XsXeX>XR.C.C.7X>XY.+. .K.1XwXoX0XA.f.u..X8X5XhX+X~.A.F.W.F.} oX1X+X>X1X7X1X+X].>X].F.pXsX",
"0XwX7X>XY.>X0XsX>Xm.7X8X8XlX8X5XjX5XsXjXsXwX+XwX^.1XlXsXlX>X8X$X_._.+X_.f..X+X].1X].^.1X].1Xu.A.]...].sX1XwX6.L.+XoX].+X3XK.D.| K.u.c 6.f.6.A.H.f.] t.2.g.^.6.].+X`.N.D.1X1XN.oXD.u.D.7X>XU.wX3X;XwXkXY.<XwX;XwXkX0X3X7XwX7X>X8XwX7XwXeXlX1X3XK..XK.^.lXfXwXnXnXy.f..X=X$X^.%X^..X@Xp.%X%X5XiXlX%X/.Q.{.jX/.%XpX/..X%X.XW.s.p.<.4.6.s q g.j.g.6.g.g.Q.j./.^.f.t.^.5X8XA.H.f./.g.4.4.H.H.Q.a.l.g.g.f.W._.^.f.%X1X`.0X7X>X0XwXlX>XC.1X8XsXwXkX3XI.C.>X.X].Y.*./ 5X7XeX;X3X1X+XV.].1X5XhX.XW.H.d.^.^.A.oX>X+X8X7X1X7X+XU.1X].8X1X1X",
"0X7X3X>X8X7X7XsX`.m.7X8XsXsX8X8XjX5X9XkXzX8X].NX1X .iX1XlX+X>X8X8X1X+X%Xg.W.].K.1X].K.%X2.H.A.H.] A.>X8X+X8XK.f.+X].`.A.L.Y.y.t.].| K f.f.H.H.f.f.6.6.K.H._.u.f.J K.A.A.u.1XV.N. .( J.`.oX`.>XlX3X>XkX>XR.wX7X>XkXwX7X7X7X3X+X>X8X1X9XwXwX9X1X| K .X@XW.^.kX8XH.t.5X^..X.X.X%X5X.XW.W.{.#X=X%X.X.X/.Q.@XjX%X&X/..X.X+X/.H.^.F._._.D.g 1 K /.j.p.l.p.s.p.!.Q.^..X8X+X5XH.t.} .X/.Y p.W.j.j.W.s.s.4.p.j.H.d.@X%X5X>X<X>X<X7XwXsX8X0XY.1XhX5XwXwXI.c.I.].J.U.n.C.0X7XwX0XT.kXU.%.lX^.8XkX%X%X+Xu.F.+X].>XV.Y.+X0XsX8X].`.>X1X].1X8X",
"sXI.oX1XsX1X3XsXY.V.1XsXsX8X1X1XsX%X8XsXbX8X0XkX8XsX8X8XlX>X1X8X+X_.^.%XA.H..X7X3X8Xu.H.].].K..Xu.A.+Xf..X%Xu.A.f.u.A.K.K.wXD.u.K.K J ^.A.] R t.f.2. .F.6.6.D.]. .K.K.Y j } ].Y.y.$.A.7.Y.>XD.wX0XoX0XkX7X;X0X;X0XwXeX7X>X7X1X1X8X>X8XwXwXkX].[ K.8X+XK %XnXsX+XpX3X6./.g.p.&X%X@X/..X@X%XQ..Xf..XW.!.@XiXsX1XH.5X+X%X^.5X6.U g.f.A.g 7 h W.W.g.l.k.p.p.W.l./.@X^./.g.%X] p.&Xp.N T l.g.j.g.j.g.0.e.p.p.^.%X.X7X`.7X<X>X7X7XsX9XkX<XwXsX8X1XwXJ.V.P.I.>XT.;XC.D.+X0XeX;X>XN.K.1X+X8XsX8X8X^.f.K.8X`.1XN.U.oXfX3X1XwX3X].1X].+X7X",
"3XY.7X+XwX7XwX1Xy.].2X$XjX5X1XpX5XpXlXsX8X1X1XwXsX1XnXlXwX].1X+X.X%X.X^.].+X8X3X1X+Xd.].+XY.3X+Xf.G.].g.0.~.u.K.].H.1X8X+X>X`.7. .] j T f.d.3.u.A.3.6.f.d.2.Y.+X+X+XK.H.A.V.1X] ] #.y.D.A. .A.>X0XwX<X7XfX;X>X<X<XfX0X3X>X>X3X1X0X3X1XwX0XfX8X].5X.X| } &X8X2X+XH.A.+X/.^.4.&X=X/./._./.@X/.uX.Xg.^.W.W./.#XsX_.W.5XkX1X_.F.] Y 0.g.f J 7 p.t.h U ;.V l.k.e.g.} W.!.H.$XF.4.t.g.,.T s.j.4.} 3.<.1.1.1.H./..X.XK.K.oX8X<X>X8X8XsXfXfXwX>X7X7X0X7X>XC.m.T.P.>X#.N.oX].8X>XT.`.1X+X+X5XjXwXH.5X+X_.lX>XV.U.C.7X7X7X>X7X>XK.+X+X+X7X",
"K.1X8X`.sX>X1X1X].].]..XsX8X5XpX5X%XlX1X+X0X].5X3..XlX8X%X_.1X1X+X.X].].A.].1X_.^.W.+XK.].8XoX~.3.].>X_.H.%X].V.Y.%X+X.XK.`.K.y.{ ] 6.D H.].K.K.u.A.u.3.g.%X].].^.].].+XT.>X].V. .V.7.V.$.u.].].+XkX7X3X8X7X;X3X;X;XwX7X>X`.3X3X3X>X8XwX3X8XsX8X%XK.$.^.#X%X%X^.d..X%Xg.{./.@X#X%X&XW./.@XuX8XK.K 0.g.R !.#X5X&X5XpX8XsXH.{.d.h ,.W e.f.g N l 7 V 9 z.|.4.k.s.g././.5XF.p.R ,.j.p.U 4.g.D w 4.R T l.g.f.H.@XF.l .Xu.].>X>X7X7XwXwXwXkX1X>X7XwX;XwX`.T.C.m.m.Y.>X>XJ.1X7XoXY.D.`.1X1X.X8X1X1X^..X%X6.v | `.].K.8X>X3X>X+X+X+X8X8X",
"D.sXwX3XsX+X3X3XK.].].$X5X8X1XlX5X%XzX8X1X+X+Xt.4.8X_.].1X.X1X3XH.K.1XK.%X1XoXH.^.6.4X].K.5XK.+X].].K.>XoX8Xf.] A.+Xu.A.+XA.].#.( 3.f.K 3.].6.t.K.6.u.6.3.4.K.6.A.K.].oX>X>X>XoXD.N.D.[ y.$.3.A.3.g.8X1X].wX>XoX1XY.fXfX7X>X<X8XoX7X9X1X7X8X7XsXwX8X].^.%X.XH.^..X@XH.d.5X%X%XsX&X@X.X1Xf.{.^.Y J 1./..X.Xj.{.=XpX9X8X8Xg.l.6.w e.e.Q./. .g l z 9 4.uX5X~.g./.@X] f.T ,.] D ^.W.l.,.0.s.p.,.9.U A /.s.4.p.g.l 3.].6.A.1X8X7X3X3XkX8XwXkX>X0X3XT.eX<X;Xm.&.&.C.7XoXD.`.7..X+X].1X>X+Xu..XpX$XK.f.^.2.$.oX8XA.u.7X>X7X3X8X8XK.1X8X",
"Y.8XsX>XwX+X8X7X+X+X1X+X%X5XsXNXpXsXzX7X1XU.7X^.8XkX1X1X8X+X>X8XK.1X+X].1X].^.].+Xu.+X].`.7XJ.+X+X]. .K.K.+X+X+XN.A.+X.X5XK.G.7.6.6.] A.3.d.+XW.8X] ( u.V.+X0XV.+XoX1X].A.oXoXJ.`.K.7.#.Y.| 7.u.u.3.1X%Xu.1XwXoXwX+X7X3X3X7X0X>X7X1X5X1X>XwX7XsXhXfX1X8X>X .^.hX+X.X$X].W.pXsX1XQ.@X/.&Xf.p.{.K j Q.5XwX0X%XH.l.=XjX8X8X1X^.Q.u.l W.H.H.H.u.6.D K @X#XjXoX3.#Xf.< ] N 3.u.H.+X/.Q.,.g.h.e.4.f p.l.s.s.s.g.K  .6.0 f.kXnX7X>X8X>X>XwX0XwX8X>X0XwX<X;X<XV.%.I.U.7X>XJ.N.| +X3X7X1X+X+X^.5XjX.X8X1X1X>X`.>X>X1Xy.oX3X1XkX3XoX1X1X1X",
"1XsX1X+XwX].3XwX1X>X1X+X5XlX1Xf.%XpXsXsX8X].Y.lX^.sXnX1X.X1X8X+Xu.K.]._.F.K.].pX1XK.K.+X]..X1X+XK.].H.f.f.K.>XkXJ. .6.r.^.]. .D.u.A.K.A.6.].sX>X+XN.V.Y.oX0X8X .A.K.7X+XK.A.K.u.X.D D #.V.[ U.+XK.].+X+X+X+XwX3X3X7X>X>X7X7X7X7X3XoX0X3X1X3X1X1X8X+X5XkX7.6.uX.X.X^.%X%X].$X.XH.!.!.!.5XsX1XH.7 f.sX>XeXeXbXA.1.#XjXjXpX8X1X~.F.K g.5X>X>X>XA.6.3.^.^..Xf.t.^.u.6 6.,.0.^.@X/.g.g.a.3.s.g.T h /.*Xg.f.%X+XU.%.g 3.%XNXBXfXD.8X8X].1XsX1X0X3X8XwX`.T.<X`.0X`.V.m.fX;XI.D.>X].].7X]..X].%XpX^.K.8X8X8XoXD.K.].+X7.`.8XwX0X>X7X>X+X",
"9XsXoX0X7X].7X+X1X+XW.^.A.R r 1.W.E ;.Q .X'.1XkX1XsXlX+X+X+X8X1XA.A.`.5X8XK.].K.K.H. ..X^.K.3X+X].K.6.u.f.t.+X5X2.] u.J 3.1Xu.6.u.0X6. .t.6..X+X].8X7...u.`.%X6.3.7.3X8XK.6.6.[ 7.( s | F.[  .U.K T 3.H.%X].1X8X7X3X>X>X3X7X>X3X3X>X3X3X7X>X>X7XfXfXkXfX] A.@X.X%X^.^.1X%X.X8X.XQ.@X#XsXwXwXK.2.$X8XwX0XfXu.] g.W.@X5XpX+X$X]./.H.} H.7X0X>X<XD.} f.F.p.!.3.H.T ] f./.&Xf.g.#X4.g.H.A W.g.l ,.|.[.#X%X0X| +XoX( `.hX8XBXlXJ.+X5X>X1X+X8X7XwXsX3X3X;X>XT.7X7.[ J.>X3X<XC.3X].].3XK.+X8XA.4..X^.5X1X1X1XU.U.A.1XoXA.7X3X>X>X>X0X7X",
"8XfX>XlX+X1X3XC.~.p.C 9 t >.!.xX%X^.T E l.W.hXsXwX8XsX+X+X.X5X5X1X8X>X8XlXJ.K.oXu.6.u..Xf.L.+XK.+XL.K.y.A.G.+XW.T A.1Xf.t.oXN.A.`.1XV.u.6.6.f.K.1X^. . .$.oXf.u.6.].1X].].y.| u.A.V.%.6.f.D (  .Y ] ] d./._.8X5X+X1X0XoX>X8X].+XoX3X>X>X7X1X+X+XsXfX8X+Xu.H.+X7X1X1X3X8X+X+X1X^.5XsX8X1XsX0XsX+XA.@XpXwXK ,.l.g.l.l.=X=X%X$X.X^.u.} H.1X0XoX>X7.6.d.H.H./.3.2.j..X.X@Xf.6.H.0.W.Q.H.6.p.g.j.R !.|.uX.X1X7.6.1X+.y.5XsXnXsX1XU.8X1X+X`.1XsX1X9XwX3X7XT.;XoXI.J.0XC.`.fX>X].A.].+Xu.].wX] V {..X.X8X+X8X1X`.K.8XoXoX7XU.8X3X0X0X8X",
"sXsX8XnXwX>X6.N 4.R <.s.k.*XuXsXkX1X+X.X^.%X+XH.%XjXsXwXwXf.%X8X1X8XwX>XJ.A.+XK.+X+Xt.K.K..XK.K.].d.f.K } H.+X^.4.>X0X+Xu.oX>X3X].K.J.V.A..XA.+X+X1X$Xd.A.L.A.t.t.].D j +XU.V.]  .u.D.f.A.6.K.6.6.2.t.F.g.g.1X+X8XoX>X+X7X+X>X>XY.0X>X].3X7XA.oX7XkXfX].g.Q.1XsX0XwXfXwX3X.X.X%XsXfX8X_.sX9XsXU.f.%XsX3XT l.j.s.l.p./.=X5X&X3.3.p.H.t.f.^.Y.] 2.f.g.H.$X^.t.p.%X.X.X%X6.] g.3.^./.@XH. .f.W.R W.@X#Xu.] t.K @XD.( 1XBXkX8XwXU.`.8X1X+X>XY.wXkX8XwX0XI.R.<X7XC.`.>XoXI.wX>XA.].].U.oX3X+XR :.k.Q.%X.X1X].+X+XwXY.1X+XK.5X1X1X~.A.",
"1XpXsX+X^.3.o 3 !.V 0.uXjX.X%XpXjXwXsX8XsXsX+Xt.uXsX1XwXK.K.1X8X8X7X0XoX+X5X].K.H.A.A.K.+X.X.X1XA.H.].3.] K.+Xd.^.1X7XU.u.Y.+X+XU.6.`.>X].u.F.G.oX1XA.u.A.].U.K.6.f.N T p.u.U.( ( D.y. .K.r. . .6.] 2.4.6.f.8X].sX>XU.1X+XJ.7X3X7X>X>XoX>X>XV.7XwXwXsX+Xf..X.X8XfX0XsXfXwX1X5X9XwXsXkX8X1X8X1X]..X_.^.].^.g.l.g.l.l.Q.|.|.@X3.} %X/.} l 3.u.D H.^./.W..X.Xf.d./.%X^..XK.6.] H.^.{.@X^.u.2.g..XW./.t.T 0..Xu.f.].%.>XBXfX0X>XK.+X8X7X0XY.Y.1X8X>XsX;X;XC.3XkXC.T.wX>Xy.0X>XY.A.].1X0X3X7X_.9.s.{.iX1X.X+X1X.X_..XH.+XK.+X1X8X+X.X",
"sX1Xh 3 >.H 3 R &X2X2XpXhX].sX5X8XsXsX8X8X8X1XnX].r 5X].+X>X+X].5XsX`.`.].+XK.+X].K.V.A.~.K.f._.f.1X8X~.A.].].].+X+X>XD.U.U.].K.A.J.>XoXY. .A.f.+XK.H.L.i.K.U.1XU.].u.f.d.+X].6.| | D K K A.3.0 l J F.6.~.4.^..XF..X+X].+X].>XwXwX+XoX>X>X`.P.fXwX0X0X+XK..X.X8XwXwXkXfX8XsXkXsXwXwXsX8X5X1X1X_.8X].H.^.@Xl.g.l.^.{./.R !.@XQ.T H.g.J 0 T t.t./.%X/..X.X5X8X6.4.@X%X].K.K.( 3.^.$Xg.H.d.H.f.W.{.W.^.K p.].+X^.t.u.`.>XwX3XY.1X+XoX>X>Xm.>XJ.oX1X0X3X1X3X>XoX0XT.<X8X3XY.>XY.L.].].3X0X7X7X8Xg.,.h.pX8X8X1X+X.X^.u.1X1XK.1X1X5X5X",
"] 9 e r t e.=X+X8X8X8X1X1X].5X.X1X8X0X8X1XlX7X8X8Xh +X1XfX>X].6.^.5X%X+X^.K.H.+X%X1X[ #.^.6.A.H.d.8X1XF.J.7X].>XA.K.t.u.K.u.Y.A.u.Y.K.J.K.7.oX.Xp.^.A.G.7.A.].K.+XD.1XN.`.^.K.]. .K K K [ A.1Xn h K J.].].3.+X5X%X5X5X].3X+XK.3X8XK.+X3XU.].U.+X+X8X7X+X].1X8XsX0XwXfX0X+X8X+X5X8X7XwXsXfXA.~.5XsXA.F.^.$X6.g.W.H.H.@Xf.!.Q.s.t.s.Q.} U } W././..X.X$X5X1X8XK.K /.sX3XC.#.| +X#X.X .F.^.p.H.g.Q.@X.Xg h T W./.f.k 2.T 1X>X`.1X`.`.3XoXV.].>X0X7X8XfX>XsX>XV.fX7X@.<XfX`.`.3X1X+X>X7X+X8X+X1X8X_.f.p.jXkXwXsXsX8X].>X7X].].4X1X8X",
"# 9 :.t ;.&X.X1XsXY.1X8X%X1X%X.X8X1XsX8X8X%X8X1XsX3XfX8XwXoX+X1X%X5X1X8X1XA.H.^..XA. .A.u.f.A.t.3.].].>XK.].Y.u.u.K.A.f.].J.N.].+X+Xu.r.K.N.Y.f.@X6.[ A.].A.+XY.+Xt.u.].oXY.G.K.K.6.p ] ..] f.y.@. .] ].3.t.H..X$Xf..X].K.1X>X>XwX1XoX+X`.`.oX+XL.>XY.Y.1X9X0XwX3XwXfX`.A..X^..X].8XwXkX8Xu.F./.%XF.~._.].T W./.g.8X].g.p.z.s.g.<.a.j V j.W.{..X{.2X1XpX1X>X].u.$XsX3XT.T.V.+X.X_.1X^.%X].^.g..X{.p.Y f R %X&X&XG.2.F.3XJ.1X3X3X>X1X>XY.oXwX7X7X7X0X8X1XsXoX7XsXV.C.kXwXI.>X3X8X>X`.+X3XoXoX8X%X8X+X%XlXsXsX1XwX1X+X1X.X%X.X1X8X",
"o R W.W.%X1XK.7X>XoX1X1X8XH.2X8XjXlX5X+X8X8X8X+X1X1X+XlX0X+X+X1X1X1X1XpX+XK.].+X].A.+Xf.} f.t.A.A.].8X+XL.+XA.K K.N.]..X].].K.>XY.1XN.J.].U.J.^.^.D K.+XK.K.K.Y.5XK.`.3XU.>XoX+XK. .b u.] ] ]. .( }  .A.^.f.R /.%Xp.~.H.].+XwX`.>X8X].+X7X+XK.`.1XY.].>X1XwX0X7XeXkX>X`.].wXoX].+X8XsXsXsX8X1X.X8X8X+X+X~.6._.g.j.lX;Xu.4.s.g.g.Q.Y U g.|.!.@X%X%XpX$X%XfX<XI.+X9X0X>X+X>XT.N.^._.hX1X2X5X1X[ 4.s.R p.g.V.N.8XlXjX8X>X>X].wXY.7X`.oX3XoX>X3X3XwX3X8X0X8XkX0X>X7XlX>X>XsXoXV.>X>X1XY.3X>X3X`.+X.X8XkX1XsXpXsXsX8X8X+X+X+X$X1X+X5X",
"( H.lX7X].6.] K.K.+XH.8X+XH..X%X5X8X^.f.8X%X5XA.].lX} f.lXkX`.>X1X+X%X1X1XY.K.+X8X+XK.%Xt.6.A.+X^.K.].7XA.1X+X].].6.u..XA.K.Y.u.K.Y.`.>X+XA.Y u.].A.].+Xu.1XJ.A.>X`.d.~.J.oX1X].6.K.V.6.3.l K A.]  .6.} ^.3.4.j.p.f.f.f.%X].K.1XA.+X+X8X>X>X`.I.7X>X`.+X>X7X7X7XeXfX;XN.+XkX;X+X^.8XsX+XsX0X3XfXwXwXeX+X_.+XA.f.^.{.8X6.3.t.@X/.@XA R z.W.@X|.5X1XiX.X+XwX0XR.3XwX<X;X>X>X`.Y.>X^.lX1X%X%X1X].3.;.1.l.A.m.J.sXkXsX0X>X>X3X1XoX7X>XJ.wX3X>X0XoX8X7X7X0X7XsXfX3X7XnX].D.<X7X`.U.>X7X1X+X7X7X>XY.8X%X8XsXsX8X1XsX1X1X1X+X5X+X8X8X+X",
"U..X8XoX>Xl  .3.~.H.6.2X%XH.^.^..X5X.X+X%X%X5X+X+X+X+XA.T A.8X>X].A.+X%XK.8X8X].].].f.^.G.H.A.K.+Xf.G.%XK.].8XK.].6.K .XK.V.K.D.+X1X>XA.1XoX7.u.1XoX`.+X1XY.@.3X>X8X6.t.J.`.+X8X+XY.%.] D l l t.K  .f.} f.p.k.g.3.K.K.^..X1X] pX].A.5X5XoX>X>XU.7X3XC.<X7X3X<X7XwXwX>XK.>X7XfXwXG.5X5X^.5X5XsX0XkXwXwX1X+XD.S W.Q.s.W.K.a.4./.@Xg.W.p.s./.{.@X5XsX8X.X8XbX<XR.3X7X`.<XwX<X;XoX+X.X.X+X1X8X.X2X.X4.R e.f.Y.3XbXbX>XoX>XoX0X1X1XkXT.b.3XwXoX>X8X>X>XwX7X1XwXsX0X0XwX8X>X0X>X7XD.Y.>X+X1XoX>X>X].0X].%XsXsX%X+X8X1X5X5X1X8X.X1XkX0X",
"sXK.A.]..X] l t.2Xt.6.%X1XK.K.8X8XsX.XL.%X8X%X1X5Xt.].1X^.D K.8X].].+X^.5X8X.X1XK.+X+X+Xt.u.] .X_.H..X1X+Xf.].D.K.].[ A.H.3.i.L.+X].6.]  .8Xu.u.A.K.1X]..Xf.V.wX>X1XoXF.D.J.7XwX7X`.I.[ D ] u.[ u.2.f.~._./..X%X1X+X8XF.K..XK.+X1XK..X1X.X+X>XI.;X7XI.;X3X<X;XwXwX0X>XY.+XwXvX0XK.1X%X%XsX7XkXfXfXfX0X>XU.d.s.e.e.W.g.f.g.4.l.Q.p.{./.s.W.@X&X%XwXbXsXfXvX0XO.I.7XU.3X0X0X;X7X1X+X.X1XV.sX1X.X8XH.,.g.d.+XJ.+X3X<XU.+X>X1X8X8X+XD.I.R.7X7X>X8X>X].wX0X8X7XwXwX7XsXfX0X<XfX3X>XY.oXoX>X].1X7XV.+XK.~.2X].+X1X8X1X5X8X5X3X.X5XsXkX",
"1X6.f.K.u. .T H.u.V.1X8X.X].+X9X8XpX]..X^.%X.XA.5Xu.t..X%X+Xl l H.1X1X].1X1X%X].+X].%X5Xu.6.6.^.T u.+X1X].6.A.].].8Xy.#.1XD.u.F.H.u.K.].7.1XD.N.D.oX>X+XF.%X>X].].+X1X[ K.T.wX7XwX<X;XV.u.K.`.m.D.d.2.+X8X1X+X+X8X>XwX+X6..XsX].+X+X].+X1X.XoXI.T.7XT.U.>X>X`.wX1X0XwX+XK.].1XU.^.$X.X.X.X9XlXkXwXsXsX>X].oX>X].p.W.p.R t.W./.!.g.s.|.g.W.@XuX^.5XbXwXkX;X7Xc.B.wX`.oX;X<X7X7X0XbXlX7X+X1X3X1X7X0XwXfX>X>X@.T &X1XoX>X>X>X>XwXN.oXwX@.C.kX>X>X3X1X>X8XkX7X7XsX7X7X8XwX>X7X7X`.>X].>X].K.1XsX+X].^.H._..X1X8X0X8XpXpX1X^.^.5X@X+X",
"1XF.t.u.oXA.T f.G.1X~.H..X].+X5X5X8X.X$XW.W.W.H.].i.~.@XH.$Xu.K 1.0.5XpX^.1X1XK.%X1X6.f.8X].f.oXu..X+XA.].oXK.`.Y.5X7.g t.f.A.t.^.L.A. .u.].6.] V.>X+Xd.6.].A...^..X_.7.>XJ.<XkX0XU.3X>X>X7X7.7.K. .f.1XsX.X>X1X8X7X8XsXu.L.%X%X].+X^.A.1X+XoXY.C.3X>XC.T.1XT.>X8X7X0X+X].^.K.W.@X/.^.f..XpXlXbXwX8XkX3X>XoX;X0X0X`.2.l.t.H.g.&X@Xl.!.|.l.!.%X/.8XfX>XwX3XoX`.I.7XI.T.T.;X0X0X0XkXsX5X8X8X>X>X0X0XfXfX7X<X>X6._.wX;X>X7X8X].8XoXoXN.V.) 7X+X7X8X7X+XwX0X7X>XwXwX7X7X0X3X3X7X3XJ.`.wX].>XsX8X>X+X+X1X+X_.1XsX0X8X5X@X^.Q./..X/.H.",
"$XK.A.K.F.} 6.F..Xf..XH.H.].^..X5XpX5X.X_.g.^.H.8Xu.t.%X%X2X$XV.1X6.d.pX8XsXkX8X.X%X3. .%X+X].].J.%XL.$.].oXu.K.].+X .( A.f.6.~.^.A.T 6.U.oXK.A.Y.Y.].K.6. .2.f.$X%X].6.>X3X`.eX3X<X0X<X<XeXY.V.u.A.+X^.7X1X1X5X].].+X+X]. .d.+X.X].1XK.oX%X+XV.T.T.>XI.C.3X<XoX>X]..X].+X+XH.0.g..X~.^.%X1XlXbXfXsXkXwX<X<X;X0X<X0X6.l.e.;.0.@XpX^.W./.{.@XjX5X8X>X1X0X0X>X;X>XI.>XC.I.<X0X3X0XeXfXwXsXwX0X3X0XwX0XwXkX0X<X<Xb.oX>X>XU.0XoXY.3X`.].oX%.V.8X7XwX8X7X7XwX8X1X8X0X8X7XsX>X7X1X%XK.Y.1X5X+XwX8X>X1X8X3X1X.X8XlX9XsX%X@X/.j.g.W..X^.",
"p.<.2.K.t.T j g.H.u.sX1X+XF.0.Q.1XpX8X5X^.%X+X^.1Xu. .H.]..X+Xn ].3XA.&X%XwXlX^.+XsX1XK.H.^.H.u.].].oXK.K.A.$.A.K.L.K.D  .A.f.^.A.Y } .XY.>X1X.XH.] L.} F.V.u.H.^.8X1Xu..XkXT.0X0XeX0X<X<X<X>X+Xu.K.K.1X8X%X].8XK.H.].].i.i. .+X].].%X+XA.%X].V.T.E.>X<XT.oX3X;X>X7XK.G.iX%Xu.9 0.=X^.^.1X1XsXsXlXkXfXeX<X<X<X0X3XJ.3.e.9.1.s.s.s.l.5X0X8XsXnXkX8XJ.>X7XsXwX;X0Xv.T.U.V.3X8X>X>X0XkXvXkXkXfXeX0X0X0XeXvXwX7X<XO.J.1X8X>X].7X].`.>X>XJ.D.@.fXkX7X7X7X+X1X0X8X1X7X1X%X8X8X3X1X8X+X} H.%X1X1XlX1X7X3X8XwX0XwX8X9X8X%X%X^.^.f.H..X+X",
"g.W.].f.6.A.#..XK.].1X1X+Xf.~.2X/.5Xg.g.p._..X+X^.^.Y._.d.^..X#.`.d.+X.X5XpX].].1X1X%X.X1XK.H.D.`.K.+X].+XK.( y.] A..X3. .6.].K.t.f.].wXK.] T H.6.y.+XJ.F.`.D.].^.L.1X7.H.+X7X0XfX7Xu.U.`.`.oXu.~.J  .5X8X%X~.].f.Y.NX3XoXwXK..X.X8XK.8Xi.].^.K.C.n.oX0XI.;X0X0X<XeX<Xu.pX%XH.K {.5Xu.H.5X1X8XsX8XL.7XvX<X<X<X0XeX0X1XL.4.l.s.e.e.z.#XsX0XwXfXsXsXoX`.7X0XwXoXT.c.B.8XN.U.7X1X`.;XwXkXvXfXwXeXeX0X0X0XvXeX0X;XU.Y.>X8X1XK.7XoXY.0XU.I.oXoXY.].7X0X3X1X1X>X7X1X1X_.+X+X1XfX3XkX8XA.K.^.^.].1X8X].].%X8X0X8X5X#X_.f.%XH.f.u.4.f.].",
"2X~.].8X7.K.K.].].^..XpXf.l 8XpX%X5X+X1Xt.t.+XsX1XK.].f.^.1XsX.X+X} ].6.%XsXsXlX+X.X%XpX5X+XfX>XK.V. .K.A.6.7.K.u.6.^.i.J.u.3.].]..X1XA.A.L.3.3. .H.8X>X].+XN.K K f.1X[ y..X1X7XfX].K.;X<XY.N.A.W.A u.2X1X1X].].i.7XfXkX3XwX1X+Xd.A.].+XoX]..X].) Z.C.>X>X>XwXwX3X>XwXJ.5X1X.X^..X%Xu.^.1X8XlXfXY.u.%X>X7X;X<XwXeXwXeXfXK./.W.4.#X.XH.5X0XeX0XsXlX>X;X7X7X7X0XI.B.m.+XU.V.wXoX0X;XT.vXfXeXfX0X0X<X7XeXvXeX0X;X>XJ.A.1X8X>X+X+XV.U.1Xm.>X<X@.Y.wX7X0X>XsX+X+X1X`.+X5X+X%XpX8X.X$X3XK.].K.1X1X%XF.+X%X1X8X.X#X@X.XH.^.%XA.h g.} r ",
"t..X^.+X~.N.L.].A.K..XpX6.T .X8X5X5XlX1X.X5X1X^.+XA.H.d.g.+X1XA.%X+X].K.^.8X8XpXG.K.1X8X1X].8X].N.A.$.t.T [ K.].+XS $Xr.Y A.A.A.].u.L.U.Y.0X5XH.d.~.~.K.A.3XoX( D u.+XV.( ^.%X8X0X7X1XN.A.q D %X^.} p._.+X%X.XoXK.K.7X8X].].wX].]..X+Xu.1XoXoXY.C.B.&.<XoX<XwXwX7X;X0XoXi.2.#X%X%XoX .%X5X+XhX3X6.^.%X^.5X7X<X0XeXwXeX0X0X1X1X1XkXfX0XfXwXwX0XsXkXwXT.oX>X>XlXC.%.D.N.1Xm.>X3X1X1X0X<XwXfX0X7XwX<X;XwXfXeXeXT.`.D.].+XoX1X].7XI.J.1XI.oX0X>X7.>X7XwX8XsX8X+X1X3X1X8X.X_.&Xl.1.s.pXK.1X.XF.8X_.~.].H.%X%X.X.X.X/.^.H..XA.] H..XH.",
"f.%X].+X+Xf.7..XJ.A..X5X~.W.%X8X%X@X5X%X5X1X+XK.Y.]._.f.H.^.+X~.].].].1XK  .2X%X+X3.4.%X%X%X.Xf.b K.].6.u.K .XJ.Y.A.5Xu.D H.8XK.f.} T 8X;XT.kXkX+XJ.6.~.t.+XwX>XD.T.J.u.n L.+X5X1X+X.X . .q K.+X^.3.3.3.u.1X1X`.>X].+X1X+XL.7XwX>X7X1X.XY.>XY.Y.].m.O.T.3X;XwXwXwX7X0X-XK D &X%X^.8X`.].1X.X9X1XH.1X1XwX7XwX0X0XeXeXeXvX3XeXfXwXeXVXrXfXwXwXfXsXsXkX>X;XoX7XsX;X` J.V.+XoX`.7X7X>XfX3X<X>XJ.wXsX>XP.7XwXeXwXU.3XU.U.oX1X+X8X1XV.C.1X>X>XY.oX+.>X>XwX3XfXsX5X7X8X8X>X$X4.p.W.^./.^.f.p.g.,.f.g.j.f.H.%X_..X.X.X.X^._..XH.~.+X+X.X",
"K..X].8X+XA.].H.].+X^.g.} 6.8XiX%X5X{..X8X1X5X.X+X1XA.+X].].1XH.d.^.u.+XA.+X1X1X+X6.t.+X^.+X].R ] K.t.%XA.K H.( K..X].K.Y A.`.+Xf.t.J f.U.Y.8X6. .].Y.^.+X3X+X7XE.%.>XU.K u.+X]..X^.%X6./ | 5X^.H.K.f.T K >X+X>X7X1XK.+XK.]..X+X+X>X]..XY.N.D.J.J.m./ T.3X<X7XsXwXwX3XT.Y.K.%X5X%X1X1XH.1X+X+X+X+X0XsX>X7XwX>X7XvXeXeXeX0X7XkX>XeXeX3X0XwXfXsXfXsXfXwXP.I.+X+X`.I.3XT.m.0XU.0X0XwX3X0X3X+XN.fX+X`.V.0XfXwXsXoX].`.A.+X8X>X5X>X@.J.>X>X7XI.3XT.I.3X0X3X0XwX9X1X1X3X3X8Xs.V H.8X2X5XH.} t.u.t.H.f.f.t.Q._.$X.X_.f.f..XA.t.f.8XoX7X",
">XH..XU.8X^.u.1X].H.H.8X] u.5XjX%X@X.X1X9X9X+X.X1XwX3X>XoXK.+X6.3.K.H.W.$XsX+X+XH.f.3.K.5X2.]  .f.t.t.]. .3.4.u.g.K.oX].} <.t.].F.4.^.>X>X].1XK.1X8X>X>X].1X].D.T.[ 1XeXoX6.6. .} 4.f.D 6 ^.sX+X%X].u.f.+X].H.1XL.^.].+X].1XH.1X5X+X+X].+X%.$.Y.m.N.N.U.<X>X7XsXwXkX<Xc.V.5X.XsX8X].1X1X+X+X+X+XwX0XwX3X0X%.f.8XkXeX0X<XnXT.;X0X0X3XwXwX8XkX0XlX0X7XkXD.m.Y.>X].>X3X>Xb.>X7X>X7XwX3X<X>X1XY.fX8X3XoXU.eX7X3X7XU.3XK.1XY.>X+X1Xb.Y.>XY.8X`.`.>XU.oX>X8X7X8X1X1X1X1X1X2X_.p.@XxX%X.X$Xu.u..XK.H..XQ.a.s..X%X~._..XH.g.f.f.H.].7X3X",
"7X].1X7.8X^.] .XH.H._.2XJ H.%XsX5XW.1XzXwX1X1X8XkX7XU.7X>X+XK.K.u.A.4.f..XpX~.{ ^.5X]  ..Xu.3.u.].+X8XT A._.d.+Xf.} H.5Xt.0 g.~.t.6.`.+X8X3XA.H.wX1X+XoX3XkX<Xc.bXfXN.>X3X`.c < l 4.e.0.t./.sXsX8X8XK.+X1X+X} H.K.T ]..Xu.8X+X].sX+XoX7.].Y.^ N.@.V.`.Y.>X>X0XfXsXlX<X) K.2X8XkX+X].7XwXA.f.^..X8X1X>X8XK.m K ^.sXkX0X7XkX<X<XwX`.<X0XwX0XsXsX9X0X3XsX7XP.3X8X1XU.Y.Y.3XY.1X1X8X+X0X3X`.3X8X0XfX8XoXV.3X3X].8XwX1X1X>XU.+X+X+XD.I.>X+X1X`.T.3XoXJ.Y.8X1X1X+X>X>X1X+X8X.Xg./.lX^._.pXK.f.1XF.^.W.$Xj./.5X%Xf.^.1X+X^.~.1X>XY.>X8X",
"A.+XlX].A.+XY.H.6.t.+XH.f.3.H.%X%X%X9XpX+X1X8X8X8XK.+X8X].K.K. .A.K.^..XA.5X~.6.H.].F.A.].1XK.F.1X1XF.J +X1X].].f.} ,.@X].v K.2X8X+X].6.+X3X].+X1X8XwX;X0XsX0X0X0XeXC.7.U.oXn g D C ^.f.W./.lXsX+X3X1X].^.7X] H.+XK.+X^.u.7X].6.9X9XK.V.>XoX` m.$.6.+X>X`.>X<XeXwX7XA.D.+X8XwX0X7X1X7XwX].A.^.~.5X.X%XK.A.A.( 6.sXlXfX0X7XwXsX>X7X0X7XfX3X0XfX8XsXbX8XwXD.V.>X+X1XV.J.8XY.U.1X`.oX8X0XU.`.8X7X7X8X1XoX+X8X>X+X8X1X1X8X`.V.8X3X`.Y.oX>X+X1XoX>X3XD.Y.8X1X8X>XJ.+X>X+X8X8X$X.X%X%X+X+XH.f.%X^.~.^.$X^.5XpX5X_.%X+X>X].1X`.].1X8X7X",
"K.H.]..X6.^..XY 3.A.+XF./.6..X%X%X5X%X5X9X8X9XsXL.K +XK.6.p.3.].u.f.p.H.^.%XsX+XA.f.$XA..X+Xf.K..X$X^.].>XK.K.1XK.g.p.R H.#.7.$X+X3X1X].wX<X>X1XD.fXbX7X;XsX`.0XkXI.I.;X0XU.U.7XI.[ ] 3.g.^.%XhX8X1X3XK.1X+Xu.u.1X1XA..X1XK.L.A.1X7X].A.V.Y.&.*.#.J.+X7X>X>X3X>X3X7XK.8X0X>X0XwXwXwX8XwXwX`.1X.X].1X.XK.1XK.( u.8XfXkXwX>XwXlXoXT.0XwXkX>X>XbX0X0XbXwX8X].v N.1XwX`.D.>X].7.1X7XoXoX1X3XT.oX8X>X0X+XoXA.8X7XJ.+X1X+X8X1XU.oX>X`.oXU.+X>X0X>XN.>X>XU.>X>X7X7X;X3X3X1X1XfX8X3X8XsX1X.X%X$X^.5X.X1X1XK.+X1XiX.X%X^.+X1X1X>X`.1XfX>X",
"].} ].+X~.^.H.K A.A.6.f.t.3.H.g.^.1X^.pXlXhXwX5XK.A.+X].+XH.K.+Xf.R f.F..X%X+X+XA.A.A._.^.^.t.].%X8X1Xt.u.`.].1XA.3.g.^.+XK.#.d..X0XY.0X7XwX3XU.N.sXnX7XT.wX>X0XkXR.c.7XkXwXwX0XwX( 7 0 C Q.j.=XsXoX8X>X>X%X7XV.A..XK.f.K.K.K.L.K..X+XJ.A.>XR.! J.]..XoX>X>X>X>XJ.7X3XwXfX`.3XwX>X8XwX>X3X7X>X].].+X+X1X1X+X>X0X0XkX0X0X>X0XsX>XT.0XwX3X3X0X8XkXsX7XkX3XsXV.m.3X8X>XV.>X+X6.7.wX>X`.1X7XC.Y.8X+X8X7XU.+X1X3X>X].1X+X>X1X7XV.K.oX].1X`.oX7X8XY.oX3X`.>XY.U.8XwX0X7X>X8XsX0X1X>XwX1X^.2X8X1X8X8X+X+X.X%X%X.X%X.X%X+X1X>X+XoXwX7X1X",
"].~.t..Xt.A.].6.H.F.H.2.3.~.p.W ^.5XdX1XzX.X1X5X0X+X]..X+XK.U.A.t.d..X+X8X+X.X^..XH.f.H.1XH.].].].].u.H.f.1Xu.t. .t.1X8X1X].6.6.0XoX].kX>X0X>XJ.oXwXlX3XE.<XkXwXeX0XtX<XeX7X0XnX .@ = 7 U ;.Q.}.g.].7X1X>XoX+XK.6.K.].d.K.1X].A.u. .+X.XC.y.y.V.D.].^.K.`.>XoXwX>X<X7X0XsX7XoX1XoX1XwX3X>X7XoX+XoX].7X8X7X3XfXfXeXwX3XfX<X`.0X0X0XoX8X7X0XkX0X8X8X7XwX7XkX7X+.`.8X>X3Xu.d.t.[ `.8XK.K.8X>X`.>X1X1XwX`.1X>X+X1XA.+X9X3X1X5X].7.+XU.+X0XD.>X8X>X>X>X>X8XY.I.3X8X0X1X1X$X8XsX8X>X8X8XH.%XhX8X+X8X1X1X+X+X%X^..X_.%X%X+X+X>X1X8X1X8X",
"H.+X6.H.t.^.K.t.H.+X~.d.6.u.,.W ,._.5X5XlX^.+X8X8XoX>X+Xf.1XJ.u.3.u.1XG.H.8X+XK.1XK.H.~..X} f.K.+X1XA.]._.6.y.+X6.f.^.+X+X].+X7X>XT.7XfX>X7X3XfX0X7XsXfX-X;XvXwXfXlXT.;X>X8XfX`.: % @ J 0.E p.l.U H.sX0X3XK..X^. .u.F.d.+X5X.Xf.+XA.A.L.D. .N.+XA.6.u.N.>X>XwX>X1X>X`.0XfX0X>XoX>X>X+X1X].oX].L.oXoX7X0X7X8X+X7XfX0XeXwXwXoX0XwX3XY.fXU.3X0XsX8XsXwXoXsXkXkXC.D.8X1X>XA.N 6.u.| +X] l K.8XA.].>X8X8X8XoX1X8X7X8X+X1X1X+X+X7XD.U.1X>XU.$.+X>X1X0X>X+X8X>XP.>X8XfX1X1X6.%X8X7X>X>X5X2X5X8XsX%X8X.X8X1X+X.X.X].+X_.%X+X1X>X+X1X8X8X",
"K..X1X^.t.t.H.f.K.} } 1XK.f.f.J d.5Xp.1XpX^.9X8X7X].L.].K.kXK. .A.3.Y.+X^.8X.X+X$XK._.+Xu.u.K.+X8X>Xu.].^...V.].D.A R +X1X7XY.t.3XnX0X1X>X;X;X7X>X0XfX0X;XtXkXwX8XsXU.V.>XNXT.p : = p f.4.} s.s.p.g..X8X8X+Xf.p.] A.A.K.1X].].].+X1XU.+X1XA.U.>XK.K.Y.D.3X+X>XoX0X3XD.+X5X+XoX>XA.K.8X1XK.H.].6.1X0X>X7X1X8X].>XwXfX0X0X0X7XoXwX7X0X>X`.0X7XwXlX0X1X>X8XwXsX>X%.>X1XD.+X] ] H.D ( +X .K.+X].].oX>X8XsX].Y.8X7X].].Y.>XfX;X`.+XK.~.$X+XJ.%X].K.1X8X7X1X7X;XD.sX^.+XjXK.u.9X>X8X>X5XpX1X%X8XiX1X+X7X7X1X.X1X].5X1X].1X3X1X+X3X>X1X",
"K.%X.XA.f.T t.].t.J 3.f.8X1X] z f.^..XsX8X%X5X8X1Xt.A.u.^..X+X6.D.].L.K.A.5X+X+X~.K.K.].f.t.+X].].%XA. .K.A.oXJ.K.6.K.8XsX0X[ K sXNX8X1XsXI.P.K H.8X0X3X3XwX8X8X7XkX7X-X0XkXp o = 1 0 ,.,.C W C 4.l.R H.lX+XA.].K.u.f.F.].>X.X+X.X>X].J.5XoXC.0X7XwX7XY.+X+XJ.A.8X+X>XU.1X+XA.A.A.K.].^.].oX+XoXoXeX>XU.1X+X+X3X0XbX0X0X1X8XoX3XsXwXI.1X7X+X1XkXkX+X1X1XsX+X1XU.D.0X>X1XA.D K.6.g } ].+XA.~.A.].oX7X7X1X1XoX7X>Xf.^.7X3XI.;X>X~.^.g..X+XK.$X] H.+X1X8X`.>X`.]..X1XsX7X] ^.0X3X7X>X8X8X1X5XsX8X1X>XwX3X+X1XK.1X0X>X+X7X7XoXY.7X7X",
"H..X.XK.t..X+X].f.,.3.+X7Xd.3.3.T ,.%X+XpXsX8X1X1X6.6.K.^.+X1X+Xu.].8Xu.i.8X].K.].K.].u.H. .H.J.A.f.K.`.y.+X+Xu.f.`.>XwXsX0XD.b ^.zXkXY.sX<X` V.hX8XsX1X7XkX1XwX0XkXfX;X0X[ o & 1 & t.} J # - j !.|.^.3.^.8XK.].K...A.].K.+X].>XH.A.+Xu.>X1XY.>X+XwXfX>X`.U.`.A.A..X].J.oX].K.N.^.K.6.^.^.1X+X].].7X>XA.K.A.1X1XoXkXeXwX0X7XfXI.1XwX>XI.>X7XwXwX0XY.8X]..X+X1X].D.oX7X7XF.K { ^. .A 2.u.6..X1XoX1X1X7X8X1X>X1X8Xi.1X<XoXwXoX`.Y.].H./.%X].^.} ^.%X+X8X>X`.3X].>X0XfXY.: N dX1X+XoX+X1XsX1X1XlX3X1XfX0X1X.X+X+XwXwXY.`.8X+X+X1X8X",
"%X5X.X].H.].H.K.t.} f.+XK._.u.3.H.H.W.%X8XsX8X1XH. .N.K.H.u.N.+Xu.>X$.: 6.8XK.K.A.u.u.%XH.F.].$.] u.8X`.D.H.~.u.].>X3XwX7XdX+X7.K.{.7X7X0X7XoX0X0X8XsX8X0XfX0X7XkX<XkX0XI.7 @ & p p.4.5 j w f } Q.|.@XQ.a.j.%X8Xi.G.>Xu.+X].+X+Xu.u.u.A.A.5X7X0Xt.y.8X7XK.Y.].1XY.].G.A.K.H.>X+X`.].t.g._.+XK.oX].A.+XA.u.].>X7X].>XsX0X0X0X1XY.T.8X3XC.`.0X7X7XoXwX9XK.K.]..X+X].#.7X].R 2.6.+X^.A N } K.wX7X+XA.8X+X%X7XU.+X+X1X1X+X].8X>X>XU.].^.]..X+XK. .+X8X1X3X8X>X3X1X>X1XwX8XD @ %X1X+XoX1X%X5X8X].8X9X>X>X+X8X.X.X^.^.%XoXA.+X].+X1X.X",
"+X1X+X.Xu.H.].+XK.H.^.F.p.K.u.R +X5XQ.5XdXlX9Xt.A..X.X].H.6.H.t.H.+XK H.sXY.K.^.K.] ].7X1X1XK.J.| u.1XoXV.H.f.7.U.0XwXwX7XwXwXV.3.g.~.kXI.7XfX7X3XwX1X1X>XwXfX7XfX3XfXD.: * % & q  XN 7 A 3.U W 0.W.Q.j.j.a.^.sX].G.K. .K.f.L.K.6.J. .6.u.oX1XwX].A.].>X>X0X3X>X3XY.`.A.u.1X8X8X>X>Xu.H.H.H.].U.].6.A.u.u.+X1X0X].U.7X7X7X7X8X`.`.8XoX3X`.8X8XK.3XwX3X1X]..X+X+X+XV.oX1XK.H.A.7.t.] T d.6.K.H.u.3.H.A.3XoXJ.7X3X1X3X>XK.V.7X+XK.t._.+X.X^.^.H.u.8XwX1X1X>X0X>X+X3X1XpX].= } hX+X+X+X8X1XsX+X+X9X].1X7X1X%X/.l.g._._.~.H.+X1X%X1X",
"+X+X^..XK.].D.+X8X.X~.F.d.6.A.f.H.f.{.8XpX5X+X] %X+XF.+X].1XA.u.+XT g.5X5Xf. .f.f.f.H..X8Xf.+X#.7.K.u.K.A.]./. .K.+XwXfX<X7XfX$.4.@X%X1XoXwX8X+X].0X1X`.7XkXlX3X>XbX6.@ @ * = = 6 C 3 9  .{.p./.j.1X+Xf.0.Q.Q.,.^.1XoXK.t.f.^.].].].A.T A.>X+X>X3X].K.>X7XwX>X7X>X>XY.J.K.8X.X].+XK.K.1X+X1X1X].f.3.t.F./.].1X3X1X+XoX3XfX3XoX>X>XY.7X0X3XoX3X3X>X1XsX7X^.+X+X+XK.].N.U.1X+X].] u.K.K ~.3.] } } H.J 3.8XK.+X1X3X>X0X3XU.U.'.+X^.6.%X%X_.^.^.^.u.].hX+X>X1X1X8X].+X8X1X8Xu.7 ^.+X].+X8X8X8X8X+X1X.X+XwX1X5X$XH.f.^.^.^.^.+X1X+X5X",
".X]._.f.^.F.].%X1X1XH.K..Xu.f.^.3.^.pX{.$X~.].1X].K.A.F.1X`.oXH.f.^..X3.p.V 0 h H.f.6.].8Xd.F.6.A.N._.t.f.^.^.Y  .J.Y.3X3X0X8XkXoXt.!.^.A.1X8X1X`.sX>X>XkXwXkX7X0X3X: * * @ @ * @ - @ 8 V a.Q.pXlX`.fXwX[ l t.a.j.5X.X]..X+X].+XoX].+Xu.+X+X].oX8XoX].>XwXwX0X;XY..X].>X`.+X+X].+XA.6.H.A.1X+X].^.H.6. .~.+XK.1X>X+XJ.<XwX8XJ.].].V.1XwX7XU.>X0X+X+X7XwX].].].].+X3XK.Y.+X7X+XG.Y.t.2.T g.2.3.H..X] t.%X^.%X+X>X>X>X1X`.>XV..X^.~.+X%XA.1X].A.N.].5X1X1X>X>X8X>X].8XoX1X%XK N %X+X7X7XwXwXsX>X>X1X+X+X1X8X%XpX3.6.@X.X%X].].8X.X",
"sX%X_.t.a.H.].8X%X].K.].K.} H.~.H.8XF.} +X%X1XsX].u.H.f..XA.6.G.^.lX1X6.2.6.| A.].A. .K.%X.X^.H.].u.^.H.f.].^.U ] J.d.u.>XfX3XfXkXA._.6.t.&XlX].u.5XsX0X0X3XeXfX0X .@ * # @ & = % - 3 3 t j.8XsXsX+X3XsXU.S h H.^.Q..X+X1X+XK.oX+X].7XU.J.^.K.f.K.1X>X7XfX0X>XK.Y.].J.8X.X].1X>X].^.t.u.K.3.+X^..X].Y.K.d.^.~.].L.>X].`.8X8XN.A.+XK.A.1X7XY.;X3XwX3XoX7X>X+XH.3.1X].>XK.].K.K.>XoXH.u.6.^.~.J 6.+XG.H..X].7X.X^.J.].oX+X].J.K.~.H.1XA.} 8X5X| #.8X%X%X1X1X3XoX8X3X>X>X8XU.Y.K.3.5X].fXwXnXbX8X>X7X+X+X+X8X5X5X].3.1X1X^.g.H.+X+X",
"_.H.$XH.3.W..X%X+X].+X5Xt.t.K.2XF.1Xf.t..X1X+XsX].t.K.f.].f.D +X/.pX+XK.V.1X].+X].A.u..X.X.X].+X>Xu.A.].K.f..XK.oX>X8Xy.`.sXwX3XwXsXfX3XY.%X].t.F.1XkXu.K.0X3XwXwXl * - * = % & * @ C Q.iXlX>X0XlX0X>XsX+X$. .H.W.%X.X.X5X5XK.K.5X+XK.+Xi.L.].K.Y.3X1X>X>X5X].H.H.K.+X>X5X1X`.1X+X+XK. .].1XwX1X^.1X0XeXA.} A.].H.].%X].>X1X>XoXf.A.t.A.+X+X7X0X`.8XoX;X7X8X+X>X+X^.oXu.K.K.1X+X].].].#.1XH.] A.H.6.D  .8X1X+X+XK.1X1X].].+XY.+XK.K.D f.1X^.>XD.>XsX1X1X>X7X+X+X8X`.U.Y.`.J.V.l 3.].BXkXlXNXkX].>X8X^.K.1X+X.XW.Q._._.t.4.g.} .X",
"~..XL.3.^.8XA.K.8XkXsX8X.X].7X2Xf.+X5X8XH.1X%XhX^.f.H.+X6.6.A.].Q.8X1X+XoXY.>X+Xu.]..XH.f.1X.XK.A.K.^.K.] 3.~.K.>X7X8X`.T.>XfX>X>XwX8X>X`.J.u.+X1X+X^.] >XwX>X3X3Xl : - : 6  .T 3.U .XwXlX>X].sXhX0X>X1XlX1X+X+X].A.g.l.^.8X].].+X8X^.Y.+XH.].].+XY.8X8X+X1X+X+X+X].1X7X1X1X].].3X8X].T D N.>X>X7X0X>X3X6. .].u.L.+X1XL.].8X7X+XD.].+Xi.].5X+XfX>X].].oXY.0X0XY.].+XL.A.J.Y.+X].+X1X+XJ.`.+XA.]._.f.] 6.1X8XH.F.oX+X+X+X].+X].%XK g ~.5X3X+XwXC.oX8X.XoXoX].1XU.1XH.u.U.1X.XD.` A @XNXlXlXBX5X+Xu.+X].F.^.%X^.j.W./.j.} 2.t.g.W.",
"H..XH.].oX+XK.A.sX8X8X+X.X+X7X1X]..X1XlXfXsXlX1X>X8X_..XH.u.+XK._.1XK.].N.D.+X+XK.^.~.6.f.+X].} F.A.].K.u.].~.6.y.3X0XD.7.D.8X.X+X7XU.+Xu.6.]._._.%X%X].>X0XwX1X7.g - : , h yXyX1X].lX>XwXU.1XfX8X+X3X8X5X>XA.f.sX>XK.t.@X2X8X].].9X8X].+X^.].1XY.>XsX0X1X+X5X%X1X7X<X0X>XwXK.u.K.>X_.u.K.6.6.].^..X+XU.].+X].u.+X]._..XH.u.1X>X].].H.d.].8X>X1X3XN.D.>X].Y.fX`.^.6.H.A.D.].7X+XoX8X+X].U.].^.].W.p.} K F.f.+X.X].].+X+X].1XY.6.( Y.#.7.1XL.>X>X8X8XK.^.>XA.1X>X>XH.~.1X^._.8X%.` H..X].A.4.e.s.t.1X~.H..X.X^.j.g.#X/.p.Y a.W.g.",
"g..X^.1XY.%Xf.f.8X.XH.+X8X>X1X1XH.].8X9XlX1XlX1X1X1XH.H.%XK.>XK._.K.A.K.u.U.G.].].A.].6.^.F.K.6.] T  .oXA.+X .H.].Y.8XU.[ D.8X].].Y.J.u.6. .~.~._.8X+X>X0XwXsXD.>X` , , 1 5 |.jXpXsX8X7X8X7XwX3X1XsX0X`.].sXwX.XA.wX8X6.F.%X9XsXL.5X.Xf..X8XK.>X`.>XsXwXsX8X+X1X8X7XY.3XwX8X1X1XN.A.H.+X].A.F.K.H.^.5X1XA.H.H.D.0X].~.f.^.u.K.8XA.+X} K.K.+X1XK.oX>XY.3X].K.3X>XU.].+X].K.K.+X1X].%Xl 6.A.K.+XoX3.R p.K  .f..Xu.t..X1X+X+X].`.| D./ S V.K.} lXkX8X1XsX].>X`.oX>X`.].1X0X+XA.+XK.m.J.G.: - t E t E ;.t 1.Q..X^.0.l.l.W.W.g.j.p.3.",
"W.%Xf..X^.5X^.6.^.sX~.sX5X%X_.+X+X+X%X8X]._.NX8X+XsX8XW.^.^.1X].%X1XK.U.8XU.A.pX].t.f.u.H.1XK.K 6.f.+X+X+XK. .f.t.A  .>XC. .A.].8XJ.K.$.J.G.H.W.f.+X+XU.7X0X7XU.3Xc.! D D t.uX8X1X+XsX>XoXoX1X7X7XwXkX1XK.+X1X.X+X+X1XwXu.~..XsX].].H.^.%X8XD.+X5X+X8XwXkXkX<X7X8XoXA.K.7X1X1XH.N.>X].8XoXA.F. .]..X]..XoX>X1XK.6.3X].f.~.H.A.].oX+XA.K.K.+X+X+XY.0X>X>XU.u.].+X>X+X1XoX].].K.7X8Xf.}  .f.K.1X.Xp.} H._.3.} A.6.f.5X%X.X+XH.K.` ! l t.K.7XH.pXfX>X5X1X1X>X>X`.J.A.5X+X].1X`.1X^..X>XU.@.A 9 1.e.1.!.s.C Q {.^.g.1.0.a./.W.a.4.,.",
".X+XA.8X].%Xf.A d.8X^.sX1X^.3.].8X%X^.K.].1XnX+XlX%XA._.^..X~.~.A.8X1XY.K.K.K.5X`.D. .A.^.]..XA..X1X+XH.6.3.t..X6.Y  .u. .| 6.+X%X].7.] u.^.+X^.u.d.^.].].>XwX>X>XI.J.K.5X5X.X1X>X`.8X1X7X+X3X>X7X8XsX.X ..XwXf.A.K.1X8X5X+XA.1X.X+X%X5X1X1X7X.X+X1X1X+XsXsXfX7X3XK.H.].+X1Xf.t.6.6.+X0X>X1Xf.] A.3X+Xu.3XwX>X1X`.oX>X+Xf.f.6.].3X^..X].>X+X+X8X].>X0X>XU.U.].].`.>XfXH.t.3XI.>X8Xf.6.F.t.6.~.3.2.4.t.^.6.3.K.K.>X7X^..X1XK.@.! D.[ +X3X].0.#X5X1XpX%X>X>X>XoXU.>X7X>X.X+XwX7X].+X7X>X`.>XK.f.Q.5X5X%X,.t s.@X.Xf.,.4.g.p.,.p.R ",
"H.A.K.%X+X%X].6.F.f.@X1X+XK.H.f./..Xu.].>X+XhX8XkX1X].5XpXH.] ^.6.Y t.u.A.u.+X8XK.>X].]..X+XL.f.+Xu.] f.} N 6.].1X8XK. .u.A.V.1X~.t.v v V.F.$X1X+X]..XL.K.>X0X3X>XU.V.].1X+X1XsX+X>X1X8XkX+X+X+X3X+X].9X+X].+X].K.+X+X1X9XhXA.7.1X^.f.,.8X8X0X+XK..X5X+X1XsX8XwX>X>XK.].J.].f.t.}  .6.K.$XK.8X6.] A.6.A.7XbX`.].wXA.K.].].].u.].+XY.^.].K.K.H.5X>XY.>X7XY.Y.+XK.+X>X7X+XK.K.D.].sXA.} u.K.A.f.} S f.U f. .r.A.].3X8X+X1X8X`.c.! R.D.A..Xt.H..X%X].5X5XA.].A.+Xm.%.1XoX>XH./.^.>X3X7X0X3X>X>X+X0XlX1X6.D N C =X%Xd.a.<.Q.p.4.g.4.",
"u.K.].].1X1X.X^.].f.Q.%XK.%X^.3.+X1XK.K.wX5X%XsX5X8X8X1XjX%X].1X].6.K D h 6.d.+X1XwXsX1X+X.X].5X1X2.6.%X+XK ].].+XA.K.#.] u.6.V.F.3.] #.m.K.~.].1X1X+X].+XY.>X1X`.+XC.`.K.>X1XwX1X7X7X8X8X+XK.+X.Xt.~.pX+X].K..X5X5X1X+X1X5XH.].>X#.h 3.#X1X+X1XH..XpXoX7XwX7X8X+X>X+X^.F.K.A.t.f.} j h ] T ].K.A.S q F.sXsX`.].A.+X].K.`.sXu. .^.] 6.] 3.+X+X].5X].].1X1XA.u.A.>X].1X8X$Xf.( V.+X+X .2.u..XA.T ] t.U p.| }  .].1X.X%X3X3X+XI.O.V.fXT.7X.XF.g./.^.+X^.H.N.u.>Xc.O.N.C.oX5X^.j.%XwX>X0X>X`.8X+X1X1X1X>XU.K.j 1.&X^.W.0.j.T <.a.4.",
"D.`.~.].K.$XK.lXsX^.@X.XpXf.~.K.+X+Xd.u.5X%X%X%X+X8X5X^.1XsX].>X].d.%XK.Y _.K.] 6.u.A.1X1X5X3XsXlXV.a 6.d.h N ^.^.f.+X7.[ +X`.V.H.8XV.J.U.`.K.$X].oXY.7XK.K.oX1X`.>XoX].u.+X>X>X1X1X1X7X1X1XsX+X^.3.3.H.].oXwX].8XsXkX7X>XwX8X5X>XU.( } .X/.9X5X.X+XsX+X1X8X1XsXJ.Y.5X].^.A.U.3.} R h K 6.K.Y.I.) 7 0 H.2X8X+X>Xu.K.A.+XJ.kX+X3.A.A.K.6.F.1X1XJ.1X>XoXoX1X8XD.) +X].1X].%Xf.7.V.D..XA.} .Xp.4.T 3.3.H.2X1X .]  ._.K.+X>X8X1X>XZ.I.kXwX.X+X6.H./.#Xu. .J D H.N.I.D.m.J.A.lX+X$X/..X1X7X>X1XsX8X8X].1XsX8X0XY.f.H.p.f.4.3.4.g.t.j.",
"U.Y.u.].1X8XwXsX1X.Xg.5XH.6.+X+Xd.f.K.H.^.t./.^..X9X.Xt.+X8X9XoX+X%XK.A.NXsXu.6.H.].t. .} ..+X .J 7 . : U 5 5 E <.5XG.7.`.oXV.6.K.K.m.7.y.K K.1X.X].K.1XJ.V.t.i.>XoX+XJ.u.A.8X+X1X0X.X5X1X1XA.f.$Xf.~.%X.X].1X+X8X5X9XkX8XwXeXwX0X1XfXN.} {.jX%X+X8X+X+XwXwXwXlXK.K.].+XH.K.K.} } 3.D 6.A.C.<X7.D 6 h ^.W.2X1XA.A.].6.K.A.K.sX6.f.K.].H.t.t.5X>X5X].N.`.>X1X1X#.K.^.H..X.X^.K.H.u.f.W.p.g.j.g.6.} A.].1XsX6.].].A.+X+X8X8X>X`.;X0X0X>X4.U K..X.X5X<X#.T 3.^.C.&.A.>X0X$.+XsXf.g.&XfXwX].~.8XsXsXoXK.8X>X.X3XD.u.A.u.f.H.f.H.].p.",
"K.+X3.].1X8XsX_.@X].H.5X] ^.+Xu.] Y p.W.^.{.2X+X8X1X].+X8X1XsX1X8X8X+X8XsX.X6.%XH.K.].7X`.f.K X 5 : : l N 3 ;./.J W.,.p.^.f.[ ] 3.6.].U.7.b A.6.H.].1XA.6.S  .K Y.A.K.y.J.oX8X1X>XwX1X%X+XH.] ^.+XL.A.+X%X~.A.%X5X8X5XkX1X8X8X>X8X1X7XlX].~..X%X%XpX+X].8X1XwX8X1XK.K.+X+XK.].].].].f.J J O.! T T & 0 j./.iX>XK.+X+Xu.A. .u.].6.A.,.A.+X3.K A.1X8X%X].V.'.oX8X+XV.].H.u.^.^.f.f././.W.g.a.Q.g..Xu.2._.H.%X}  .].].^.].8X>X>X;X3X7X3XU.Y j.sX]..X>X0X].A.t.F.C.` @.oX8X1X].5Xt.] .XsX3X+X_.+X0XsX].`.8X].t.].N.A.+X_.H.g.f.H.+XA.",
"+X1X+X].1X^..XA.H.5X$X.X].6..XK.v D 4._..X&X%X5X+X5X>X>X0X+X3X8X1X1X]._.9X+X+X5XK. .K.sX7X5X1XC.sX( o 0 - 1.cX&X6..X5X%X2X].].>XD.].K.Y.NX>XC.V.7.H.%XK.( y.$.#.A.K.A.u.J.;X].>X1X].f.f.^..X.X7X8Xu.f.j./..X_.^..XsX8X8X.X5X7X1X+X1X8X8XhX].H.5X5X7XsXoX1X1X.X+X8XH.A.].^.1XA.A.U.+X1X+XJ.m.c t.d.0 J l.&X].U.>XK.1X1X.XH.^.t.].wX].+X+X3.u.i.^.K.oX1XA.].].].K.K.A.A.f.^.H.H.A.^.H.Q.j.t.a.W.g.H. ._.4.t.H.J H..X.XA.].>X+X3X7X>X;X`.K.5XwX3X3X>XU.N.%X].+Xc.! %.+Xt.5X+Xt.$X .^.8X>XD.].7X0XwX>X+X+X].A.].].].~.^.1X^.f.j.+X1X",
"+XK.wX].^.$XH.A.f.$X2X%X8X ./.pXA. .f._.{.!.Q.sX5X5X1X8X7X7X7X7X1XsX1X1XfXA.7XK.3.J.+X1XK.A.5X%XjXA.( S ] @X&X%X+X^..X5X+X].].Y.V.7.6.].1XY.m.>XV.6.f.A.#.] ] 7.( ]. .A.].K.A.oXoX].K.5X] H.%X1XH.~.H.^.1X1X1X8X%X.X8XsX.X1X+X].5X1X1X8X5X%X5X1X8X+X8X7XoX].1X+X8X.XK.].f.+Xu.p.Y A 6.+XD.>XP.6.+Xt.e.!.&Xr.A.+XA.K.t.] K.K.].1X1X+X>XwX1XK.K.6.K.f.u.1XK.H.t.K.K.6.^.Q.j.{.^.^.^.d.3.a.4.F._.W.F. .2.6.g.%X].^..XL.K.Y.>X7X1XJ.+XT.K.].W.1XwXwX3X>X].].%X7XO.=.O.] <.%X+X_.5X+X].oX>XH.].7X0X0X1X].].8XN.U..XoXoXY.1X7X5XK.].K.",
"0XK.+X]..X/.p.^.%X^.%X@X&Xf.^._.W.d.} 8XK.g..X8X%X%X8X1X8X3X7X8X'.7X3X8XK.+X`.t.6.1X1X1X]..X1XH.^.~..X>X].^.+XA.f.].A.].`.+X$.A.u.A.K.G.K.].U.oXoX7.A.>XE.^ A.J.] 1X].u.6.6.`.`.J.+X6.%XA.A.+X5Xt.g.6..X.X1X8XsX.XQ.+X+X8X1X5XK.+X+X5X5X5XpX5X5X0X+X+XwXu.K.`.L.H.H.^.t.r.+XK.3.2.3.~._.u.6.u.].K.A.+X.XF.p.].^.A._.^. .+XU.>X7X^.^.K.A.+X].].A.H.t.3.].K.H.f.^.%Xd.K.@XW./.H.H.K. .,.H.H.^.H.f.g.d.t.^.K.F.].H.~.+X].`.Y.].+X+X>Xm.V.+X/.g.%XsX0X0X>XoX8X0XB.O.M f 4.5X%X5XlX1XoXI.D.].+X1X+X].5X1X>X+XK.].].>XoX>X7X7XsX>X>XA.",
"8X+Xt.} $XW.W.~.$X~./.5X/.^.%Xf./..XK.8X>XK..XpX5X5X%X+X8X+XK.sX8X8X>X].H.8X].J.| ].+X].1X5Xt.F.5X].L.].+X].u.u.H.+XK.K.].A.y.7.$.`.U.V.].+X1X`.1XV.#.+XT.O.K.`. .A.4.u.U.6.1XY.u.u.f.%XK.+XH.5XF.F.K.F.3.g.%XsX3X^.f.K.5X5X8X8X1X1XsX8X%XpXsX8XsX7XY.>XY.Y.].G.f.K.^.H.>Xu.f.f.^._.3X1X5XA.N ] K.H.5X1X .K ] t.u.W.].>XwX`.u.].6.d.} 3.T  .A.H.6.H.K.6.].^.^.^.%X~.f.!.#X^.t.F.].K U _.~.} ,.3.H.6.] p.j.3.p.W.H.].^.K.K.].].+X . .W.g.d.3.{.lX7X1XoXfXkXkX0X&.^ S R @XpX&XpX].+XY.+X+XA.].].6.+X1X+XK.`.1X>X>X1XY.>X1X5X5X1Xu.",
"wX8Xf.~._.W.$X.XQ._.@X.XH.^..XW.@X%XwX7X7X+X8XsX8X8X].+Xt.d.F.8X8XsXK.].+X+X6.A.K.sX+X1X3X+XG.t.K..X].Y.1X`.oX1X].K.8X].].+X+X| m `.`.I.Y.K.].Y.J.3XV.u.D.m.] >X7.2.^.^._.t.A.V.K.+X1XK.H.2.p.H.F.pX%X1X2Xf.5X8X1XsX+XsXsX7X9X9X].oX9X8X1X1X9X8X7X3X].oXoX>X+XJ.>XL.t.7X7XK.H.d.K.5X+X].%Xf.0 ( K. .uX+XA.[ ] K.6.].G.>X7X`.6.6.t.g.F.H.J ] L.2. .~.%X%XK.].+X].K.+X.XW.%X5XoXu.6.] A 3.d.A.,.6.F.f. .A.H.p.4.a.f./.K.K.]..X~..Xv 2.1.T p.H..X8XfXY.+XkXfXkX0XK.7.! / .XlX&X/.H.^.oX.XH.A.~.+XD.L.H.H._.oX1X8X1X1X].>X7X1XwX7X6.",
".X+XK.~.H.^._..XQ.W.#X.X^.$X.X.X.X@X+X8X>X+X8XsXhXlX) w H.+X8XwX8X1Xf.~.^..X+XL.K.lX1X].D.].H.] u.8X1Xu.+X+X1X].sX| u.K.Y.1XK.Y.` %.1X#.u.].+XA.K.7XU.s 6.u.A.D.K.6.K.^.^.^.u.v t.%X^.d.<.g.+X2.1X%X+XfX6.f.pX] 6.lXwXwX8X1X^.1X.X1X>XwX1XoX+X8X7X1X8XoX>X7X>X].>X+X} A.3XwX1XF.F.+X7X].K..X6.( ..l .Xp.g.A.#.K.K.f.H.7X1XA.Y.Y.H..X3.u.t.] u.].].u.f.^.A.A.u.H.].+X5X%XK.+X].u.u. .K N f.+X~.+XA.F.H.f.4.p.f.f.W./.+XK.].].].+X^.u.D W.@X^.+X1X1X8X].pX3XfX>X8XU.` c.7X&X5XH.g..X].+X+XoX`.3X].+X`..X+X].1X1X>X1X>X>X1X8X5XwX].",
".X.XK.+X^..XH.%X^.g.} s./.5X8X8X1X8X].1X<X1X8X7XH.N 9 g.pXwX1X1X+X^.^._.K.].]..X/.5XiXK.oXK.J.A.].8XsXJ.J.+X1XJ.7Xu.3..X+X1X`.>X%.=.C.7.N.].+X+Xu.N.y.6 [ ^.A.A.U.A.].1X6.K..XS 6.t.f.K.4.f.H.%X5X1X8X+X0 R } g.~.5X+XsX1X.X1X9X+X8X].+X].].+X8X1X].7X7X3X0XK.7X>X1X3.A +X7X+X2.K.+X8XA.].sXG.$.v Y 2XK.].].#.3.H.u.i.1XL.u.u.V.Y.1Xt.A.^.A.A.].+X].f.f...u.u.^.+Xu.H..X+X].].A. .K ].6.2._.].6.f.G.f.H.p.F.H.f.F./.1X>X7X+Xf.^..X^.d.H._.].+X7X8XwX7X1X+XwXwX3X;X&.b.S <.s.} A.^..X%X+XK.>X;X`.+X`.>XwXU.8X1X1X1X1X+XoX1X7X1X.X",
"1XH.+X_.^.%X~.^._.%XJ a.%X^.8X0XwX7X8X3X7X7XfXD.* 5 /.lX3XwX7X].K.+X.X+X_.^.^..X2X%X8XK.7XY.7.].G.1XsX+X1X3X1X].].oXoX9X5X7X1XU.@.x m [ V.K.+X].D.~.V.%.#.H.u.$.oXD.'.A.] 6.+XA.] t.$X8X^.2..Xf.+XnXkXoX] } f..X.XpX5XsXnX7XsXwXA.1X1XK.^.6.8X3X1X8X1X+X<XwXK.wX+XA.H. .+X>X+X>X1XiX8X .} 8X+X` [ 6.~. . .K.f.t.f.H.K.^.t.H.t. .K.^.+XA.t.f.].%XH.^.f.3.A.].u.].H.6.f.A.>XA.L.J.| A.4.3.3.p.].p.Q.+XK.].~.d.6.6.~.~.g./.0XK.t.$XK..Xu.F.].G.%X_.5X0XeX0X0XwXwX>X7XO.O.g 4..X1X].f.^..Xu.L.8XA.f.].oX8X8XU.Y.8X8X1X+X+XY.].lX`.A.",
"5X^..X.X.X~.t./.^..X.X.X%X%X1X3XwX0X0X8X7X7XfXU., ,.pX0X1X8X1X6.H..X%X.X^.+X%X$X+X1X].^.A. .u.^.U.8X8Xu.K.].].Y.V.].].8X+XsX3XY.` x ! ` 7.6.A.6.+X1XA.>XU.7.]. .D.V.K.^.Y K A.t.[ ].7XwX7X1XlX1XlXnXnXsXy.6.g.} ] jX8XlXNXfX1XlX>X5X+X1X6. .kX+X].8X+X+X0X3X>XwXK.L.3XK.H.1XoX].+X1X+X].].].A.] A.t.t.2.+X8XA.^. .u.d.+X6.~.^.6.H.f.+Xt.Y t.].].].K..Xu.3.6.u.].`.+X+X+X1X3XA.`.D.K.f.f.1XH.+XiX.X1X].K.5XW.t.D.6.f.a.W..Xt.W.].].+XA.+X]..XK.^.+X7X3X0X3XfXwX0XoXO.c.T.t.1XwX7X].H..X%X+X].+XH.].+X8X>XK.u.+X0X8X1X1XoXm.1X7X>X",
"1X+X5X.X^.^.t..X^.{.%X.X.X8XfX>X`.8X3X3XwXfX>XZ j /.sX0XY.6.Q.H..X%X]..X+X1XwX8X+X.X%XK. .oX+X+XA.1X.Xu..X].J.A.A.G.A.8X8X1X].>X@.O.m x ^ u. .u.+X3.t.Y.`.V.N.K.+Xu.].1X+X^.A.K.0X0XwXkXsXfXkXwXlXNXnXsXK.`.K.S H.pX5XzXkXnX1XwXwX1X5X1Xu.].5X.X].7X1X>X+XoX+X].K.].A.t. .t.^.^.+X9X.X+XA.( 6.A.J.A.+XF.1XK.+XK.( D.3.W.3.^.H.t.A.+X^.f.T H.u.| f.A.^.].^.~.6.A.Y.u. .f.6.1X6.A.K.].A.].].U.1X>X1X].H.].F.d.K.J. .H.H.W.H.g./.].5X+XY.>X>X+X1XoX8X+X].8X8X8X7X>X7X7.J.D.].8X1X3X8X].].K.~.+X1X+XH.K.+X7Xd.~.W.2XfX3X3X8Xb.].1X+X",
"fXsX8XH.W.%X^..X/.{._.%X1X0XwX0XA.8X0XwX8X6.5 V /.sXwX7X`.D.d.2.} /.f.%X2X1X1XsX8X.X%XA.A.8X].+XA.u.^.K..XY.Y.U.A.].].^.sX1X+X+XV.! x m ^ Y.`.6.8X6.A.K.>X0Xc u.+X3..XwXkX1X3X3XeXbXbXbXbXfXlX8X7XbXkXsX].<X|  .5X&X8XzXlXkXsX3XwX+X8X].K.>X].7X7XY.+X+XA.t.5X].6.A.3.H.^.t..X.X>XlX].6.t.3.] .XK.J..Xf.3.2.H.].D.K.+X^.6.p.K.f.f.H.D +XK.].y.D 6.t.^.^.+X+Xu.K.F.J  . .N %X].G.^.2.u.]..XA.+X.X+X].K.^.+X^.H.K.A.u.f.K.H..X.X/.K.6.5XoXA.].].+XkX>X+X8X8X8X+X1X3XV.U.A._.8X1X1XsXoX .l g..X1X8X1XV.+X3X~..X+XH.8X0X8X1XV.C.1X1X",
"fXwXwX+X^.5X+X/./.~..X%X1XsXwXeX>X6.].].h 9 p.@X8X0XwX>X+X>Xn l w H.^.%X.X5X8XsX5X.X%X^.+X+X].+XJ. .+X1Xu.1XoX3XK.A.].t.1XsX].>XV.x ~ m b A.U.J.K.D. .1X].>Xv 6.+XA.].8X1XL.1X7XwX+X1X8XsX+XsXbX7XlXNX0X3XD.K f..X5XiX5XhXnXNXsXsX8X7X%XA.K.].1XsX>XK.u.u.N p.0.t.].%X%X%X.XpX+X^.1X1XA.u.A.u.6.3.2.H.6.0 .XY.K.K.+X+Xt.f.R Y K.H.J N A.K.+X].D J 0.H.0.d.H.K.].t.} +X^.T H.%X^.].A.f.H.+X~.+X+X+X>X>X+X.X5X1X].A.H.+X6.]..XW.g.^.].1X.XA.^.+X8X8X>Xu.+XsXsX1X1X`.Y.].].u.K.+X1X1Xt. .3.j..X%X+X1X7.+X1Xu.5XwX>X].+X7X8XK.V.+X8X",
"fXY.sX1Xf.1X7X5XA.H.1X1X8XwXwXwXkXv 5 C W pXlX7X3X0XfX8XoX7.v u.8X+X~..X%X%X.X^..X{.@X%X8XK.A.+X3X].K. .6.A.].0XwXD.K A.5X+X].1XJ.! ~ -./ 7.u.K.H.+X .+X+Xu.s A.+X~.H.1X>X1X7X7X>XsX+Xg.%X/..XlXkXkXNX7X>X+X6.u.$XpXsX.X9XkXnXjX+XoX1X1Xt.H.].].`.pXn ( .., 5 <.H..XsX1X%X.XpX1X].1X1X3XoX]..Xu.6.^.K.u.} W.f.+X].+Xg.%X6.p.F.+XA. .2.] +X7X6.D Y <.3.} H.].].].6.T >X1X].f.].H.K.^.} T +X8XK.U.7X+X+X1X`. .+XK.]..X~.^.1XH.H.j./.1X+X+X~.K.+X+X0X].K.~.%XlX1X].D.A.K.] h p.f.^.H..X5XF.d..XY.`.Y.5Xu.] J H.8X>X].+X1X8XV.V.3X+X",
"].].%X.X~.].8X5XN.].%X+X9XeXfXwX<Xs 7 g.uXsXsX3X3X0XsX0XD.6.t..X^.A.@X%X.X^.^.H..X.X.X.X5X%X].].8XwX6.( J.u.].1XsXY.K .X+X5X+X].>XO.! ! a 6.A.H.p.^.7.A.K.A.y.U.]._.~._.+X1X1X1X1XlXkXD.A.&X2XkXbXwXoXf.+X%X^._.K.%X8XsXlXfXbXxX.X1X7XK.t.F.t.+X+X| K x 6 K D W.^..XpXiX%X+X8X8X_.+X+X7X1X].K.1XA.^..X~.+X+Xf..X].+X%X^.u.^.1XK.K.3.J t.1XD.u.6.} <.3.6.+X+X+X1XK.H.8X0X].u.H.].].K.A.6.1X8X+Xu.].+X+X].wXK A.].].~._.A.A.+Xt..XW.W._.$X_.^.K.].8X+X%X.X^.8XoX~.S t.3.h Y 2.p.{.#XQ.j.^.>X#.>XY.oX8X~.t.@X.X].1X>X8X3X7X].Y.+X~.",
">X8X7X8X1X].3X>X].1X+X1XsXeXwXoX#.- h *X5XsXwX1X8X7X0XoXK.H..X^.F.d.^.@XW.^..X.X/./.%X.X^.sX+XU.1X8XJ.C.oXK.+X1XsXoXr.^.$XiXu.u.1Xm.O.@.`  .u.u.d..XA.A.+Xu.K.u.+XH.8X} } u.+X7X8X1XNX;X#.iXlXwXbXm.J <..XW.%X5X.X1XsXsXkXfXlXsX8XsXsXK.f.H.t.K.u.a #.s m V.3.W.^.^.5X5X%X_..X~.+X].`.+XK.].A.K.].]._.K.K.+X].+X].%X^.H.%XA.u.i.K.6.6.K.K.f.K.] T 3.3.t..X1X+X5Xu.u.].+XK.A.^.L.+XU.`.K.].8X8X].>X3X+X].`.K.K.+X.X^.+XA.R.8XA._.^.W./..X5X]._.%X2X1X1X%X.X4X`._.6.6.f.K } K W.#XW.4.p.iXN.N.8XD.`.5XlX8X8X3X>X7XsXkXkX0X1X].Y.+X"
};
