/* XPM */
static char *wall_north[] = {
/* columns rows colors chars-per-pixel */
"256 256 252 2 ",
"   c #010002",
".  c #110505",
"X  c #170804",
"o  c #18110D",
"O  c #191619",
"+  c #240A07",
"@  c #24130E",
"#  c #28160A",
"$  c #31150E",
"%  c #300B10",
"&  c #251618",
"*  c #261E1A",
"=  c #2A1C1F",
"-  c #331E10",
";  c #33201A",
":  c #352A1C",
">  c #2C2F27",
",  c #332325",
"<  c #352C27",
"1  c #332531",
"2  c #352F33",
"3  c #323837",
"4  c #461D0F",
"5  c #4A2E15",
"6  c #41221A",
"7  c #432A1C",
"8  c #522319",
"9  c #532D1C",
"0  c #53381D",
"q  c #6B2D10",
"w  c #632318",
"e  c #632E1C",
"r  c #663A1D",
"t  c #76311C",
"y  c #773B1D",
"u  c #412325",
"i  c #4C2121",
"p  c #432E27",
"a  c #44392A",
"s  c #533027",
"d  c #533B28",
"f  c #58392B",
"g  c #433133",
"h  c #443C35",
"j  c #533232",
"k  c #573A31",
"l  c #533E36",
"z  c #633127",
"x  c #653D28",
"c  c #693A2B",
"v  c #753227",
"b  c #773C27",
"n  c #653332",
"m  c #633D35",
"M  c #783E35",
"N  c #564938",
"B  c #69492A",
"V  c #73412B",
"C  c #7B412B",
"Z  c #79482B",
"A  c #614132",
"S  c #6A4132",
"D  c #654B36",
"F  c #694239",
"G  c #6A4939",
"H  c #734231",
"J  c #7B4231",
"K  c #734932",
"L  c #7D4932",
"P  c #724239",
"I  c #734939",
"U  c #7B4A39",
"Y  c #6A5A39",
"T  c #775036",
"R  c #7D523A",
"E  c #795A39",
"W  c #443341",
"Q  c #453F42",
"!  c #464A45",
"~  c #544142",
"^  c #554C45",
"/  c #4E5441",
"(  c #414650",
")  c #4F595E",
"_  c #555054",
"`  c #565D58",
"'  c #654242",
"]  c #614A41",
"[  c #6A4A41",
"{  c #764342",
"}  c #734A41",
"|  c #7B4A41",
" . c #754E4A",
".. c #665046",
"X. c #675A49",
"o. c #735241",
"O. c #7D5242",
"+. c #785D47",
"@. c #7B534A",
"#. c #684350",
"$. c #655253",
"%. c #665F57",
"&. c #785252",
"*. c #786055",
"=. c #786E5A",
"-. c #665463",
";. c #586E67",
":. c #676266",
">. c #686F69",
",. c #776565",
"<. c #717765",
"1. c #787169",
"2. c #676576",
"3. c #787577",
"4. c #893A1E",
"5. c #8A4027",
"6. c #85422B",
"7. c #8A4A2A",
"8. c #984227",
"9. c #994D2A",
"0. c #9B572A",
"q. c #894235",
"w. c #864A31",
"e. c #8E4A32",
"r. c #864A39",
"t. c #8E4A39",
"y. c #974A31",
"u. c #9A4B37",
"i. c #914339",
"p. c #865032",
"a. c #8F5232",
"s. c #895A37",
"d. c #86523A",
"f. c #8F593A",
"g. c #985232",
"h. c #9D5D35",
"j. c #975339",
"k. c #985A3A",
"l. c #A9402B",
"z. c #A9532B",
"x. c #A64231",
"c. c #A05332",
"v. c #A85236",
"b. c #A0533A",
"n. c #A05A3A",
"m. c #AA5E38",
"M. c #B66C2E",
"N. c #894D44",
"B. c #865241",
"V. c #8E5341",
"C. c #865A42",
"Z. c #8F5A42",
"A. c #85534A",
"S. c #865A4A",
"D. c #8F5C4A",
"F. c #975341",
"G. c #9B5243",
"H. c #975C4A",
"J. c #885453",
"K. c #855C52",
"L. c #A05C41",
"P. c #AF5A40",
"I. c #8A6347",
"U. c #8F6C47",
"Y. c #9C6246",
"T. c #9C6C49",
"R. c #8A6255",
"E. c #8A6F59",
"W. c #9A6254",
"Q. c #897F5C",
"!. c #9B7058",
"~. c #967F5B",
"^. c #AA6144",
"/. c #AC6E47",
"(. c #B67142",
"). c #A96353",
"_. c #AC7157",
"`. c #8F6263",
"'. c #897367",
"]. c #9B7367",
"[. c #887777",
"{. c #97777B",
"}. c #B37961",
"|. c #7A817B",
" X c #8B806C",
".X c #9B826B",
"XX c #8A837B",
"oX c #9A877B",
"OX c #9C927E",
"+X c #AB826B",
"@X c #BA8B65",
"#X c #AA867A",
"$X c #B4877E",
"%X c #AB947E",
"&X c #727D83",
"*X c #8A878A",
"=X c #99898A",
"-X c #8D9180",
";X c #8B938D",
":X c #9B968D",
">X c #819192",
",X c #8E9B9E",
"<X c #9C999D",
"1X c #AB998D",
"2X c #B79B85",
"3X c #A99C9C",
"4X c #94A18B",
"5X c #9DA391",
"6X c #9DA69F",
"7X c #ADA491",
"8X c #BAA691",
"9X c #BBAA9F",
"0X c #A3B696",
"qX c #9DA8AD",
"wX c #9EB3AC",
"eX c #ACA8A0",
"rX c #ACABAE",
"tX c #B9A9AB",
"yX c #AEB3A3",
"uX c #BCB3A3",
"iX c #AEB6B1",
"pX c #A5B5BD",
"aX c #AFBABE",
"sX c #BCB8B1",
"dX c #BCBBBE",
"fX c #C9A696",
"gX c #C8BC9C",
"hX c #CFBCA8",
"jX c #C9BAB1",
"kX c #B2C1B1",
"lX c #BEC3B4",
"zX c #CBC4B3",
"xX c #B1C4C3",
"cX c #BEC6C1",
"vX c #BFC8CC",
"bX c #BFD2CC",
"nX c #CBC7C1",
"mX c #CACACC",
"MX c #D3C7C2",
"NX c #CDD1C3",
"BX c #CCD3CF",
"VX c #D8D2C3",
"CX c #D8D6CF",
"ZX c #CFDDD2",
"AX c #C2D3D9",
"SX c #CDD6D9",
"DX c #CFDEDF",
"FX c #DBDED1",
"GX c #D7D8D9",
"HX c #DBE0DC",
"JX c #D7E2E5",
"KX c #DEE5E4",
/* pixels */
"eXdXsX:X~ p ; 6 - - $ + $ + + $ X . &XKXcX^ f F x 6 6 j u * j #.{ ' m { | $._ *X<X~ o.R.*.*.*.*.+.*.K.o.*.'.'.'.oX1X8X3XBXKXCXCXzX1X%X7X8X8XjXVX7X|.<XnXnX9XoXoX7X9XsXNXNXFXKXNXjXVXVXzXuX:X! 1.dXnXlXlX7XOX'.'.OXiXaXbXDXcXrXcXvXSXSXGXKXHXMXsXmXmXAXKXDXcXBXBXnXsXnXsXeXrXdXrXmXKXCX<XqXBXvXaXdXmXdXpXqXrXdXDXHXvXHXKXGXqXdXiXcXdX;X;XdXGXJXJXHXcXsXeXOXuXKXHXeXrXnXBXnXjX9X9X9X9XsXrX<XeXCXCXuX9XuX9XtXuX3X3X3XrXKXKX6X*XqXvXDXrX=... X=.D D 7 : k a k ' ~ 3.KXKX6XXX;X:X..^ %.] *.1.N =.>.%.XX3.<XGXnXiX:X1.XXXX] - @ : ~  X",
"DXcXKXKXCX:X*.XX:X:X1.^ ^ %.'.,.: ` aXxXvX3.E.*.X.+.*.[.[.{.=X{.,.$.~ [ [ ^ _ vXGX$.4 f [ o.I S s s f x P I A f k f 6 g *XBX1.*.R.!.!.~.~.E f x f k d D D E E.E.I.o.Y =.N d a 0 f D E.~.~..X*...+.Q.OX.X'.~.%X2XOX-X|.wXcX<X3.[.[.;XeXXX*.1.=.*.1.$.&XaXmXdX:XoXOX1X9X7X1XzXCXnXCXGXtX:X:X3.1.%.XX9X=X;X;X;X3.[.;X;X;XrX;X1.:X<XtXsX3X:X:XXX*XeXvXtX X=.U.Q.8X7X*.^ %.%.+.+.+.+.[ &.1.6XvXrX'.#X%X.X!.!.!.R..X2X'.,.*X<XiXrXrXDXKXKXjXeXuXzXzXgXoX XoXOX7XoX X:X:XXXXXzXHXKXuXnXKXKXKXVX9X3X7XsXtX*XtXnXsXBXHXCXnXFXVXtXsXnXKXKX",
"! > h  X9X7X7XzXFXHXHXHXKXGXCXCXjXlXcX6X;X3XsXsXjXMXCXCXGXHXGXnX9XMXMXzXuX1X%.<XHX7X..].2X#XH.w.U U R V.t.t.e.t.B.J I h ) 6Xk 9 t.n.h.U.Y.s.s.Z.s.Z.Z.p.7.s.f.k.k.Y.Y.Z e V 7.p.7.y f.T.T.T.T.T./.T.U.T.Z.s.s.s.D X.-XcX[.Q D 7 7 s s 9 9 x x f s ; Q ;X:X2XX.x O.R.!.~..X2X8X2X9XfX+X+.!.I f k c S.oX'..X~.E..X.X.XoXOXoXE.E.~.E.~.E.Y f 7 s ] dXsXR.!.@X_.Z.!.!.J.D X.x z r e 9 z g |.vX[.k K K L p.f.s.Z E K 0 7 D +...d X.3.3.3.1.X.p f X.+.E.+.*.'.E.*.m D a @ . ; k =.*.X.N ..X.=.'.E.*.~.oX%.~ h p ^ oX7X:X1XoX*X<XcXxX>.",
"< : d x x x x Y +.+.*.OXKXnX] R.#X.X1X'...E.1. X XoXOX X X'.oX X'..X7XgXzXzX8X7XhXgX2X8X%X}.}.c.t.Y.t.j.y.9.8.e.j.t.J * Q ;XX.4 6.9.h.(.k.w.w.a.7.g.y.9.g.g.g.7.y.g.g.^.^.L.c.c.(.z.(.h.0.9.5.m.n.t.w.Y.k.n./.f.b G OXnXE.7 K V C p.p.a.f.f.k.t.r.n R.oXD x Z R C C b e r r r 9 9 9 w.7.b t e V C b x K b b 7.f.Z R R s.C.R L x r Z R R R R I f nX2Xz 5.4.q t c q.N.A.I r e 6.n./.L.k <XKXoXS J c C 7.7.a.7.7.b Z t.t.L d.R B.X.Q ~ ' f G A d 9 s s 9 s 9 z x O.I 0 0 x s A I E C.x s E S.O.D O.I.[ k s s 7 7 6 7 7 ; @ o 6XKXrX",
"p A L t.k.6.b B r x d ] nX7Xf B.d.s.T.!.D.W.} +.E.'.*.+.!.I.!.S.!.D.E E C.T.@X~.!.T.Z.s.7.h.k.9.j.e.e.j.b.v.9.5.9.g.z * qXKX3Xt 5.8.9.z.9.5.4.8.8.v.P.v.9.0.0.n.f.7.9.m.m.c.c.9.0.0.9.9.7.9.9.5.5.w.h.0.k.c.m.z.7.C.'.'.p z r.P.b.f.g.g.a.k.n.g.t.J R.1X+.L a.a.4.7.7.y.g.7.Z b b e b 7.w.t.t.a.a.n.Y.L.L.L.n.m.c.Y.Y.Y.Z Z B.U V e e t c B.} 6 OX%Xe t 5.i.q.J U J.K.N.6.e.9.9.m.m.p 7XKX X9 c z r.e.k.9.8.5.q.j.9.9.9.9.7.y P =X=Xm S S K S s S x n s z c z e z r x z L I V C w.r.w.V z z x z r I I H x 9 8 9 D 0 # . @ <XKXnX",
"k P r.L.n.b.a.a.k.r.S X.lX7XA x C w.w.V.D.D.V.N.H.!.!.Z.Y.}.Y.w.d.Y.Y.f.p.Z f.f.f.0.L.w.6.b b 7.w.q.t.t.V.6.g.g.w.v i <XKXKXtXx y 9.9.0.n.m.9.m.L.j.e.n.7.9._.}./.Y.Y.k.F.L.j.j.t.6.e.g.7.f.^.b.t.V b e r m.(.(.y S 1XsXk f N.j.F.Y.j.F.Y.Y.k.F.t.S X.sXR.H b 7.6.7.6.y.L.d.V r e J t.J c J U w.r.V.Y.L.H.Y.g.7.c.k.k.^.a.C V.Y.Y.d.C y.L.W.D.f 1XMXH v t.t.r.D.C.C.A.P j.c.9.9.z.y.8 {.KX'.8 J J r.q.e.8.v.y.y.y.c.c.9.9.8.4.x 9X3Xm z x H L J U I A.R d.H L V r 9 z x H x U J q.j.j.6.b y b r r Z L L V e q.U K 0 s i , rXKX3X",
"< k F.b.b.v.b.j.^.F.n k iXnX..9 H.L.j.F.D.V.^.j.t.t.Y.Y.^.L.F.i.t.j.m.c.t.Y.m.^.L.c.b.r.H P F n I U S s p x f A k m u ,XKXKXkXD I L r s.C.f.T._.+X].!.Y.Z x d.C.!.!.!.D.B.Y.T.T././.T.k.Y.Z.f.d.Z.d.Z f.n././.k.r s rXKXXX~ G H A.V.W.W.I f c C.K.~ ~ sX'.I U d.H J c t.B.F P F m | A.| P m f c } } S S I R Z.p.k.j.j.L.^._.D.D.+X+XY.L.Y.Z.W.*.qX3Xm 8 J K C.C.Y E K.G S.7.7.9.4.4.n ,.rXQ A D.B.r.r.t.5.5.v e.q.J r.r.q.j.J G 9XoXm S H U L J d.C.H C.B.O.H x x x x n I x x z n c 6.9./.}.@X/.k.p.f.w.L H J x A A ' p * dXKXsX",
"^ f W.j.j.j.7.w.t.r.n u :XCX1.f A.Z.t.t.V.B.V.J V x V r.F.J q.F.F.F.m.v.j.t.j.b.F.Y.L.f u , , * * ; , ; ; ; & < O .     &XAXkXa o X X . * k - ; ~ ~ ..G E o.+...] D k f 0 0 D B E Z B 0 x x o.B D o.9 L T._.s.x 9 a iXKXqX* a a 7 6 $ @ X o X @ ; o < <XXXk s d d 7 # $ X @ * ; , u u ; * * X . o & o @ ; # - - 4 4 $ $ 4 p s s A G G B.O.I F g >X|.  . * ; : : * : k < : 7 9 9 n n p <XKX;Xh k k s s ' { m { m @.G I O.n J J k XX X~ k k G G F S G s [ @.@.A.W.R O.| | } F F F } U Z.T._.Y.k.t.t.d.D.U N.| k s k k 6 & ,.KXKXKX",
":.* k S.R R s.R B.N.| m :XKX:X, k 9 9 z s s k A A A o.J.J.@.&.@.V.r.q.q.t.t.t.t.w.d.R.{.,.$.:.3.rXsXnXGXCXsXeXnXrX3.*._ ,XcXnXnXBXcXqX,XqX<X[.1.;XtX3X^ ^ 1.:X*...%.X.*.o.*..X+.D B T B x A f ..MXCX+.7 0 B 5 : D %.iXBXvX<X|.h & o o ! 6XNX:Xh < _ 6XBXsX1. XOXOX*X*X:X;XqX>.Q :.1.,.:.:.3.*X;XiXkXiXcXmX|.` ` %.^ Q Q Q h h ^ ^ ^ ^ m p ; @ o >XKXdXrX*X%.>.|.>.` :.3.>._ O .     o ;XJXxXh 2 :.:.W * , < , $._ a @ ; ; 6 $ < yX<X= o o * * : 7 6 k a j u s m f A } { } P m s u p 7 - 9 x O.D.!.!.W.J.J.~ < , g ] ] h 3.iXxXvX",
"cX1.....o.p 7 d k & . , cXKXcX|.,.^ a ; & & O < Q h h ~ ~ _ $.^ p s r x U C.R s.s.B.W.E.'.OXCXKXKXdXsXsXsXMXhX9X3X1X].'.'.'.OXnXDXvXvXJXJXDXCXsX;X;X;X:X:XXX X=.:XzXsXhX9X2XCXFXzXVXVXFXFXCXVXVXFXFXMXuX%X8XuX%X'.'.:XXXrXKXKXCXeXcXKXKXKXcXtXtXeX:X|.iXcXyXyXzXlXcXNXKXKXKXvX6XyXeXsXKXKXKXKXKXKXKXKXDXKXKXDXSXAXDXJXKXKXKXKXKXGXvXrX*X:X3X*X|.>XwXvXdXBXvXvXHXKX,X,XvXDXBXMXeX[.3XsXKXSXbXBXDXDXHXJXmXcXcXmXKXKXrXXX<XeXzXHXFXHXcX:X|.*X<X3._ 2 h h h k ] ] ^ k a 7 s ] [ k k * , : p D k 7 & ; 6 6 $ * ~ &X3.1.%.k * ^ wXJXDX",
"rXnXtXtXMX1XoX9XuX3X=XdXCXlXNXHXHXKXKXKXDXDXDXDXDXvXqX<XrXvXSXKXdX3.; ; 6 ] f 7 [ L Z x x - 1.cX[.~ h s s d.Z.K x I J z z x U d h & 2 pXAX,X%...~ a k ] ] +.+.o.+.+.[ J.K.@.K.R.!.!.C.U.!.!.!.!.I.~.OX XE.Y .X%X+X#X XX.X.XX9XjXeXyXBXBX>.h ~ ' k p ^ 7X5X=.=.=.'.=.>.XX;X>X6XlXNXeX1.:XrXiXnXiX|.1.:X;XrXdXvXmXDXKXKXKXSXqXqX;X|.>.|.<XdXnX*X>.1.1.>.%.;X;X*X;X<X<X*X*X<X:X:XsXzXoX=.XXXXXX X=XeXnXCXGXHXnXMXsXdXbXcXcXlX5X:X7X:X;XtXcXGXKXmXqXdXmXtXnXnXmXcXrXcXrX9X XeXzXeXnXdXrX=X3XnXnXsX1X:X:XoXoXXX<XrXsX9X3X7XuXeX;XwX;X",
"k D D ..$.%.=.=.*. X:X3XXXX.-XlXsXcXBXmXcXSXKXKXKXKXKXKXBXmXdXiX<XdXCXCXtXnXsX X*.R 7.V x 7 < ` ; $ s c x 6.7.b w.t.F.t.t.q.j.L s X o AXKXrXp d 0 s A I x x C d.d.d.L r.r.V.B.c V w.C Z a.7.a.f.f.f.B.R R 0 T T H d.D 9 s S S.R.A h h a 6 s k z z z I D D E o.D x x k j g a ..+.o.D f D =.k k +.k ; 7 7 ; ; ; @ > aXKXrXh g a h ~ ] *.N k p 7 D k m k k s 7 A k k F G A S G I D x x z s m k F o.o.o...o.*.+.E.E.'.XX%.X.=...a p < a k k ^ :.3.3.<XGXeX1.>.1.>./ / <.XX<.X.h X.sXdX3X:X=.=.=.'.7X9X X X.X X XXX=...+.~..X'.^ >.^ ",
"A r b L o.o.A D D p p p f f d k p ; : : h <.dXXX%.*.E.1.*.*.=.=.1. XOXeX{.[.,.%...Z p.q.v S ~ ;XW.x V b g.c.7.7.t.w.w.g.y.9.9.5.v $ & vXKXtX0 d.d.H U Z.w.t.g.j.n.j.j.7.6.j.j.L.F.L.g.7.7.9.0.f.7.7.5.7.e.q.L f.7.e.C V C r e e x o.%X} J q.J v v q.r.C t.w.e.e.q.F.{ J P p S d.b b Y.Z.}.W.C.H.r.z c e e c c x 6 *.8XS.z | R R I O.E E..XD.C.2X_.F.V.V.t.H.F.J t.J C C b r V C C 7.e.V.V.N.V.W.D.O.R I I o.E !.E.=.X.X.+.Y A s f A s p p p p o Q rX..p 7 < a h a / *.*.E.7X=.rX%.: +.o.D D D o.T B B x 0 6 9 c K x 9 9 s - - * ",
"6 s x J t.Z.B.R L R B.L J J c s 9 4 4 4 7 X.OXd - 0 x Z Z T T K G A G +.m m [ ] k f e v J z ' *XF 9 C 7.9.c.y.b.L.F.e.g.9.m.m.9.y.v u dXKX9Xe g.c.5.6.5.9.m.v.y.9.9.9.9.9.9.y.^.m.c.c.c.c.9.9.7.9.9.4.4.4.q.w.k.k.t.w.d.t.V.r.V.V.o.1Xm 4 4 4 v i.u.y.9.c.5.9.y.y.y.j.t.J E !.Y.j.6.6.g.n.L.j.j.e.b y y 6.e.b J z 9 O.J q.i.F.Y.Z.C.R D.+X2X$X$X$X}.L.m.n./.^.j.b.g.7.7.6.w.t.w.a.g.b.L.L.F.D.t.J S x x J x s.!.!.~.!.E R D.C.B.N.J J p.L O.S @ %.CX.X!.E E.E.E..XR x x S H d 1.^ # 9 f.Y.Y.n.n.a.d.t.V.C.d.d.Z a.7.y b C x z 6 ",
"U S V w.a.H.H.Z.V.Z.Z.V.V.F.).r.d.U J H S '.uX+.K Y.k.k.a.a.7.y r K d.H.D.C.C.B.U z z z z 4 m tXoXs H 6.y.y.e.e.^.P.F.j.y.y.a.g.b.q.f sXKX#Xc 6.4.4.4.9.8.v.P.).n.7.f./.c.7.7.c.m.n.c.y.g.6.7.9.7.7.c.9.q.c z t V d.B.B.V.Y.V.L.B.X.sX%.+ 8 H.}.).H.F.9.8.5.5.g.c.g.6.v z x K w.L.5.q 5.g.g.L.L.F.e.C 6.q.q.t.q.z 9 !.H.q.q.6.L.}.Y.R N.N.V.L.L.).).}.}.@X}.@Xm.L.w.y 4.5.e.e.L.H.Y.L.k.Y.L.F.e.J b y y w e 6.C o.C.!.!.Y.C.Y.Y.t.J r.a.C V.B.O.*.9X!.R !._.W.t.t.w.J J J H 9 |.:Xd # y 8.m.P.v.F.t.j.L.F.D.D.t.p.6.7.b.j.C t.r.",
"r.C b p.V.V.J J N.V.J J d.F.L.V.d.J V.{ n '.VX#X!._.m.m.n.j.e.7.t.V.t.k.f.t.V.W.D.| |  .F u p rX<X* p k P H K 9 9 8 z z q.x x Z.t.z j lXFX'.x V L r.r.t._.H.W.H.!.Z.f.t.f.Y.V.w.V.H.V.F.t.q.t.Y.Y.Y._.F.t.J H e c S.W.W.Y.Y.t.Y.U *.HX:X& ' ].&.| J.V.L.t.t.F.L.L.F.r.J 8 A !.J b t.C b t.q.F.).W.F.t.t.e.t.C b c x !.C.t.j.e.t.Y.Z.R r.r.t.t.w.F.L.).W._.H.Y.H.L L C q.q.t.r.H.#XJ.C j.L.j.7.g.7.6.5.5.y.5.4.5.L E !.!.E @.D.D.d.d.U t.B.W.!.E.+.'.+.O.V.r.r.J b r.B.B.B.D.o.*XBXeXY.9.5.8.9.j.a.g.L.^.H.V.V.B.r.5.7.y.j.F.w.r.",
"m s x O.J.A.J.| N.`.N.P d.r.b r.U P J.P u 1.KXoXx Z._.Y.Y.^._._.H.Y.F.t.a.w.H.H.D.} k ; ; * o ! vXaX) Q ^ d +.X.N ^ g & @ @ k X.7 X : HXKX^ @ - 7 p ; 6 ; d g ; ; ; p s s s m k f k m m u u n m z A n J A.A.W.D.@.F s s r r V Z.o.*.CXiX* h [.~ , , s s z n P n H } R.{.R.oXCXR.s N.P n { | A.W.W.A.N.J L r.x x P D E.d x J r.L R +.I.W.C.R Z.!.W.S.| n z A P A.H H } } m ' G ^ 1X#XZ.Z.f.p.a.g.g.e.L.^.^.m.n.e.C o.*.=.*.] *.*...D ..R I.S.E.~ ^ -X%.a u k k k F P I f 4 6 : >XJXsX+.t.L.t.r.t.f.a.a.e.C d.S.O.O.| r.U P m n  .",
"W g * ~ ,.`.'.].].{.{.`.].R.P { @.@.N.| g %.lX:X: s m o.o.K H.Z.C.x z I @.S.!.!.].*.1.$.^ _ |.&XAXKXKXHXmXNXnXeX|.6XaXqXdXHXKXKXsXoX1.iXHX:X^ %.%.%.3.%.3 h :.1.3.;X3._ Q W ! h < h Q Q _ :.$.^ ^ %.^ a 7 ; a a N =.'.*.D A Y D ; / BXKXKX;XQ :.:.W , h %.*.*.^ ] ] h ~ %.<XnXk ; ; + + u ' ' o.} s 7 6 ; - 6 g g Q eX%.. @ ; @ X @ p d p ; ; p : * ; & ; 6 $ @ + @ @ o . & ; :.CX'.R !.T.Z.f.k.T._.}.}.Y.w.U x 6 7 a Q :.) ^ 2 > 2 Q X.k a ; o 3 BXiX< 2 < < * @ ; 6 j %.oXBXKXDXrX..' R.A.d.B.I D x x s d a k ' &.R.`.R.&.&.-.",
",.<X3.~ g h ; p ..%.X.X.m s f k F G @.m k  XBXBX3X[.'.XX'.*.+.x p k g g k %.E.I.E.'.XX:X:XrX<X;X:XXXXX1X7XOX'.1.Q >.vXvXHXHXcXkXiXsXeXXXOX7XOXOX6XKXKXBXkXiXaXmXKXKXDXpXaXSXDXSXvXcXBXSXKXKXvXrXiXlXcXCXCXsX5X:X5X6XCXFXHXFXCXCXeX X;XvXnXrXrXsXHXKXDXvXcXcXCXHXFXcXkXqXGXKXKX>.g %.[.=X1.Q ^ ..*.oX1X1X:X*X[.[.>.>.SXKXiX*X*X*X3.:.[.eX<XvXiX;X;X;X;XcXvXaXqX,X,X,XqXxXqXqX<XiX:Xd 9 D I K L s.D.O.s 6 - 6 k D *.OX:X|.XXXX|.>.3.;X<X=.h a < 3 >.GXKXDXcXcXZXcXcXdXrXHXKXsXvXBXkXsX1.~ ] [ P K.].1X9X9X:X3.%.] g 2 g ~ ~ , g ~ ",
"HXKXKXzXuXzXuXzX9X:XoXoX'.+.=.X...OX9XE. X:XiX<X<XeXtXsXuX9X1X'.:XmXJXSXSXCXzX8X%XE.+.*...X.N < N d 6 6 4 6 - $ . |.AXaX~ @ ; > ; : p p 7 d D X.=.>.>.%.>.*XrXdXcXaXqXAXAXbXKXKXBXcXZXBXBXdXrXsXsXyX6XeXnXKXKXkX6X-X<. X*X*X%.>.XXk ; < h *.1.,.:.qXKXqX! ! ;.<.|.4XiX<XlXZXlXeX:XsXHXKXKXGXCXHXVXVXKXKXKXKXKXKXdXaX>X6XvXrXcXKXHXmXCXHXDXDXKXKXHXBXvXKXKXKXKXKXKXKXKXKXKXSX*XXXX.Q.].!.!.!.!.I.D.W.R..X8XoX%X9XsXzXVXVXVXnXzXCXCXMXCXNXsXnXKXCXeXsXHXHXCXNXcXGXKXBX X:X Xa : > Q ,.'.*.F k p ' *.1.=XrXKXKXKXVXmXMXCXMXuXuXCXKX",
" X'.Q..X2X8XgXzX7X%X7XOX.X.X%X7X1XOX X.X'.X.N ^ ^ ^ ..%.X.X.+.o.1.=XvXHXmX'.E.T.S.D.d.B.R E E F e x c L L H r.P u rXKXiX*.} I A G S 9 8 x x x 0 9 - 6 0 D 0 p 6 @ O |.iX;XeXoX*.....*...h : p ..Y X.N N ..*.:X! a h : ; p , , , ; p p 7 9 9 s p ; ^ mXbX:.> h N ! < a h a h h N ..k a ] '.oXoX'...N '.'.*.$.%.[.%.] h < $.~ ~ %.*.$.,...Q Q  XOX'.*.....*.*.*.*.,.eXHXCXeX=.m 0 o.C.C.W.W.C.R s.K E S.!.*.E.E.R.E.!.!.!.U.*.E .X!.D 9 a p a X...0 x K K c ] X._ ;X:X< p f m A d ..@.@.S.A.V.&.&.~ * * 2 ;XJXNXOX1X1X8X2X.X.X.XOX",
"E E U.s.p.r B D E ~..X.X.X.X.X2X.X.X%X.XR.I x x f x 7 7 7 7 4 4 k g 1.<X1.+.7.7.j.e.5.6.7.Z r z w v v r.r.7.e.q.p eXMXm z e y w.w.q.b q.p.e.y.7.b C 7.t b y e e z k HXCXX.s e z C w.L L L d.d.b b Z d.V m k ~ a k s f I K.R.J.A.@.[ | B.w.Y.d.R F a XX<X^ k s f 7 7 A } f f f f S x 9 z S H x s A } n n x S x f A N.+.A A n 8 6 9 z x f s 7 f A x x e 9 9 9 9 9 9 s '.uXoX.XO.6.q.w.p.f.Y.T.!.T./._.}.}.!.W.C.C.Z.D.T./.!.Z.w.a.7.y y o.+.I D R a.7.7.7.b D o.~ XX:XN } | B.P P U A.A.D.V.W.`.R. .' p , _ sXOXY T C.!.U.f.s.E E ",
"Z.s.k.^.m.L.t.s.!.!.+X+X~..X%X%X~.~..X~.!.W.k.f.a.k.p.d.d.p.Z r x s oX1X#XB.d.k.j.y.9.9.4.b e.6.y 6.v t.t.a.g.q.6  XjXF e 4.8.4.4.4.t t 6.9.8.8.8.4.8.8.4.z.g.8.t G uX*.+ z i.y.v.9.4.9.5.5.5.t 5.5.n.F.v z 2X&.A _.}.}.}.W.H._.}.+XW.t.g.m.^.Y.B.G '.[.k p z 4 4 x J r.J J c z J J J C C C H H x z z x C J L H V.J w.r.c z r V d.L R D.U x z e e e e C b b e e v 9 d D 9 L p.Z e.e.n.n.^./././._._./.Y.V.d.Z.Y.Y.Y.k.k.d.Z.t.q.6.7.f.!.}._.^.k.7.7.5.i.t.t.d.] XX1XF N.V.V.V.V.V.A.N.t.r.V.H.H.V.N.P p :XNXU.7.7.f.T.(./.Y.f.Z.",
"V.d.a.m.^.^.^.T.!.!.+X#X.X.X.X.X~.E.~.~.]._.(.^.n.k.k.^.t.k.n.7.z f CX9X!.J q.e.j.n.m.m.c.m.n.n.^.5.4.5.9.7.c.6.8 =.VX#Xz e.8.i.q.5.4.5.4.8.8.8.v.z.8.z.z.z.m.8.e F GXnXG V.7.c.v.c.v.c.c.n.g.b.b.5.9./.e.C.CX2XK.$X}.W.W.V.N.w.Z.T.Y.k.j.v.F.j.t.A =XrX~ k z 8 $ x L t.w.w.C c V 6.6.q.C z 8 9 z x z z x n I H z f z x x x U U J.u.F.V.t.b z b v v b 6.b b q.6.v x D 0 + 4 C f.R a.c.k.n.k.Y.Y.V.V.H.Y.t.p.f.j.L.L.j.f.t.d.R U p.7.b b Z R Z.t.e.a.6.q.e.t.r.&.1X9XP { V.V.W.F.V.W.W.!.W.H.Y.L.W.t.t.s  XuXE Z f.c.h.m.m.^.t.r.",
"| B.Z.j.y.g.7.r x C.#X~.~.~..XoXOX.XOX.X~.W./._.Y.t.L.W.L.F.e.w.J } MX..P V.t.F.F.Z.k.m.n.L._./.Y.F.j.Z.Y.e.b q.o. XeX^ 9 H t.t.F.V.C v 6.5.y.P.P.j.y.y.5.y.j.F.z *.KXnXR.W.L.y.8.v.m.b.b.Y._.j.j.g.c.j.Y.D.+X*.] @.R.J.J.`.+X_.+Xd.w.Y.P.u.F.u.n k GXKX:.p s s | { z J c x c J J J q.J z n P P J.].`.!.R.| @.A.@.| n z K.O.{ F P q.b q.F.N.x x c J r.V.N.V c J N.| 2XgX~.z 9 K K R d.D.!.W.W.W.W.).W.Y.Z.d.Y.L.).Y.H.W.!.W.S.A.R E D.D.D.R.E.E.W.S.D.B.B.V.V.&.3XoXm { A.A.A.V.A.J.J.J.B.U r.B.V.{ { n oXlX+.R k.k.L.Y.^.Y.N.{ ",
"'.'.O.r.w.7.y 9 0 Y '.=.'..XOX7XOX X-X X X'.W.].+X!.W.W.W.J.V.B.J ..nX%.j | { { N.J.| J.A.N.V.V.B.J.A.A.N.z x 8 @ h 4X-X: + - - - 6 s 7 9 x 9 z s z s z e z i i * rXKXrXj z J q.j.F.t.t.V.V.V.V.H.t.j.H.D.x ; * < %.$.,.J.J.{.].E.H 9 s v i i i % * cXDXQ * < p ' ' k { m n i s m m m k 6 ~ {.,.,.{.{.{.{.`.R.].1X3X`.m &.R.&.' k d.r.w.R.J.| O.}  . . .' F A n j j *XsXoX].s 6 k o.P z I I +.*.*.R.o.D G I } U P A f A F m k m k A ....m N p p k d k p p s p g eX*XX.| [ o.F n A F m P S S A s i s 6 % *XJX%.; 6 6 P !.!.S.R.`.",
"~ h h ] D x f / 1.>.>.>.<. X>.>.>.>.|.<X:XXX1.1.:X:X3.$.,.[.,.' O O SXvX, o < , * u j j k ' ' m P P n J n f a k k ;XBXKXmXXX,.....^ ^ < * * & ; , & X X X X . & 1 vXKXqX< ; 6 p s 8 s s p 7 s 7 s k 8 6 ; p eXwX! h > , , , * * * @ @ + + @ + & , 3 qXxX( * , , < g g g , g ~ g , * & * & * 2 1 , 1 o O * < , , < ~ ~ u p ~ $.~ g ; - $ @ . . @ ; * & , g p & @ % ~ sX<X, g j k ; ; s p 6 ; 7 : - @ + @ # @ + X + X . . . X * $.^ a p p ; > h h a a < > a g * h ZXBXXX] ~ $.] p ; p ~ X...^ ^ h Q ,.~ * 3.JXcX<X=Xh & ; a ~ ~ _ ",
",X|.XX1.%.^ a a h 3 3 > O > ! ^ h > * 2 < Q ^ h 2 , o * , g g , 3 ,XKXKXrXrXBXdX[.$.h < ~ 2 W h u & j  .&.sXtX3XeXvXcXZXKXKXKXKXKXHXBXbXvXcXBXSXGXBXdXdXrXrXcXcX,X,XwXaXsXtXXXXX1.*. X*.%.XX*X%.>.7XoX*.%.1.KXKXaXkXvXiX,X*X>.) ! Q 3 < %.3.:XdXDXDXJXAXaXHXKXDXBXdXdXcXnXdXmXiXqXcXGXvXvXaXaXDXmXaXqXvXdXrX,X>X&X*X<X;XeXqXqXiXrX=.%.) >.[. X XtXnXdXmXHXKXjX3XeXmXKXnX*.1.nXKXnX1X3X3X1XoXXX XXX1X7XsXsXsXeX5XyXtXsXcXdXmXSXKXJXdX1X{.'.XXsXCXKXKXCXzXNXHXFXCXHXKXKXGXCXHXKXDXGXBXBXKXGXiXvXbXBXSXGXvXaXZXKXKXKXvX;X:.,.1XdXqX",
"KXKXCXzXzXzXuX7X X1XCXFXzXuXjXnXsX9X9XuX8X8XuX9X9XjXtXtXsXeXsXGXHXHXKXCXrX:XHXKXKXHXVXnXCXDXGXGXcXtXjXnXdX3.,.~ g _ >.>._ _ *X<XcXKXKXAXbXSXGXDXKXKXKXKXKXKXKXKXKXKXKXDXHXBXnXBXHXKXHXCXKXKXFXHXKXKXKXsXnXiXwXcXZXBXHXKXKXKXKXxXbXKXDXZXKXKXKXKXKXKXHXcX:XcXKXKXKXKXKXKXGXvXZXKXKXKXKXKXKXKXKXKXKXKXDXHXKXKXJXxXxXKXKXKXKXKXKXKXHXCXDXKXKXFXFXVXCXCXCXZXNXVXhXzX9XzXzXjXuX3X3XsXuXjXnXzXjXuX1X9X=XoX1X9X1X7XOXXX5X7XuXnXnXHXKXJXDXqX' { K.].R.o..XoX.X.X%X2X1XOX'.X.X. X[.XXoX3XnXsX:XnXCXrXrXnXsXeXeX:XXXXX7XyXiXMXCXMXjX1XiXKX",
"KX:XG S.].!.!.E B x R S.D.S.S.A.W.W.!.+X+X_.!.!.].+X].OXjX9X9XuXuX1X%.X.....E.%XoX'..XXX4XJXKXAXiX:X~.+.~ g g ~ : g ..^ g g ~ 3 h ` qXaX>.` ^ ` ^ ^ _ 1.>.>.$./ / / / / >.=.` ` |.;X` %.;X:X;X|.>.|.5X X1. X4XyXsXsXsXcXcXaX6X;XiXDXKXcX:X:X-X<./ >.1.k a p g p X.<.XX*.X. XXXXX X>.:XrX;X;XkX4XrXlX4X1.<.:X6X;XwXiXiXsX*X>.7X:XXX1.kXKXiX*.A f k m G +.D D x E | P I D S O.A.E Y o.I S U x U n s z s S o.G D A A A o.'.R.1.aXKXKXDXk 4 e z v z U K r 9 9 9 6 x D o.G S A f D D G f f D D d 0 D f d f E G 0 0 9 7 A o.S f ; Q JX",
"KX*.b L t.Z 7.Z 7.7.b a.e.Y.t.e w C t.a.9.g.a.k.k.w.C c c z H n e x x L w.H z x x x S s X.6XKXvX>.Y K B H m p k s s A f s m k a : h cX1.< h N k k Q a : < h ' X.^ a p d Y G ~ %.1...N k : : : p N ....*.X.N ....k p p k ^ a h p > >.cX'.s f s p 7 s c A n P O.0 7 f f f s d 7 6 7 7 9 9 6 ; 7 d 7 d D Y D f a < XXXX; ; ; ; ; k s a >.XXk z c J J c e b w.j.y.j.j.F.q.7.7.j.L.Y.Y.k.L.6.4.y.6.q.j.j.F.F.b v J L J C q.Z.B.k %.KXKXCX .c e.y.j.q.t.F.f.7.t.Y.Y.f.w.p.t.w.d.d.d.w.L L p.V b r e r r V V Z b b y b r e z 9 9 7 ^ JX",
"mX*.6.7.y.y.g.m.m.9.9.v.y.c.m.b.F.n.b.m.m.m.m.m.c.c.c.j.F.F.F.).P.j.F.L.v.i.6.t.q.i.G.i.'.:XJXzX+.d.R R w.P [ F n J J J n n S k : p eX:Xa ] X.D f d k k k ~ ....*.o.[ T Z.!.R s 7 k  .m j A s A +.*.R.S.I.+.+.O.o.G o.R.R.R.R.} ~ ,XsXo.J V.t.L V t.F.W.W.W.F.Y.Y.f.C t.H._.W.Y.r.Z.F.F.r.H U V V L Z.V b z c s oX'.6 z z z v J t.E sXsXP b i.q.5.5.4.5.5.c.9.9.y.y.4.c.y.4.4.5.9.9.9.9.9.8.v.v.b.i.q.F.b.5.5.e.6.6.5.6.w 4 g cXKXdX} t.7.y.j.Y.L.j.9.g.g.y.j.6.e.j.e.C a.a.w.7.L.j.j.j.n.g.7.j.g.e.j.m.n.m.n.c.F.q.e.p.p.x %.KX",
"nX+.7.7.c.m.9.v.9.9.v.P.9.9.c.m.^.m.m.m.m.P.m.m.9.m.m.P.v.y.u.P.v.v.y.y.x.v.v.P.P.P.u.i.| XXGXtXr.Y.!.D.S.| o.| A.V.J x P | P z 6 : %.>.X.=.=...F D X.X.X.X.[ o.*.].*.L U U | S.J.].K.[ +.E.!.R.I.C.B.S.+.+.E.W.@.o.R.!.W.W.R.J.'.nXMXK.r.F.q.F.Y.j.e.H.Y.Y.t.f.Z.L t.L.Y.Y.T.Y.L d.a.k.L.t.t.Y.L.q.w.w.t.t.C.A 1X%Xf z t 5.v q.7..XKXKXV.w 8.i.i.P.v.y.8.8.8.i.y.i.4.y.5.5.y.5.9.9.g.v.v.y.v.y.y.j.j.F.P.j.F.b.5.5.i.5.t c o.qXKXCXX.U a.f.Y.Z.Z.t.j.j.j.F.).H.F.L._.}.}.@X@X^.y.L.G.e.e.G.j.G.b.L.L.b.m.^.^.^.m.b.j.t.p.9 =.KX",
"FX+.5.c.m.m.c.y.9.9.m.P.P.m.m.c.b./.m.m.P.m.m.m.P.m.m.P.v.8.i.u.P.b.5.4.y.b.P.P.P.v.x.b.z ..HXMXP Z.R U W.R.*. .n J H I @.J.{ n s *.mX,X/ %...*.m ~ X.X.X.*...+.'.*.*.O.K.W.R.@.R.R.*.E.J.t.D.V.B.B.B.I.*.+.*.S.S.*.+.S b J R.R.$.qXnX'.U t.e.t.a.a.t.j.L.!.!.E C.B.d.V.Y.t.Z.Z.Z.W.Y.Y.Y.Y.Y.)._.W._.L.Y.Y.!.E.~.9Xm z v q.u.j.k.~.BXcXA.c 6.F.H.F.L.L.e.C y v q.{ q.w.c q.6.b V q.Y.G.b.j.t.j.j.t.V.V.W.L.F.L.F.F.e.g.F.J '.:XSXKX^ A D.C.I.O.E C.W.D.{ N.`.$X$X#X+X+X+X+X$X}.L.Y.Y.Y._.@X}.}._.H.V.Y.Y.L.j.a.j.j.t.f.Y.x =.KX",
"FXo.4.^.m.c.m.b.b.n.m.m.m.m.m.c.b.L.L.m.P.m.P.m.m.9.9.9.v.v.F.P.v.y.q.j.P.Y.Y.F.P.v.y.i.8 k HXmXk F ..+.*.R.E.o.k z D G } m m ' j ,.KXxX` ` ^ ^ ~ k '  .&.&.X.X.*.%.*.*.'.*.R.+.*.=.=.W.H.N.A.O.S.R.*.=.R.!._.].E.W.W.I S E +X~.XX<XXX'.V.r.r.d.d.t.r.t.V.F.*.+.K.J.J.B.r.V.S.r.B.B.D.D.B.W.B.B.V.D.W.Z.f.R I.E R.[...' J J } L.T.=.FXZX] 6 8 s n k k f s 6 6 - ; ; @ $ ; 6 7 7 s x F f x x 9 s s s s s A n I U H U B.w.Y.V.F X.xXKX! - k *.*.*.K.!.].' j j p &.&...X.*.....G } | S.!.].!.W.J.+X!.J.J.J.W.W.D.W.Y.D.D.!.}.Y.=.BX",
"KXE.b k.k.a.a.V.t.j.Y.^././.Y.Y.T._.@X_.j.j.Y.k.7.a.L.Y.Z.d.r.J N.N.W.!.W.S.K.| { { J z 4 < DXJX:.%.N a k k N p ~ k E ....] ' k , h HXHX>.> < : ^ ....*.'.'. X1.*.>.%.%.%.^ ^ k h / %.*.I x s a ~ k 1.uX~.!.@X+X.X#X!.d.L x K Z.K G A I d.N.U V.F.e.7.e.t.F.D.1.*...' m z c x x @.o.o.+.+.o.m m F [ } F D D D ; N 3.~ * * & , x 4 < iXBX%.Q *.] W ~ ^ ^ %.>.sXnX[.3.3.3.XX X X X1.%.k ; k ] oXoX*.%.1.*.%.X.k p - 6 s 9 9 - X h qXvX,X%.^ k j s 6 6 < g $.-.W Q ,.,.~ ; Q Q ~ ] k 7 s m m s 7 s s k [ @.K.K.R.~.W.W.W.R.W.C.=.NX",
"uX X7 9 9 p a : p z 4 8 5 r 9 9 4 - 6 6 8 4 9 s 7 d f g < p 7 7 ] ~ ' ..6 & * & * u u s k $.vXKXDXKXsX1.X.%.%.X.N k d : p a a j k Q cXKXyX1.%.XX,.] X...X.'.^ X.1...=.1.3.sXdX<X-X>.>.+.+.E.3XsX3XtXjXVXfX+XD.O.B.H.k.L.b.L.a.Y.p.x R o.E Z.U r.r.d.t.j.F.F.D.'. X:X<X'.o.D o.o.'.'.=. XXX*...^ k %.*.] ..^ Q |.cXBX<X$.~ Q 1.+X%XzXKXKXKXlXsXKXKXKXKXKXKXKXKXKXKXKXKXKXCXNXnXVXnXuXOX:X9X1XuX9X9XsXlXeXoXXXoXR.o.R.!.~.W.@.o.+.1.XXOX1X%X!.J.A.J J [ oXCXKXKXKXGXdX;X|.cXcX6XcXKXGXBXrXiXBXBXcXvXiXqX<X7X7X'.'.E.E.R.].R.a =.sX",
"=.E.W.Z.$XzXGXHXzXuX+X!..XS.I o.~.~.I.!.%X].#X%X9XVXFXdXrXnXVXCXGXCXCXKXVX9X1XoX9XzXCXCXVXMXcXxXvXrXeXzXMXjX9XVXzXgX7X'.oX.X7XoXoX*XtX;X-XtXFXKXVX9XKXKXKXFXsX9X7X9XjX;X<XMXnXnXKXFXzXhXjXCXKXKXMX3XoX#X+X+X!.b.n.b.y.c.m.m.c.b.f.t.t.V.d.d.r.r.B.N.r.Y.L.V.W.}.:XcXcXVXVXzXnXjX7XzXKXHXFXKXKXHXCXFXFXCXBXBXvXKXGXiXBXKXzX9X XE C.~.@X%X7X.XQ.8XVXVXzXhX8X8X%XiXKXKXlXOX%X.XE.%X.X.X~.~.E.+.+.U.!.~.U.Y k k R.A.S.!.!.!.S.O.o.D x x c K C.t.w.r.J t.d.Y -XKXKXKXvXeX X<.;X|.|.eXyXsXlX-X;XBXHXmXKXKXKXBX7X8X%X'.+X].!.].!.*.=.'.",
"x L Y.T.!.oX%.6XlX=.%X$X#X~.~.*.E.~.D B U.U.~.R.E...eXKXKXKX1X,.'..X X.X.X.X.X!.E.+.o.E.I.*.|.eX:X=.R.!..X'.h d X.=.'.=.E.E.~.R.o.A N ; X - d *.'.=.] +.=.=.'.'.R.'.%X1.] ^ h k  X7X%XE.R.*.[ ] ] m ..I R C.Z.j.m.b.c.b.(.m.j.D.Z.a.V.W.W.W.J.J.A.V.V.Z.Y.V.N.n X.*...$...X.'.E.X..XOX XOX7XOX:XsX5X:XzXcXsXdXrX;X<.:XNXoXR.*.D Z B r r x T 0 x K T c r V b 8 %.DXsXa 7 x r x Z x s.C.Z x x L d.d.s.C.R O.O.B.B.V.t.w.t.Y.f.t.f.V.r.r.V.t.p.a.k.k.k.j.B...iXiXXX^ k k +.*...k k a p p p a p k k Q >.qXoXD V L d.V.V.Y.Y.Y.U d.L ",
"^./.(.n.d.D * ;.kX/ D !.!.#X#X!.S.Z.s.Z s.Y.W.W.E d / wXKXrXX.R.I.D C.D.Z Z Z.f.Z r r b r 0 '.gX~.E s.s.Z.C.m G d d s s 7 s 9 s x I O.x 9 x s s A R R S 7 K I.S.I o.I.o.k d p 7 6 6 7 r x I x s x x K R C.C.R C.t.t.t.L.L.K.1X1X{ J A.D.J.J.V.!.Y.!.W.W.K.K.&.m o.S.E G f s H { o.Y ..G B 9 0 x D A x A ] ~ a k k 0 0 7 A x H f.f.f.f.7.Z Z b Z Z Z Z 7.a.4.w  .SXMXD r b e.a.7.7.f.^.n.Y.k.a.6.y 7.f.n.k.j.7.7.7.9.c.c.g.c.n.n.L.F.j.j.q.6.7.n.^.n.v.C E KXHX..0 J V x x H z 8 r x B K K C.Y.R.a ~ XXO.C b.b.L.L.^.^._.^./.^.n.",
"@X@X(./.Y.A 3.JXKX^ o.C b _.}.Y.p.a.^.k.7.a.e.t.f.C.B >.sX'.I H.4 4 Y.}.Y.m.^.c.f.m.n.c.7.Z W.!.7.k.n.n.Y.t.L I D 0 x n z x 9 c z e z r c z V R H b w.t.w.w.r z x r x H U H x 9 8 6 H F.K.A.O.E D.D.I.R.*.R.R.+.C.O.| @.&.&.eX:X[ J.@.@.A.A.I.D.T.W.R.K.@.m s k K.W.W.| J.{ | { P } o.+.I c z c C b b r.Z 4 e e b 7.L K L w.y.9.y y 4.7.4.4.4.4.q y 4.7.9.8.t R.KXKXI.y 7.c.9.9.9.8.9.8.m.c.c.9.9.9.m.c.9.9.9.9.9.v.v.z.m.m.9.9.m.P.m.m.^.m.m.m.P.m.m.e.o.mXGXO.z q.6.e.t.t.u.j.j.Y.Y.T.f.Y.Y.d.[ eXGXH.y v.P.).(.(.m.^.^.(.(.(.",
"(.(.(.(.Y.x ,.KXKXQ s t.6.g.f.7.7.b.6.5.y.j.c.7.7.p.r / zX.Xd.t 4 e m.(.(.m.m.m.c.c.c.v.P.m.!._.e.6.y.m.n.k.t.t.K H U H B.B.| U L C r e e x H x P J q.t.b.9.b y b y e b L Z V e b f 7 6 ; p 7 7 d f p : @ @ ; ; ; ; ; ; & * rX;X] m m m k 6 a # 7 k m m ] a ~ $.*.E.o.d k ; p ; j ^ *.%.U A p z x 4.8.5.k.^.4.6.8.y.9.f.f.j.c.^.c.c.n.c.m.m.c.c.m.4.4.8.9.z.t ' GXvXd e 5.y.y.9.9.8.8.9.c.n.^.P.m.m.9.4.9.9.9.^.m.z.z.m.z.m.9.9.9.m.9.m.P.P.m.P.m.v.y.e.[ rXdXo.v u.j.t.q.i.u.j.e.b r b w.a.j.Z.G :XGXD.y 9.v.P.(.(.^.(.^.P.(./.",
"n.b.y.j.t.F ..mXKXQ + W.m./.f.^.n.F.q.q.b j.b.6.b Z.9 =.KX+XY.e.v t.m.).^.m.L.^.^.m.^.^./.Y.!._.e.C _.t.V.Z.t.d.U J U C.U U S.A.I x x x x z I S c z x c b 7.f./.}./.c.p.d.p.x x s s p , ~ :X*X%.~ ~ a h %.1.1.1.%.X.%.>._ >.KXKXdXXX1.oXXX..%.N a k k %.1.XX|.1.1.%.1.oX7X1XsXsXCXBXiX'.+.R.R.'.!.m.m.g.b.^.e.7.9.9.9.g.t.j.g.Y.k.k././.^.^./.^.L.^.^.m.^.9.8 ^ DXbX* 4 c F.L.e.y.j./.@X/.w.a./.^.^.^.7.k.n.Y./.Y.g.g.c.^.Y.k.k.n./.n.f.f.L.).b.^.b.6.9 ..KXKX'.f N.r.V.V.q.N.H.V.d.9 e Y.Z.H.J.X.;XKXS.e c.m._._.^.^._.^.^._.^.",
"_.}.}.^.Y.} ] DXKX|.. i e._._.}._.J.O.B.O.I P n n K.'  XFX.X!.Y.F.H.)._.^.W.W.!._._.!.f.Y.Y.].#X+XD.C.U P J | o.G G A I f x o.K.| W.O.I | } | P n A } | d.Y._._.Y.j.j.d.B.B.O.E..X9XHXKXKXKXJXdX1X#XoX1XjXnXHXKXVXNXCXKXKXFXCXCXCXCXCXGXKXDXKXKXKXCXBXHXKXKXKXKXyXsXBXVXNXMXHXZXZXKXcX:XzXVXjXCXHX@Xn.j.y.m.^.^.Y.f.r 9 n n x r V V L L U D.Z.d.D.W.B.d.}.}.s %.KXDX> X $ P V.D.R x x x 9 x 0 9 x x x R d.R o.I x 9 4 x V x x B x L x x r 9 9 s z s 4 ; |.SXGX:.,  .[ m &.R.@.K.R.K.P S A.P m j $.GXKX*.x Z.t.r.V.V.Z.H.H.t.T.!.",
"4 6 9 w z 6 o.DXDXDXrXk s s 6 6 $ # ; # - ; & * u , & h CXuXA I A S B.x U E G D D f d 9 B D ....D D f 4 , * & * * ; a ; k a j j 7 m m A | { | } P k p p s 7 9 x U D.W.].J.+..X%X#X1X3XnXKXKXJXrXj s F O.S f +.+.E E +.*.+.=.E k k X.X.*.|.6XrXSXSXsXiXyX6X4XlXiX1.*X:X X X>.%.%.%.` / ^ X...h Q ^ X.H.j.n.^.^.L.L 9 9 k ~ 7 & 7 6 $ @ + # @ X . + + # ; 6 s 7 :.xXKXbX|.& . $ ; - X X o @ - ; ; ; & ; ~ p 7 ; : : d d p k X.=.] ~ , @ ; g h ^ >.%.Q k :XHXKXSXqX3.*XXX,.*. X*.=.'.{.{.{.{.1XtXrXmXKXKX[.] 9 $ + + . + $ $ 4 $ $ ",
"h p 6 - 7 : N |.|.iXKXKXjXXX1.XX,.<XCXmXnXNXnX:X,.,.%.OXCXnX..a 1.<XXXXXoX=X=XrXsX[. X:XsXrX,X>X,XrXOXoX:.%.>.*X3._ h < h a g ~ ~ k k a 7 7 k [ j ~ ; * , ; d k 7 ; ; 6 } !.I.E I ].R.$.<XKXKXKXm 4 e v q.b r.r.Z r x V r Z T C.B.K S k  XXX1.h g ^ ~ k ^ X.k h k ^ *.*...k ~ X.X.~ [ o.X.[ ~ a h %.E.I Y.H.W.)._.~.9XVXGXHXGXCXCXMXjX1X X$.Q %.*X:XXX1.,.*.*.:.,XaXJXKXBX[.*.*XrXsXsXcXNXMXnXMXnXnXjXnX9XjXuXsXuXFXCXuX1X7X5X7XsXrXrXSXHXKXKXKXKXZX:XXX6X6X|.qXvXKXKXKXKXKXHXCXsXsX3XsXjXHXKXKXmX:.<XOX XN ^ *.h @ a *.'.*./ k ",
"<X=XoX XoX.X X1.XX>.>.eX3X:XoX:X:X3XsX3XsXVXMXVXnX9X1XOXOX1XXX$.nXKXiX<X:XXXXX:X;X3. XOX:XeXdXmXaX=X,.{.tXrXvXKXHXrXqXnXsXtXnXnXBXrXsXyXtXoXoXzX9XsXdXrX;X:XzXnXsX1XXX:X!.W.Z.k.w.w.J p ^ DXKXmX@.q.y.y.b.e.j.n.g.7.k.Y.H.E D { J J I A A O.o.s A m m k m [ [ m ' m k m ' G F { F F R.#XR.@.o.o.[ ~ 1.'.} B.D.W.+X~.U. X.X%XOX X'.'.~.].:XcXcX*X[.nXzXOX X XR.] %.%.%.1.OX9X2X1X7X8XOXoX.X.X.X1XOXoX#X.X~..X%X'.'. X~.oX'. X X'.*.[.,XAXKXKXHXBXnXeX=X'.*.N N k $.XXrXcXnXBXaXiXXXX.^ X.X.%.=.%.~ ~ ~ / %.>.;XiX<X[.1.[.1X1X:XlX",
" XX.*.'.*.+.+...p k d p A [ D [ *.[ o.o.o.Y ..+.*.+.A d G G f m tXKXlXlX X~ ....X.X.D ..k k =XdXsX[.$.m ] %.%.1.3.3.=XmXmX=X X|.<.>./ >.XXXX=.N N :XnXrX3X'.=.=.'.7XjXOX!.w.p.e.5.5.w 8 g iXKXcX} w.7.e.j.j.L.k.a.a.a.t.d.O.o.&...&.&.' G } { { | &.&.} { F F } { ' ' G [ k G F F [ *.R.A k m [ D A 1X1X..[ K.K.!.!.!.!.!.x 0 0 x V L J *.iXiX%.I G x 0 B C.C.C.I.+.o.T S.!.+X!.U.U.E Z.U.T.U.C.C.d.d.C.C.U.!.U.!.+X_.+X!.!.~.!.t.I ..sXnXXX*.*.R.E.R.[ } I I | R.o.a ; ; ; * h X.X.] k N a d a d N .. X X1.1.>.1.1.*.o.G ..=.uX",
"*.] } *.G o.R.E.o.K.R.R.A.B.A.D.J.D.W.Y.Z.Z.B.R C.!.D.W.W.D.O.F =.zXKXFX XD S.} I O.o.R.+.k X.1.] o.o.*.K.+.o.k : * * ;XXXp 7 < < a a N X.'.+.1X X:XeXp [ E Y Y D o.E B U F.j.y.y.5.6.J R.<XKXGXX.L a.d.Y.W.B.} P m m k D o.[ _ $.$.$.$.X...' '  .' ' ' ' ' ' ~ ~ $.' ~ ] ~ ] ~ ~ ~ ~ ' ~ ~ k ~ ' ' 1.=X] [ *.K.B.U J V.w.6.C b 6.g.9.t F 1XVX+X}._.k.f.0.k.n.Y._.}._.Y.k.L.L.Y.n.f.n././.T.h.h.k.k.L.Y.f.s.n.Y.m.m.h./.n.7.f.f.m.n.I 8X9XW.O.H J d.x H H r r J z H C.K L x ] =.=.E.E.E +.E D E E D +.XX:XXXXX|.|.*X'.+.I.+.E.7X",
"N X.} @.O.| I.W.!.!.W.S.F.W.W.W.G.Z.Y.Y.Y.Y.d.Z.d.L V P | U H U k E.8X%XE D.!.W.D.D.D.S.o.o.*.*.R.T.W.W.W.!.D.S.} ; , jX9XE.W.+.E.R..XI.G f S O.S `  X- 4 R t.U r.r.H.H.t.F.F.Y.t.j.L.J R.XXvXKX~ s S.I.E.[.:X^ 2 ^ %.Q h Q ^ 2 2 > h ~ k , * & @ * * , 2 g Q 2 2 ( W g g Q ~ Q Q ~ g g 2 1 1 g 1 * :.sXa , a p S J J w.w.7.g.6.5.9.9.4.s *.8XT.7.c.m.m.m.c.c.g.k.k.a.7.9.g.c.9.9.9.9.m.h.m.c.h.c.m.m.j.j.t.7.g.c.P.(.^.m.5.9.9.9.m.Y.2X$Xq.t.j.e.5.6.6.b y y q q y g.a.e.U ~..X=.E.U.U.U.U.U.E I.E +.XXXXXX:X*X;XOX+.o.d.+.*.*.",
"..`.&.K.+.R.R.D.O.W.W.W.F.V.V.F.V.Z.t.r.B.r.S.D.D.D.B.@.@.I I K.} G A A H D.!.W.!.W.B.S.+.R.R.R.Y.T.T.Y./.k.a.Z.d.| ] 1X2XE !.!._.Y.Z.p.J c J J e ^ :XX.# 4 8 6 p 7 f f x x z x I V r.J p k xXJX_ & a [ %.:.<X:.* * > 2 Q 2 3 3 3 ! ! Q a ^ :.:.%.*X,X6X*X%.2 O O O O 2 , * * , O O & 1 , O O * , O |.HXmXsX[.%.*.S.r.w.y.j.y.j.t.e.q.q.' 1XuX+.y y.e.e.L.L.j.Y._.f.Z t.j.t.e.7.7.f.7.a.f.Y.Y.g.a.j.y.j.t.Z.t.f.Y.n.n.^.^./.k.7.4.f.S.].].z 6.k.j.7.9.g.6.5.5.y.y.5.5.5.u.J m ^ *.U.I.I.U.C.+.*.*.X.o.XXXX*X:X5X<X7XE.R.D.*.*.^ ",
"~ ] o.*.`.R.R.@.@.R.*.+.A.A.O.P P S O.@.@.A ] o.*.'.].`.,.*.*.'. .' o.K.N.O.W.W.+.o.+.R.*.*.*.D.A.C.L d.Y.t.t.t.Y.!.o.E.E.o.D.N.N.J c J B.B.U S.D.-.cXsX!.p.o.~.OXOX X1.G f 6 7 f z z - + k ,XaXiX-X%.'..X XeXCXCXnXsX<XnXCXmXnXFXFX1.h >.mXKXKXKXKXKXKXKXKXiX;XsXsXBXGXjX3X:X1X3X:X=XeXMXcXtXsXMXnXCXMXnXMXCXHXMX$XC.r.w.L.k.A.N.A.N.n ~ mXBX*.!.W.D.!.!.].].].2XE.o.W.O.S H W.!.Y.C.s.D.Z.C.W.B.t.q.V n S G A G 0 x P | I I o.T Y k '.1XY.Z.s.p.p.7.g.e.L./.(.^.n.c.6.J j , %.h N E +.+.E o.*.] ~ _ >.%.%.<.=.1.*.N D o.*.%.%.",
":.Q , < ~ ~ ~ k ] ^ k h h a a , @ : g * * g _ :.:.:.,._ -.:.,.$.$., , ~ ' p ; : h ^ X.o.+.....%.+.S.V.B.N.J P V x x k 1.1.k p f k A F } o.*.k X...Q BXKX XY.U..XOXOX'.*.oXR.K.].+X+X!.R.R.E +.+.=.~.+X+X_.~.!.%XfXfX8XE.E.oX#X.XE.R.D f [.HXKXKXNX1XoX+XgXgX%X~.%X9X8X8X%XoX%X2X9XuXOX.X8X8XOX'.'.'.'.*...X.*.*.*.[ f 7 s s x m ' ' ~ k :.vXcX> a A 7 7 p p p a X.N k s a 7 6 f f s x S f 7 p [ m A 0 f a ; & * & X @ X @ @ ; ; - : h nX7Xx C.!.Z.s.f.Y._._.}.Y.d.L w.t.P p dXBX>.X.*.N k ..~ h < 2 2 ! ! > < a h ^ ^ : ; a < :.",
"KXmX=X*X3.1.^ Q %.:.:.:.Q h h %.<X,X3.3.*X2.) &X&X2.2.&X2.2.` 3 _ ) ) ) _ ^ >.dXnX1.h a h h a %.^ ~ f 0 p p , ; - - O ;XZX! * < < * O * 3 > 2 3 ! >.JXZXa 5 R P P S x f S.O.A.Y.Y.Z.Z.R K T x e x V d.k.f.k.f.a.b r Z p.C 9 e r e b z 8 ^ cXSX-X: 9 r r Z q y Z b Z V B C.!.!.T.E E E E T D o.x 0 r B T o.o.D E !.*.1.1. X%.~ o.'.oX1XsXmXKXKX7XoX7X7X1X:X1XXX*.=. XOX.X].%XoX~.E.C.D o.o.D f G G *.1XrXrXxXaXkXBXsX:X1XoX9XtXiXsXrXiXrXX.7 x I K K R C.S.S 6 4 6 s 9 6 d =.;XDXKXKXGXtXcXBXnXBXZXBXvXSX6X;XCXHXzXlXeX:XqX3X[.cX",
"=X<XeXtXsXmX<XrXnXcXdXnXtXsXtXsXKXKXKXKXKXKXSXmXmXcXdXaX,X*XrXiXqXvXvXiXnXMXnXBXMXnXsX9X3X3X7X X=.=.X.X.1.XX|.;XqX*X_ qXKXDXcXaXvXmXdX<X<X;XkX,X&XwXZXKX5Xd S J w.k.Z.Z.t.F.j.g.j.j.j.k.f.f.Y.t.t.j.c.n.c.m.m.m.7.4.7.^.n.y 4.g.9.e.e.q.X.eXCX Xx k././.m.y y k.a.e.e.Z.!.T.Z.t.J t.t.t.t.p.p.7.p.7.p.t.V.V.t.J B.R.aXbXSXBX;X#X8XgXgXzX5XXX1.OXOX1XzXVXnXVXjX7X7X7X8X9X#X%X2X2X@X}.@X2X2X%X.X!.E.oX<X>.wXJXiX3.sXnX1X1X1.=.1.-X:X*X X=.=..X].!.!._.E.I.E.R.].9X1XoX*.G .X5X` ` |.;X<X;X:XiXsXlXNXHXKXKXKXnXsXOX X XXXdXBXcX[.:.",
"j ~ N D D +.^ >.-XXXQ.~..X2X2X2X8XuXjXuX9X9XhX2XoXoXOXoXoX1XuXsX X X X1.1.*.*.'.=.1X9X9X1XoX#X].'.1X.XOXeXiXxXSXDXaXiXsXCXKXHXCXCXCXCXjXsXMXKXCXeXOXOX-XeX2X!.j.m.9.9.c.y.b.b.y.7.7.k.n.m.c.n.m.g.g.n.n.n.n.c.n.g.5.7.g.6.6.e.9.9.7.7.5.A eXeXR.k.^.n.9.m.m.m.y.j.n.t.b b b 6.q.t q.j.j.t.Y.H.Z.Z.Z.Z.V.F.V.t.{ N.].eXSXlX-X XD.W.D.D 0 f D E E T B x K o.o.R T T Z.Z.Y.d.d.D.Z.R R d.r.V Z x e 9 m k * ,XKX;Xp j s s k p s k p 7 d 0 D E B.S.W.S.R R R o.I.D.R.[ } K.O.o.G G E D N Y E E Y D B x E ] 4XHXOXD D C.I.o.U.I.*.X.j ",
"} x s x S G a a =.+.Z 7.Z p.s.E B c c c x x r r R U.U.!..XE.E Y Y E +.*.X.s 0 D E D.C.D.S.R R U U ~.@X%XOX X-XaXqX3.%.G D R D D Y Y o.C.!.~.+X.XQ.U.E o.S.D.D.g.9.9.m.v.b.n.L.y.6.7.Y.G.m.F.m.^.^./.^.L.Y.m.j.b.m.b.L.^.e.q.G.9.m.m.b.q.' 9XjXR y.g.n.g.m.c.g.m.^.j.^.j.q.q.M v q.q.q.w.t.V.J J J N.N.J L t.q.t.r.| |.FX9XU.7.q.e.e.q.w.Z Z p.a.k.f.7.7.7.6.k.n.k.^.b.b.9.b.k.k.t.a.b q.a.t.Y.t.C e 4 ; :XSX_ o.A.J.!.J.R.J.| { L p.d.w.w.p.t.Y.T._.T._._.}.}._.W.W.T.Y.a.w.w.Z.Z.Z.D.Z.Z.R Z w.C V 9 1.zXE.V Y.D.D.s.T.D.o.o.o.",
"f.f.L L J I S ..oXR.b 9.7.7.7.7.7.f.f.f.a.7.7./.}.@X/./.Y.Y.T.Z.p.t.L L d.a.7.b 7.b y b b Z b 7.w.g.k.Z f X.yXnX^ k A 9 V 7.Z y y y y y y y y q q r P I A.@.Y.c.9.P.P.m.c.c.y.y.b.m.G.F.F.j.j.^.Y.Y.L.L.W.Y.F.).).).).F.t.5.9.m.v.8.i.q.,.nXsXR.Y.^.^.Y.Y.a.Y.F.J J t.F.t.J n J n n f n J.J.R.R.K.`.].J.A.D.J x A k XXKX%XZ y 4.5.9.c.b.9.9.7.9.9.c.c.m.c.c.9./.@X/.g.9.5.9.9.7.a.a.6.e.n.c.n.^.^.q.b o.NXKX*.x c r.G.t.t.F.j.F.j.b.j.j.e.n.n.^.^././.(.}./.^././.(.(.P.m.c.g.g.7.e.e.e.j.j.j.y.y.e.b  XhX!.7.9.Y.Y.Y.T.!.s.f.s.",
"Y.f.t.e.q.r.U 1.9X~.6.z.z.z.z.z.z.0.m.m.m.P.(.@X(.0.7.7.5.7.m.m.j.j.6.6.6.9.9.9.9.8.4.5.7.4.y 8.9.^.(.f.R +.1X9XG z w.t.C 7.7.f.f.c.9.9.6.q.w.r.o.] ' ..&...R.Y.f.Y.^.^.L.t.b c U H c 9 p s 9 9 7 f @.R.A 6 z | P J J A S K L b w.F.| 6 * sXcXd 4 s 7 # $ - + @ @ .   + & * u p , , * 2 $.&.*.*.'.[.{.[.].`.| A f 6 XXHX+XT.m.c.c.9.9.5.8.8.7.9.9.c.c.c.c.g.6.f._.Y.7.7.y 4.7.7.c 8 b w.n.g.6.5.m.P.t.G sXKX%Xc Y.L.Y.L.g.y.v.v.P.P.P.F.q.y.b.n.n.n.9.g.^.^._.n.c.m.P.m.m.m.v.m.m.b.b.y.b.c.m.b.i.q.y =.zX+XY.y.Y.V.Y.W._.T./.Y.",
"Y.Y.Y.F.t.V.B.1.NX9XY.(.P.m.z.z.m.m./.m.P.(.m.c.6.g.a.9.m.g.g.m.m.^.^.m.5.8.9.9.9.9.c.m.n.z.9.y.y.m.(.0.b S.OXX.6 H F.j.Y.k.b.y.a.k.g.j.{ { k p * * & * , * O ; $ $ $ - - ; u , & & g ^ _ $.%.*.1.>.:XsXeXeX1X*.&.&.*.$.$.%.~ p k k j ~ %.NXNX>.a ] %.%.[.[.eX*X=X<X,XrXvXBXmXrXdXtXdX[.~ ^ a a ..*.X.X.U G ] *.] p ` eXE f./.m.L.g.Y.j.g.g.9.g.g.w.C b C t.d.s 7 9 e C C d.s.U A 6 s 9 9 e c b t.W.| : yXKX9XE W.H.J.Y.Y.^.^.P.F.F.L.F.q.V.Z.V.r.d.p.Z d.Z.!.k.k.n./.m.F.t.b 6.j.k./.}._.Y.k.L.F.F.r  XFX%XH q.H.V.V.H._.Y.a.L ",
"A.J.O.U V.B.k ` kXeXd Z (.@X(.^./.T./.Y./.^.W.L.r.d.U k.Y.n.g.k.k.C w.y b 7.k.k.n.a.Y._.).k.m.m./.(.}.h.e +.nXsXa F J t.Z.V.L.L.D.Y.Y.H.B.{ [ *.*X*X&X:.:.qXqX*XOX1.[.;XeXdXSXSXSXSXKXKXKXKXKXKXHXnXnXHXHXKXHXCXGXMXtXKXKXKXDXsXnXMXnXmXtXeX-X*X:XtXnXCXHXCXnXdXKXKXKXKXKXKXKXGXiXcXCXVXjXVXVXFXVXuXeX*.! 2 * O . . *XiX^ 9 L D.B.K U B.t.Y.!.L 9 + $ 6 + + ; ' p ; u f 7 6 ; @ , , , & @ ; & ; 4 ' g . >XAX1.] o.u p 6 s s z P U B.O.o.I } F F *.[ f f p 6 ; f o.T K I F ' } I O.D.D.C.C.E T K r.H D 6XBX:X*.&.A.A.J.D.I C.W.A.",
"j p 7 6 6 p * ! iXZXk . C Z.R e 9 # - 4 4 $ $ $ X + + # $ # + + + + + # # - 4 $ - 6 6 7 6 x 7.Y./.@XT.R 9 ..CXKX%.k m F O.N.A.F 7 # 6 } [ k ~ dXKXbXKXKXKXKXSXiX1XOX:XeXeXrXrXrXdXDXKXKXKXmXnXiX1X'.*.*.*.*.E.R.].W.O.jXiX6XvXeXXX{.'.%.[ [ ~ ~ ......^ ^ h ~ h h 3.DXBXqX1.^ N k +.=.U.!..X.X7X.X.X.XK.3 3 W _ ! :.qXdX;X+.s 6 - ; 7 ; 9 s f s A *.{.9X1X,.~ ^ ^ ~ ' ] $.$.*.,._ _ =XrX,X3.^ , * g _ *XvXxX3.k '.,.1.%.%...~ ~ p : : 7 7 : , ~ $.p a h < & o - - - o & g 2 a p ; X X     X X X - # =.KXHX>., & ; ; ; ; & s s p ",
"oXoX;X*X;X<X;XwXxXcXXXk X @ & h ^ h : * & : ^ ^ < / %./ N k a 7 k ^ =.1.1.*.%.^ >.:X:X5XOXk 9 Z Z.k.0 0 p %.ZXKX3.* a ; & X . o : a ; @ o o 3.dX>X3 %.1.:._ 2 ^ +.+.N a h a g ~ * _ BXsX%.k s f d.Y.t.C b L d.t.t.j.t.C.X.:XSX1X' F n f P U } &.&.} G [ o.O.F p : ! ,X6X^ k x 7 7 R U.f.f.Z b B E Z.Y.Y.'.*XtXMXuXOX:XoX3X9X2X2X2X2X2X1X%X#X.X#XhXMXsX9X9X9X1X'.XX{.{.1X9XzXjXMXjXnXcXmXKXKXKXHXCXGXsXrXiXdXzXXX9XCXCXGXGXKXKXBXsXlXuX1X1X3XsX9X3X1XOX7XsXnXNXMXMXsXCXCXcXrXyXzXzXnXnX<X[.3. X5X X1.6XyXlXsXsX3X*XXX1.>.1.X.oX1X",
"NXzXwX6XcXSXxX|.;XmXnXtXtXmXCXKXKXKXGXDXmXdXCXFXlXFXKXNXnXNXCXCXFXFXCXKXKXKXHXHXKXKXKXHXNX:XR.Y E E B D X.1.kXaXBXBXyX^ g h %.iXKXFX:X%.1.;XiXvXqX2 k j j ~ *.I I E +.o.G o.m j * ^ nX%XD S V b 4.8.v.v.v.b.n.^.n.c.v.t.f OXnX#X| V.H.Y.D.W.W.!.W.J.A.D.!.$X$X!.R.%.rXNXX.8 b L O.U f.Y.^.^.m.k.^.^.^.^._..X.X.X.X+X~.!.].~.~.!.~.W.S.E.U.+X+X!.E.~.%X#X~..X].+X%XW.O.@.W.~.E.I.+.*.$.=XDXKXmXtXsX9X=.^ X.[ D D K.*.] ^ ^ >.wXKXKXZX:X,.{.2XoX'. X'.X.=..XOXOX1X.X X:XHXKXlX:XyXgXnXdXrXrXiXzXzXeX:X4X5X X XOXOX;X<X<X<XXX-XzXFX",
"E E ] N a a h k p X.*..XoXoX,.XX;X<XBXKX XH I.I.+.+.*.*.X.*.'.*.E C.o.D.E.R.E.E.R.+.+.+.X. X1X%X2X8XgX%X].oX-X1.rXHXKXMXcXKXKXKXbX;X:X1X{.%.|.NXiX$.} F P S n H S U U | J.| | { A +.9X.XR V.t.y.8.8.b.y.y.e.e.L.y.y.8.q.f eXZX{.J.W.).Y.!.!.!.!.Y.W.W.V.t.V.W.`.R.*.yXCX'.J i.Y.W.W.H.j.b.m.b.y.j.m.m.^.^.Y.k.k.T.U.T./.Y.Y.D.Z.Y.Y.Y.Z.T.!.!.T.!.!.!.U.s.!.Y.Z.!.Z.Y.Z.Z.Z.Z.C.R x k g ^ <X[.m m s 0 0 x x K R J U S A p @ O wXKXuXo.' } +.E.E.~.E.E I.E.W.E C.K O.D XXKXsXN D R U.R.o.o.'..X~.E.R.I.+.E E C.Z.R.o.+.*.+.Y x B ",
"C 7.Z.R d 7 s s 9 e r C K x 9 9 6 < dXHX'.6.Y.Y.k.d.c S B.B.U H w.Z.Z.Y.Y.Z.d.H V c K R E G ..E.Y d .X.X]..X*.k ..'.2X%X XXX6X X> p s p 6 7 X. XE.[ I I P z P J.{ z i P N.J.J.{ F [ oX~.B.V.u.j.j.t.Y.L.t.q.q.F.j.y.u.u.[ sXvX[.R.W.W.!.+X+X!.T.Y.J.W.W.A.N.J { [ 1.6XNX*.{ u.t.A.J.V.J q.q.t.t.t.^.^.^.m.m.m.h.c.Y.0.f.7.7.f.Y.Z.Y.Z.Y.d.r.r.J J d.J C d.t.r.W.].L p.s.d.L J w.7.t.R D N >.*.N.{ q.J r.J z b q.e.t.t.i.J p - ;XFX.Xc t.D.Y.W.W.W.H.Z.R z c k.Y.n.b.L f NXCXx 7.9.9.f.Y.r.x H D._.Y.Y.a.f.j.L.L.Y.Z.t.d.Z.p.7.b ",
"g.b.j.Y.+X!.V.t.k.7.c.9.7.g.g.j.b ~ FXNX!.m.m.^.m.g.7.g.Y.L.b.F.j.L.L.F.e.t.t.t.j.t.L.F.I U U d.L x T V V L x 9 9 s S I s N N s z n z v v i I S *.E.'.R.*.,.=X3X3X1X].`.&.' &.&...~ *X*.s H N.q.N.N.| P P { { J.N.N.R.R.%.cXbXX.| +X].!.{.#X!.K.A.W.].].`.&.n m g %.HXHX$.s J q.d.d.U K x S | C.R f.Y.k.Y.j.n.0.m.c.0.f.f.f.f.^.k.k.k.Y.Y.L.Y.r.J w.w.t.Y.Y.Y.!.+Xt.7.R f.7.b 6.7.g.t.T '.%XK.c v q.q.j.j.j.j.t.t.i.q.q.q.6 k nXVXU.6.b.k.L.^.b.L.j.t.w.b e.c.c.m.v.e.x 7XVXd.n.m.m.g.g.b e e c j.j.j.g.j.j.b.y.m.c.f.g.g.L.m.b.",
"b.c.j.t.H.W.W.^./.^.^.m.m.P.m.g.q D KXVX@.5.8.z.v.c.P.m.b.b.m.P.b.j.q.6.6.y.j.m.m.n.b.9.7.c.5.y.e.q.d.f.e.e.Z C w.J c r S '.1Xz v z w t *.%.~ g 3 * p h _ _ 3.*X:.,.$.^ $.~ g *.:._ ,X*Xk ~  .m s p k p 6 j j p u s u p ^ sXHXXXu u + X @ ; ; ; u $ - s 6 + X & X %.BXBX,.p s 9 s f f d ; ; p D d L Y.C.Z.t.t.j.L.k.n.f.f.7.y 7.a.a.k.k.k.k.f.t.r.d.L V V r y H !.Y.a.f.f.f.a.7.9.c.Y.Z !.%XI J q.q.q.q.q.v v t.H.q.v J J 6 $.mX.XZ k.b.j.j.b.b.L.m.^.Y.^.(.9.9.v.v.u.U oX%Xp.c.0.^.m._.@XhXhX}.^.^.v.L.L.b.v.v.P.v.^./.^.^.m.b.",
"t.Y.L.w.D.!._._.Y.L.n.j.Y.m.g.j.y ^ HXcX, i q.b.^._._.Y.L.L.L.F.F.7.9.9.9.F.j.W.F.t.t.t.9.9.8.4.6.L a.k.Y.d.d.V.V.V.V.Y.O.*.1Xu % 4 v 3XCXKXmXrX,X%.1.<XeXXXXX X$.,.'.oX'.X.] ^ h ^ ;XsX3XoX$.*.*.*.8X9X#X1X3X9X1X1X1X1XoX:X7X[.& & _ 3.%.%.=.+.....a d ] '.sXjXsXvXaXKXKXCXzXgX9X9X9XzXCXmXtXnXtXE.I.E E S.!.J.| B.F.r.L x - r s.L L f.C.C.C.S.B.O.I S f 7 9 A E.C.Z R s.f.f.f.k.a.Y.Z .X1XD A J z z z z z z z n m P n i p ,.mX<.0 r b b q.Y.).}.@X@X$X}._.Y.D.q.J 8 u :X2XK Z.f.B.P H C.+X$XW.t.j.Y.Y.t.w.e.j.j.j.Y.Y.T.^./.Y.",
"~.!.T.D.E..X~.!.W.B.B.B.Z.Y.V.D.D :.vXvXQ . $ z A z A A F O.R.W.Y././.T.h.d.d.A.J.A.J.W.9.c.m.y.q.z e e c B.S.Z.H.H.F.L.F  XnXg + n !. X9XCXKXKXKXKXjX3X1X8X8X2X%X#XfXhX$X+X+X'.] N /  XXX*.] &..X.X8XgXgX8X%X%X.X~.#X#X+X.X.X].'.[.aXKXKXsX7X8X%X2X1X2X1X2X1X7X X:XXX1.oXOXOXOX1X7XoXXX1XeX{.[.,.`.+.@.+.R.'.' j p 6 ; @ ; p d d 7 7 f a p a ~ k < < < , . X , ^ a + - p ; 6 s s 6 6 ; OX<Xh & X . . * , g h ; ; m *.k p * ` qXiXyXX.$ $ ; 6 p p 7 p j p u 7 : h ^ %.*XnX:Xk o.D g @ @ @ + 9 E C.Y.T.R K K C.%X&.} ~.~..X~.U.U.",
"] f +.+.X.=.=.a g ] k A E.R.f ; ; *XKXKXAX_ o   o & * p : g p u s 9 9 9 r x A ~ ' ' ' ..D.Y.L.F.V.| d.L B.S.J.Y.Y.f.f.Y.D :XKX%.& *.`.x D 1.vXaX1.'.G 7 f R !.!.D.Y.p.7.f.f.Z.U.E T 0 A [ +.@.@.o.T x Z s.R C.!.D.C.C.Y.Y.!.Y.!.W.`.=XJXKXXXp A f f f f D D D f k k j k 7 6 d d Y E G A Y +.m m [ [ s s 6 6 p ~ :.|.<X<X;XdXKXCXeX3XtXtXsXcXdXsXtXmXSXmXSXrX<XpXaXiXsXsXsX3XoX[.[.[.{.>.,XpXiXmXnXmXSXSXvXvXkXXX*XMXKXKXGX<X,XaXxXKXKXBXmXdX*X:.~ , , * 2 3.:X6XvXBXJXSXaXrX_ ~ XX<X<X<X;XXX*.+.*.+.+.~.9X*.=. XQ * h a a N d N ",
"oXoX'.OX X-X7X9X=XoXX.] k '.uXsXXXXXBXKXKXKXcXeXmXMXjXnX:X X1.'.oXoXoX'.+.N ~ ~ Q g Q g p s p s n } +.o.G f 7 7 4 9 x K d XXKXqX~ ^ o.C c F tXaXN D Z.t.d.f.Y.Y.Y.f.0.7.0.7.f.n.Y.Y./.Y.Z.Z.Y.V.w.t.w.w.p.t.t.t.V.t.p.f.Y.L.L.g.k.S *.KXHX'.s z J U L U C.L U U N.J.`.W.W.+X+X].!.d.r L d.Y.D.Z.Z.B.R B.J J o.XXmXKXKXGXmXcXBXKXHXBXeXXX:XeXeXiXSXSXmXdXmXDXKXKXDXiXnXmXmXGXmXtXsXdXtXeXiXrXdXGXKXDXKXKXKXGXlXsXlXsXNXGXBXXX<.;X;X|.;XcXmXrX<X<XeX<X<XrXSXKXKXKXKXBXvX,X;XsX:X3XCXKXKXKXKXHX:X*.*.*.oXuXFX1X1.3XBXBXcX XX.*.*.'.",
"oX{..XOXXX-XXX X'. X X~.*...1XMXoXD h _ 3.XX1.*X<X*XXXeX7X7X7X9XjXMXnXjXuXeXnXmXdXsXcXrX*XXX>.%.~ a a h =.1X9XOX'.'. X+.: 1.KXKXKX*X*.+.q.n 3XHX'.R /.@X_.T.T._.t.7.n././.n.^.(._.^._.^.Y.j.k.^.L.L.^.L.L.F.H.V.F.t.C w.Y.L.^.m.n.V *.HXHX*.J q.q.t.F.L.j.e.t.F.u.W.$X).W._._.W.t.w.w.V.V.k.k.t.Z.W.Z.d.d.V.Y...:.qXcX:.Q ~ ~ X.N %.%.N k k ~ ^ ] ^ k a p a $.*X*X^ k a ; h ~ p > , g Q %.,.X.....k a X.=.%.X.k d d a ; ; * 2 ! h ! 3 o * 3 Q ` %.>.:.:.qXZX5X'.X.=.=.a N X.*.*.,.%.>.X...X.$.~ ] m [ *.] $.%.[.JXKXFX:XE.=.'.[.",
"+.+.R.+.+.=.D D o.I o.C.O.I O.@.+.+.A ] a 7 ..N ..*.o.D X.*.*.+.+.*.o...X.+.'.7XeXuXsXeXsXvXBXKXKXFXcXlXyXeXNXCXHXHXCXCXeX=.>.;X:X3X:XW.v n :XKXCX+.e 7./.Z.w.t.r.Y.t.w.w.Y._.k.L.)._.)._.^.Y./.Y.}.@X!.H.W._.V.H.!.W.H.V.Y.L.^._.I ^ SXKX=.J j.j.t.j.j.a.f.^.L.V.N.N.B.B.t.V.V.W.H.r.V.r.Y.t.d.V.N.U N.V.d.t.I / &X5X^ p x x f 7 f D f x G O.@.o.o.o.E A D ] [.nX1XG G k s F m ] X.*.*...x x f 0 o.o.f 0 d d f A A [ ..~ 7 k ^ N N h a h h a a p p k Q >.;XN - 7 7 f 4 7 s 9 s d d s s s A ' &.&. .| &.'  .~ h ;XcX1.E R o...o.",
"Z.Z.Y.Z.d.d.Z.t.w.w.w.t.e.C Z p.R V.V.Z.L R K R K R H K V K R O.| n P H r r x D E..X#X%X5X-X XXXeXFXNX|.XX=./ ^ _ ~ < Q N : ; ; 7 D o.z 8 i [.JXSX1.9 b Z.W.W.J.V.W.Y.H.Z.d.!.D.U U | n x H U R O.O.S.].!.S.K.} { @.N.t.V.V.J 9 6 - > wXAX*.H j.j.w.t.t.a.0.j.w.w.C.O.R U U r.J P n n { n z K B.A.@.{ { J.J.P H +.1.*.D o.| P f x D Y Y @.O.R K C.O.O.O.O.} k '.:X..S H H S I | @.K.+.+.E o.o.I | | S x A A A x A A A *.'.[ X.N k k ~ D D G ..G o.| m g  X9XR.U L H x z s s 6 9 F n z J J N.{ | { { N.S.| @.k k >.:XD Z k.U.Z.Z.",
"Y.Y.Y.t.t.Y.d.k.a.j.Y.L.a.k.a.f.p.w.Y.Y.f.k.Z t.p.t.t.t.t.p.t.t.q.q.t.t.a.7.R K K K r r B Y k m ~ X.>.< a : - a j j j p 7 s p d p p 6 X X X :.JXJX&Xh s 9 p p f k A S P S.O.} a p @ X @ X . X X X o X . @ & & * @ X + + + - ; p ^ *XBXJXvX1.A A.J.B.t.d.R x x 9 f f m D ..R.R.R.R.&.,.-.g * g ,.`.'.oX].{.#X`.W.W.q.J J | A.N.S.B.B.O.O.N.V.t.O.E W.S.| O.@.&.1XrXh [ A.@.I } | | K.E.'.*.R.K.| | { O.| F F O.o.F G o.*.R...+.X.' m ' A m } @.} | `.&., %.9XJ.c J q.J c x n n n P P U N.t.q.{ N.N.N.N.| | | &.%.yXVX+.Z.k./.Y.^.",
"9.9.6.e.7.Z p.p.d.f.t.V y Z 7.7.Z T.@X/.n.n.Y.T.a.w.j.k.f.a.p.a.n.m.L.Y.L.j.Y.p.7.a.5.y 6.7.t.v n m ' p m S B.W.W.W.V.J.R.@..X8XjXjXtXrXrX;XwXKXKXiX` ^ h , g ] *.%.Q * * h ! ) 3.6XaXvXBXcXaXwXqXqX*X) ) >.;XdXqX*X>X,X<X=X3XKXKXvXJXZXcX:X^ ' ..I | R.].OX1XoX1.^ k g , , g ~ u * g W :.2.Q g g a : ~ +.*.&. .A s n { I } I V.V.V.x U N.t.F.W.!.A.@.@.J.K.' <XHX%.N *.o.] m [ | { ..] ~ *.*.&.J.{ { {  .*.*.' ' ' ' ' $.] g g k '  .F } K.@.{ &.&.&.j %.1XR.J q.J J N.V.N.{ &.J.O.| | A.| J | B.U U | &.' j h :XzXd O.s.m.m.m.",
"t.j.W.$X!.R .X%X].E o.S.Q..X2X!.R U.@X!.Z.L C.D.I H V Z Z x x K g.c.m.n.^.7.7.9.5.g.5.5.5.9.m.m.e W.MX{ A.$X+X+X).H.Y._.}.!.E Q..XtXmXHXKXlX4X6XiXiX:XeXmXHXCXKXCXsXtX1.%.:XeX:XeXeX<X;XiXKXKXBXGXdXeXsX3XXX<XBXGXmXGXKXKXsX:XsX1.< a h *.[.*.o.A s k *.'.3X3XCXKXKXFXsXtXsXjX9X1X9XmXCXKXKXCX1X9X1XOX7XOX X'.'.......k +.8X.XY.Y.+XW.S.J.V.A.K.R.].R.R.R.| g <XKX6X: ; : a h k ' ,.[.$._ 2 . X j *...k ~ ] $.~ j j g g g Q , 2 g ~ $...F m k k $.$.g g eXtX&.P S.W.W.| N.{ m ' $.' ~ k ..,.*.E.~.~.E.*.&.' * > ;XcX> - f b b a.",
"7 f *.1XoX] k *.1.1.1.'.OXXXoXa # 7 d p ; # ; ~ ] o.[ +.E +.+.+.D.k.m.b.m.m.^.m.m.^.L.L.j.9.c./.w.+XVX].`.+XW.J.J.J.U L Y.D.E C.I D [ *. X=.X.X.=.*.X.*.2XeX7X7XOX X X*.X.E.E.R.oXoX*.^ .. XOX'.=.%.+.*.o.k N X.%.*.>.|.iX%.* a s k p k [ o.@.A.| | ' ' p , < 3.DXKXsX9XsXjXzX9X2X1X7XeX7X.XOX2XhXzXVXzX7X7X7XOX XOX7X1X7XOXOX.XE.*.p a ' [ [ [ k a : ; s 7 ~ *XBXHXuX1X:X*.a & g g g 2 2 O O O . * g g > h %._ Q Q Q Q W _ _ ) Q 3 h h a a ~ k < o o ! iXBXXXa ; - p d m ] ^ Q 2 Q Q 2 W W a a : ; : a g < * ` SXKX) * , + # $ ",
"< h ,.[.^ %.>.Q ^ _ ^ _ %.>.>.< & * > h _ :.3.,.^ h k ~ ^ %.>.R.R.S.m.e.j.m.F.b.F.Y.H.t.t.y.y.j.H.D.*.^ ' &.R.`.J.+X$X$X!.Y.t.H w.U d.L x D E E E E C.B.E E Y X.+.E C.U.U.U.s.d.!.!.R.o.C.E.C.T C.E.!.!.!.T.+.T D o.^ ^ eX1.~ } | O.S I @.K.J.D.V.`.`.&.m g * * |.yXQ.D E U.T.Z.s.Y o.E E U.s.R Z x E Y =.~..X.XOX.XOX%X X.X%XQ.*.^ %.$.X.m ~ *.%.^ ^ X.%X9X3X;X|.yXVXFXCXjX1X XXX=X<X<X6XwXSXBXOX,.[.tXlXyXyXlXmXnXnXHXHXGXHXKXSXwX;X>.=.=.>.%.|.<XcX6X<.6XGXsX:   o ^  XXX|.|.rXvXmXDXDXqX1.:.^ ! Q %. X:XrXHXKXSXvXSXeX=.1.^ ",
"eX1XsXnXnXKXKXKXHXmXsXtXMXHXHXGXCXHXHXKXHXKXSXqXqXsXsXsXGXHX3X].E.*.J.N.V.N.t.V.V.N.| V.V.r.t.V.S ; > O 2 ^ h $.#.&.&. .O.Z.U H b r.w.L p.Z.Z.a.Y.Y.d.p.d.R x Z R R f.Y.p.s.p.k.Y.d.D.C.s.f.Y.T.Z.Y.T._._.T.Y.p.t.t.@.$.3X'.F A.V.V.B.V.B.N.r.r.t.V.W.V.V.N.k ^ NX7XE 7.0.U././.T.k.Z.D.C.s.T.Y.b.j.p.Z.!.~.+X.X.X+X2X+X.X.X.X!.oX1X3XsXsX3X1.*.>.=.%.N A D D X.^ : 0 x 0 x o.E.E.'.oXuXcXKXZX-X XoX{.1.=.=.'.7XuX:X1. X-X%.|.cXKXKXKXZX8X1XoX=.XX<X0X<.` >.cXBX X< %. X>.;XbXHXCXMXnXHXSXeX:X:X:XsXCXzXzXzXuX:X:.! [.nXCXnXzXuX",
"I.W.+...E.=.=.E.E.R.I.E.~.].'..X.X[.[.*XaXKXrX3.<X:X1X7XeX9X*.] a g g p 6 6 u ; $ a a ; p f - ; & XXKXBX>.:.` h 2 * O & @ 6 7 9 e z x B x x x L L d.f.Z b C C w.w.Z s.s.p.f.f.Y.t.w.U d.f.Z r b Z d.Z.p.d.Y.k.e.j.t.{ *.uX].P N.V.W.W.V.J.W.W.W.H.H.L.W.F.t.n k uXOXZ 0.0.0.h.z./.L.t.d.V.a.n.m.^.^.Y.!.!.~.+X.X.X.X.X.XE.E.~.].W.R.+.E.R.X.~ a a 7 f C.d.L x .X8XA b Z b Z r Z f.L R R.+.KXuXd I O.| W.I.s.U.~.+.x 9 9 D k k & W wXXX: 0 o.K.o...h < : N k g h ^ ^ h h , h wXlXE.O.E E U S o.@.@.S.| C.C.r.O.E G G x I D.E E.W.",
"Y.L.Z.d.x B x Z R Z.!._.+X!.Y.R c n k , *XKXrXg ..*.A f D *.%.%.$.*XjXsXeXeXtX:XsXsXeX:XsXCX3X:XXX;XDXSXkXvXBXBXvXaX,X|.|.*XXXR.} @.*.X...d ; - 7 f t.Z.Y.Y.H.Y.t.w.Z.d.d.Z.H.W.W.D.A.O.R R C.D.C.I.E.D.C.Z.Z.V.V.V.| '.9X*.n N.A.A.J.V.J.J.W.D.B.r.r.V.t.{ { ] sXOXB f.k.n.Y./.Y.t.J P | d.j.j.c.9.p.V R .X%X~..X.X.X%X+X.XOX.XR.B.R V.B.R G F ' + % H.(.^.V.gXVXW.y.c.7.c.c.4.9.9.n.Y.U jXhXC.b G.).F.C b f.Y.a.7.w.k.d.D.A.n ^ DXsXD x J B.|  .o.+...o.o...~ ~ k g u , _ KXVXS.b 7.7.n.g.e.j.t.t.j.w.j.e.q.V.k.t.a.f.f.Y.Y.L.",
"j.g.b.m.L.F.t.j.k.f.k.7.a.j.t.F.L.P.F.i *XKXrXp | U | } ~.uXCXsXsXrXqXkXHXKXcXZXKXKXBXZXHXKXnXyXcXwXiXBXKXHXKXKXKXKXBXiXDXKXKXuXXX1X:X[.:XeX3.^ %.'.D.E.!.W.C.B.S.S.S.O.} I I A.K. .' [ G o.+.o.....k m m m A f k m j ,.sX*.&.@.@.@.} P | { } P S P F f n j * Q GXiX7 6 9 x W.+XW.J.R.R.].K.d.q.7.y r 5 d =.'.=.'.OXOXOX.X X-X XD.r.V.N.L Z D.A.| i 8 j.P.v.7.w.w.4.9.m.m.9.9.9.9.8.8.y.Z.9XgXr.e.G.^.m.j.k.k.f.g.m.n.k.t.Z.A.n $.KXnX] o.N.A.| | K.K.+.@.&.*.*.*.X.X.a ; ^ KXVXt.9.c.c.c.9.6.6.6.y.m.e.7.e.t.r.w.6.a.j.c.j.F.j.",
"^.Y.c.b.^.m.b.^.L.e.e.e.e.g.g.g.F.j.F.n 3XKXsXk U c J | U.+X XOX7X,.^ %.1.%.h ! %.>.>./ Q %.1.%./ =.XXXX X X'.|.<.>.%.1.,XBXvX` Q ` $...^ ~ Q 3 h p s 7 - + + # # @ + + + X . . . X g ~ p ; 6 u ; * ; ; ; & & & , & . 3.HX*X$.a ~ ~ u $ ; p k m ~ k h , ~ ~ O O xXDX*X[.^ & ; p k k ~ $.^ k D G D B D =.1.<.1. X-X-X XXX X|.5XrXE.d.U I K K G F  . .| q.b.m.n.g.5.y.9.7.9.0.0.0.c.v.4.v R %X.Xc t.j.Y.L.Y.W.Z.f./.L.t.t.Y.Y.K.' ,.KXsX] *.o.@.K.K.*.K.K.K.].R.*.R.*.o.] j g GXjXR f.c.y.c.y.y.j.^.^.^.k.a.t.Y.V.w.w.j.k.m.b.b.j.",
"/./.k.j.Y.t.w.V.V.N.N.V.t.g.k.Y.t.y.6.6 k GXsXA U V J A.D.D.o.A K.R.D ..X.k X.~ p ; @ k *.*.*.+.+.] E G f s d o.] ~ k ; * ;XtX^ Q k ~ D *.$.$.%.o.+.*...*. XoX1X:XOXXX*XOX*X:X=X<XqXbXKXvX3X{.`.%.oXzXVXFXVXsXuXnXMXzXCXKXKXHXnXmXGXBXcXdXiXvXBXiXwXaXaXbXBXcXiXvXKXKXKXSX;X_ Q *.:X>X>X3.%.%.^ h < : a h > * o O < 3 ! > * 2 ] S G A E N ..^ ] Q h & $ $ x x f.!.!.Z.T.Y.T.Y.T.k.m.6.c f *.E.I U H.!.Y.D.W.S.K U Z.!.!.D.+.`.] O 3 >.^ ~ o.X.X.X.X.' ' m ' o.&.R.R.*.*.~ 3 BX:XD J t.t.q.i.t.t.V.t.q.L Y.T.d.d.d.Z.Z.Y.Y./.}._.",
"9 x s s S K K F | | &.&.S.Z.D.!.!.B.U - [.KXtXk +.} F A B.t.f.V.J.D.P f f }  .f F O.I @.O.O.D.S.I.C.S.R U o.C.W.W.W.J.| 1.nX1XF [ | R o.I.R.'.R.OX7XjXjX3X9XzXjXuXuX:XeXsXjXCXCXKXKXKXJXbX[.&.`.].#X'.oXuX7X7X9XjXzXjX7X X1.XX:X<XeXtXMXHXcXcXKXBXiXnXBXcXsXiX:X-XeXlXnXBXHXMXMX9XtXDXKXKXKXCXzXzXgX8XOX XsXFXnX9XuXjXjX1XOX'.'.d : - & & o O , O 2 ! 2 %.< D d 6 7 s 7 7 7 9 0 0 r r.F a *X1.@ 6 6 I +...D ..k m @.*...Y D a ~ ! >X,X2 < ^ %.%.$.] ~ j p ] ..k m m ..&.h ) SXiX& . $ p s P B.O.I F m x 9 9 A A f f 0 x x r U V ",
"; ; * , a a p p < , , , : $ + @ ; ; . o BXKXdX< g ~ ,.[.oXD.D.d.| O.A.J.`.].+.*.+.I.E.I.Z.C.C.I.E +.E.S.+.O.R.W.D.W.J.K. XCXuXD.w.V.r.d.D.D.S.!.+.S.I z z z x o.o.G D D G o.E.'.'.<XJXKXKX=X$ 8 z x z x I x 9 9 9 7 9 D D D A A k k D o...k D +...N ..X.k k ..+.D f B d k E.*.@.k , ,XKXDX'.+.~.+X+X!.E D E !.].!.E.!.].+X~.E.+.7XlXsXeX:X:X3X<XeXmXKXKXKXGXVXuXOX1XuXzXzXjX2X.X+.} x ; *.KXnX*.~ 7 s ; & & a Q p ; a X.N < a =XKXKXKX*XQ ^ %.k a ^  X=Xk & < k ~ j ; * * iXKXKX[...^ N ] ~ d s a a > < < : & ; > * @ : * # ; ; ",
"dXaXaXvXaXqXiXrXeX:XeX;X:.,.1.:.=XnX<X3.SXKXSX<X<XrX<X<X].E.*.+.R.E.R.@.R.R.*.=.*.D.D.D.!.W.S.S.+.+.K.A.K.A.J.@.A.E.'.o.Q tX1X} U W.A.U D.!.W.Z.Y.Y.t.6.q.j.F.t.v c J H V V d.W.} ~ rXKXKX1Xs C q.j.q.q.t.t.p.7.Z.Y.t.p.L Z.r.d.R d.d.H r L V r r 9 9 e r r V V r e r r e 9 9 4 4 ; ;XKXsXx b p.w.Z C b 7.b Z 7.a.t.b 8 z x x f E..X'.].'.2XuX2XoX.XoXoX X:XOX:X1XOX1XtX3X1X1X1X%X#X].R.%XuXjXMXMXVXVXnXBXCXCXmXjXoX9XzXgXOXuXCXnXvXKXKXMXeX X'.1XuXzXFXNXlXNXzXjXzXuX%XOXyX6XDXKXKXZXsXyX X=.=.-XyXwXaXvXiX*XrXcXiXqXmXCXnXrXeX",
"rX,XaXJXDXvXcXsXsXsXzXuXtXmXCXnXKXKXdX<X<X<X<X*XsXmXrX*.*.%.*.1.*.X.*...*.1.1.1..X$X+X+X].].].R.R.E.R.&.`.`.R.*.*.'...g *XHXXX~ R.o.R.R.#X2X.X!.Y.Y.L.k.y.8.y.b.6.4.e.e.5.5.5.y 8 ; 3.KXKX[.J j.7.j.j.F.L.g.g.g.y.j.e.w.a.j.C C p.e.w.j.L.j.g.j.k.7.e.g.e.e.b.b.n.m.c.b.j.6.w.Z U d rXKX7XV 6.7.7.9.m.m.c.7.c.c.c.m.m.b.n.k.a.j.H s s s x V H H H x 9 0 x A ] ..*.E o.[ [ ] G D d A S A F G m m [ o.[ :.vXHX3X1X#X+X+X.X+X~.~.~...N +.~.~.~..X.X.X!..X%XOX7XOXQ.~.%X8X2X%X Xk X.oX%X8X7XOXOX1X%X7X6XwXbXDXrXqXrXdXBXBXdXdXsXeXeX",
"g , :.rXsXuX*.=.~.%X8X8X7XVXCXMXVXCX#X.XoX..] k *.XX*.*.%.%.%.%.$.%.%.Q h ! ` %.X.A F o.' k ~ ] ^ k p u ] &.' h < o O ) DXKX3.* h ~ k ..'.'.=.*.W.W.F.^.L.b.j.t.q.q.j.8.4.5.5.4.w n ,.DXKX=XS t.e.Y.Y.Y.Y.j.g.j.F.^.L.t.F.^._._.}.}._.j.j.n.k.e.j.g.j.b.j.L.n.b.m.^.P.m.m.j.a.a.r 7 iXKXOXV 5.7.c.c.9.c.z.9.P.v.8.9.v.P.^.Y.Y.b.e.J q.t.J e e C Y.Z r C Z.Y.C.I R B.V.P J U L K x x x U r.d.H H H z f Q ,XiXN 0 V Y.T.T.k.Z B Z Z Z B r r 7.k.T.Y.p.s.Z 5 5 0 r r B U.T.T._.!.s.f.T.~.U.s.U.~..X X<.-XdX;X:...~ k ~ ..d p N k k ",
"S s *.XX+.I.B x V L Z Z R E D D o.C.B.V w.e 9 x K +.[ '. X1.*X|.eXGXBXcXiX-XXX:X'.k a $.[.rXdXmXBXzXtXeX3X:XeX9XCXGXGXBXvXKXKXCXeXMXsX9X:XOXOX1.R.O.t.U H U J x 0 z r.b.j.j.7.b.6.@.oXiXKXeXs C.C.I.E R R Z.H.B.q.H.+X$X+X+X+X+X+X$X2X_.Y.L.Y.Y.}.}._._.Y.F.F.L.Y.L.g.j.j.j.e.Y.w.f iXKX9XC 9.c.m.m.y.9.9.9.P.P.m.m.^.^.^.Y.^.m.m.w.t.b.V.q.q.r.q.J w.w.t.j.J t.^.L.t.j.F.F.j.j.B.Z.Y.F.q.5.5.t.t.t.S , ) XXd r 6.7.c.7.c.9.c.9.m./.g.6.4.8.9.c.h.9.7.5.8.9.v.m.c.m.m.g.k.m.L./.(./.9.c.m.m.n.7.0 ] eXMXX.s G 9 V L V Z p.R s.O.",
"r.U oXoXx Z f.k.7.e.6.5.Z b y b 9 e e.e.7.C Z 7.p.B.U W.1X9XuX*X:XtX:XsXFXFXNXFXCXnXnXBXKXKXbX;XBXKXzXsXuX7XMXFXnXCXmX;X>.|.tXOX1.=X1X:X'.1X7X:XJ.] R.*.E.R.*. X=.*.J.t.t.r.t.j.H.A...*XKXrX& d +.E.R.R.R.#X'.F m n &.'.`.*.R.R.+.o.@.A.J.W.+X].+XW.+X$XW.J.D.W.W.D.C.H.H.V.Z._._.o.;XKX7Xe g.^.c.v.m.b.c.c.m.m.g.Y.Y.^.^.Y.^./.Y.j.5.5.r.r.t.t.J b q.q.j.e.e.j.m.b.m.j.j.c.c.c.Y.t.7.y.y.z.8.5.y.j.i * *XnXE.w 5.y.9.7.9.8.4.4.9.c.g.c.9.v.z.9.9.9.9.c.c.z.z.z.z.z.z.z.P.v.m.m.P.(.P.m.m.P.m.c.p.I.oXoXF x r.F.p.a.g.k.f.n.Y.t.",
"t.J R.2XO.w.7.6.y 5.8.v.n.w.Z V r b 6.b q.V.j.t.B.B.J U o.E.].X.k p ; a *.'.=.'.*.>.|.aXAX&X3 : * a 7 : a ] *.+.k p p ; : p p p k k ] D Y E D D A.:XnXKXHX:XXX<XXX3.,.J.H 9 s e 8 $ @ 1.AXaX` Q k k p 7 6 p , g ~ g * Q :.~ , > a a k j s 7 m ' m 7 s k k m o.K.R.R.!.].W.W.!.W.W.+.;XKXjXr g.^.n.c.L.L.L.Y./././.f.Z r.H.Y.k.Y.j.c.m.n.n.c.m.c.L.^.^.g.g.7.9.y.7.7.g.g.f.9.g.g.q.q.t.L.j.9.9.9.7.4.i [.KXKXOXb 4.9.m.c.9.z.z.^.(.f.c.m.^.P.^.5.7.9.g.k.m.c.9.m.m.m.m.0.c.m.0.9.9.m.^.^.^.m.(.z.y O.:X'.; J G.b.Y.G.j.j.f.k.j.F.",
"B.k ,.MXo.H C t.r.w.C j.H.P H z x V.H.J n n J U N.N.| R d.U O.o.D x f s 6 4 7 7 $ X . |.KXGXk - f x r 9 x B x 9 z H I @.O.x I.o.x S } O.D.W.R I d.^ <.qX;X! ! ` _ _ Q D o.S.R.W.O.F D 1.XX7XuX:X.XJ.A.P z A *.9XHXDXDXSXcX<X1.:XcX6XrXnXmXsXeX:XeXrXrXeXeX;X;X*X1X'.=.R.R.R.R.E.D k 7XNX3XA 8 9 9 7 ; 7 9 9 4 9 r C.E @.} x K U J r.U I E Z.k.L.H.!.W.D.D.U r.V.J x U V c x c J B.B.U I H V L U H n j DXKXKX-Xx d.a.y f.Y.c./.}._.Y.t.a.7.w.Y.k.Y.Y.T.!.!.Y.Z a.k.k.f.f.k.k.k.k.Y.f.k.j.m.(.(.h.e G nXCX^ m P r.V.V.G.W.D.Z.D.W.",
"k , g <X&.m I A f p 6 9 ; 6 j s j f n k j u @ @ 6 u x U r.J r V L V x 9 e e I f - + & <XKXCXx x q.6.6.y 6.6.6.t y w.C c w.C 9 4 4 e J c z e w.d.Z 7 X.cX|.Q ~ ~ m ] *.+.W._.!.!.S.E o.D x x B C.Y.r.r.w.q.t.o.=.BXKXKXKXcX<X1.;X6X-X<XlXNXCXcX;XnXKXKXDXKXKXKXlXuX8XoX.X#X~.~.].E.*..X.X'.E.O.D.2XsXNXuX8X+XR !.I.+.o.' k p 7 7 6 6 & * h m I A u 7 p p j ..k j j k k F m m k p 6 6 ; @ @ ; ; * = @ . _ bXKX6X: $ $ - 7 d D x G *.+.I.I.C.o.E E E.E o.C.C.s.s.s.U.f.s.Z f.R s.K B x b Y._.@XT.Z 7 k BXKX3.a m A P P n 7 # . + s ",
"o * *XmX*Xk k ..X.N h a 2 Q < , ~ ~ g , , 2 < 2 _ h s O.B.V.t.U w.L C r t.B.H f f s , <XKXsXk z i.q.6.q.e.5.y.y.m.e.e.6.y y q 8 e z b z v w.Y.R b 9 D sXXX~ ..*.C.O.R.R.^.j.e.f.f.d.d.s.L J r.B.d.p.t.f.f.L.Y.D |.vXqXXX..k ] =.%.] ..D a h h a a N ^ ^ 1.iXsX=.K L R d.Z.V.H.H.d.R B.H x d.Y.!.%X1X6XZXeXOXfX$X.XE.~.*...*.'.k s *.3.3.>     p [.'.$.&.*.$.&.] ] ..] m p , 2 2 ,.1.XX=XoX%.,.3._ , . O >XbXiX1.:.%.3 > ) $.: g %.1.%.a k X.=.~ a d a f s f D 0 9 7 7 4 4 6 s A 7X.X9 9 Z Z 5 7 f %.vXKX,Xh h ; @ . . & ^ 1.N @ ",
":XeX6XaXiXyXlXnXlXcXCXKXKXKX6X|.;X;XiXGXDXKXKXKXKXDXrX>.k *.&.r.V.r.L H x z x m F u * dXKXDXk 6 J z z 8 8 b e.b j.t.j.G.Y.p.L C J x 9 8 s x O.+.S R o.7X.XE E.E.U.D.E.W.^.P.^.g.g.n.n.k.L.j.j.t.6.7.k.T.n.c.y.x :XKX:Xd S L V x n x 6 8 0 0 x x D R S.A ; ) 1.x a.7.b.F.L.^._._.^./.j.k.n./.^.a.B.a O 6X;Xd D._.+XfXfXgX8X8XoXR.J.&.:.BXdXo . R.MXjX2X#X].R.].oXoX].oX9X1XtXBXHXGXmXGXHXHXCXMXMXnXeX1X=XeXeXzXKXKXKXKXJXDXSXmXdXrXsXtXoXXX:X1X X:X9X3XtXoX9XCXzXgXgXhXzXhXgX2XjXKXKX8X.XE.Q.E.+.*.1.rX6XBXKXCXXX%.1.<XBXKXHXyXoX",
"*.~ >.bXyX X.XOX5X:X4XcXBXxXvXBXCXyXrXHXKXKXKXSXbXkX<X=X$.] ' J r.t.N.| ~ s k k u & 1.KXKXKX1.@ 6 + + @ $ 6 S I O.S.S.A.S.+.+.o.F 7 - @ @ @ @ , u f D zX2X+.~.E.!.!.!.E.Y.n.b.v.m.m.0.c.m.m.v.P.m.9.g.m.P.m.v.H oXKX3Xr c 6.7.e.t.t.t.j.Y.Y._.Y.Y._.Y.o.*.mX9XC 9.m.).(.(.m.m.^.^.(.P.@X@X@X/./.R ] qXKX<Xk C.C w.C a.s.U.s.x 6.q.J &.BXCXm r L J B.d.B.r.U V L U L R D N ^ NXKXsX3.*.*.*.+X.XR.*.R.{ m F I K.=.1._ &XAXAXaX<XXX$...%.>.=.*.X.X.'.OXoX$X{.].2X2X2X2X2XgXfXfX8X8X%X8X7X1XOX%X8X%XoXoXXX>.XXzXCXMXnXHXKXKXwX>. X{.",
"i s ..*.+.+.E Y D k ^ ^ ^ %.XXoX.X+.k X.*.^ =.=.^ h ..*.*.} F N.| P { j > < g ^ ..g ) qXxXSXqX* * ^ %.1.XX%.< ~ k d d a ; p a p ~ ^ ` ! h g W W g h XXnXeX%.'..X'.=.'.XXS.j.n.c.z.9.9.9.c.v.m.m.P.P.m.m.m.v.y.U 1.mX{.z t.b.y.q.q.t.j.j.w.b b w.7.a.j.U *.CX9Xb 5.9.m.).(.^.^.^.^.(.(.(.(.(.(./.B.d cXKXrX7 V.b b 6.a.k.n.f.j.5.9.b @.mX9X9 b a.j.e.w.t.t.e.j.a.p.p.Z Z 0 - / ` : ; 7 s 9 b 7.r V r.q.J J J r.s 6   * AXDX3.: s p p k A f S U R I S S B.| | P H R R x Z p.p.f.s.s.D.E.E D 9 U.E.D.!.E d k R.#X.XX.X.>.` ; p s s ",
"n n U x L L Z C q.r.n n j - F U e V L D..Xo.O.D.R G *.*.K.J.+.*.*.X.k ^ >X,X;X X..h ) 6XDXDXDXBXBXKXKXKXHXGX6XrXeXnXsXsX;XmXKXDXGXKXKXKXKXKXKXGXCXGXKX6X*X` ` / / < h 2 k x w.f.k.h.f.h.m.h.9.9.c.^.^.m.^.y.6.s :XKXsXx x q.r.F.t.q.F.F.t.V 4 w.Y.Y.H.S.%.mXjXe 6.b.^.}./.^._._.L./.(.^.m.b.c.k.C.k <XKXrX@ z ^.j.g.m.m.m.m.c.m./.b ' GXMXA C e.t.j.e.e.t.k.Y.w.w.p.p.C z A ^ |.A s x Z a.9.7.w.t.w.j.j.g.e.y.6.v X , KXKX:X0 T x S O.C.Z w.e.k.k.a.t.7.q.Y.F.q.q.t.7.a.7.7.f.f.7.w.6.w.w.V R Z b Z r r z 9 9 x f ..*.k J P n z ",
"q.u.q.q.j.7.g.9.y.j.u.t.P O.Y.t.5.6.n.k._.Y.t.t.a.B.N.J.W.W.W.+.1.:X:XeXrXrX1X1X9XzXyX-X,X*XqXGXKXNXiX|.>.6XrX:X;X1.XX:XrXiXmXGXDXDXKXKXKXKXKXMX9XsX7XsXcXkXiX;XwXcXkX3.o.m F R B b R Z d.Z.s.L V x z x H z $ p iXKXdXh k &.} @.R.J.J.J.J.@.z | A.P } k *XKXnXf d.Y.t.H.Y.Y.Y.!.H.Y._._._.}._.Y.D.s *XKXGXO + @.T R 5.5.5.9.9./.^.r. .mXsXu z t.V.t.6.b 6.w.L c r r V q.J k $.;XI r b 5.9.c.e.e.j.t.a.g.9.g.c.8.q.4 j SXKX X9 Y.k.J w.a.e.n.y.g.c.c.c.9.g.g.b.^.L.m.g.c.9.0.9.9.7.9.4.5.6.q.p.k.t.t.7.7.t.r.J J J R.8Xs e w 8 v ",
"F.b.y.9.9.5.9.c.m.y.q.q.x o.d.Y.G.y y 7.g.c.k.b.F.F.F.F.Y.H.d.B.X.=.*.+.*.*.....+.+.*.k ` ^ Q %.%.^ ^ ..^ X.^ < h a a a Q h g < g $.&XSXSX|.*.Y G E +.%.=XsXsXuX5XeXsX1X1X%X~.*.+.Y Y a u @ + ; ; * h ^ a : ..yXKXKXaX>.:.,.%.^ *.*.$.*.'.{.`.`.`.{.[.XXSXKXiXN A 6 $ $ + # $ 6 4 4 6 9 z x c C H s tXKXJXaX^ N =.'.}.(.^.k.g.m.b.r.*.MXjXf z q.B.6.y 6.4.y 6.e w z 9 z z i &.1XG 9 w.y.y.b.y.m.P.P.y.y.y.L.n.9.y.v m CXKX.Xy 5.4.4.4.8.9.P.P.v.9.9.0.c.9.9.9.^.m.c.c.9.9.7.7.9.7.9.9.4.6.V L w.t.d.B.B.V.V.V.Y.@.*.3Xj + 4 q.F.",
"W.J.F.b.y.e.j.b.b.t.b v 6 x H J q.6.y e.j.j.L.^.W.D.V.t.r.w.C y 7.p.s.V b V K r 9 9 9 6 - & & & 7 x R T.!.I.k p k k d d d ; ; ; ; p Q rX:XN I.K R Z.+XI.~ D  X7X=.Y +.K.R.o.+.oX1X7X7X9XtX<XrXmXBXDXKXKXHXiX[.6XbXwXqXvXKXKXKXKXHXCXnXsXtXtXtXjXMXKXKXKXiX,XdXXX+.p d a X + a *.[ k 7 ; - @ + + - # 1.>X6XKXnXXXXXoX$X+X+X_.+X}.r.6 h 6X:Xg ' P O.I I S x I J q.J P n m i $ ~ nX X; F J t.f.L r b b q.i.j.C L k.F.J X.CXCX*.V 7.6.6.6.b.L.F.)._./.f.k.k.j.j.j.e.b.L.j.j.e.6.e.j.e.n.^.j.q.z e 8 r B.W.Y.Y.Y.Z.Y.I 1.GX$.+ P !.W.",
"~ ..| r.J B.V.V.V.V.W.J.' #XhX{ z F.J J r.V.Z.t.V.B.t.6.C w.b e y c.^.n.c.c.^.a.b w.d.J n s p s x e y y e e x H I x x x S x z s p 6 ; %.N . % 8 b s.T.E.R.+.o.R.@.+.O.B.D.f.+.*.*.E. X'.{.eXvXKXKXKXKXKXNXrX{.'.X.k k ~ [.cXGXHXKXDXBXsX1.X.%.1.1.XX=X,.~ h ~ X.%.1.iXdX[.1.1.3X9X7XyXsX;X=XXX XOX XXX|.*XoX%.h @ X o X . . .   . * >.DXqX> , p : : a a ; : A } K.R.&.~ ' p > ;XqXQ * g s p f 7 7 7 6 6 6 $ f o.9 + k HXNX^ 6 9 S G f S +.S.} A o.Y D U | @.| P B.B.A.A.P P | B.B.D.V.V.W.A.D.B.A.@.O.B.f.d.d.Y.G XXKX3.@ &.{.' ",
"& o @ 6 s s s 7 s k ' *.$.3XMXk s n i i j d A o.+.O.L y b y y b e y.9.7.c.9.9.9.7.j.L.e.F.V.V.J C 6.6.5.4.6.6.b b e b c V L r e c x 7 ..*.9 w v y q.A.K.W.K.P | J.A.C.B.Z.Y.V.B.C.+.D.Z.w... X5X1XoX'.'.'.'.*.} o.o.o.R.*.~ : : < > < / X./ h h h a a p N ] *.XX1.>.1.<.3.1.*.X.X.X.:XtX*.*.'.'.*.*.+.k a a p g k %.|.;X3.:.:._ >.qXKXKXaX;XeXrX*X*X;X;XXX:.~ k k k ~ & * * > ) JXKXdXeX:X5XyXOX1.XX3._ %.oXsXeX%.p %.KXFXN - p < ; > * X > 2 < , g g p * * < , * , p , , u j j p a 7 6 u d G A D ~ s 7 4 7 0 x 7 =.DXDX;X_ ~ g ",
"SXrX;XrXiXiXsXsXsX:X1.3.sXKXsX< & * * 2 Q $.$.X.o.} o.I P z S P | L Y._.Y.f.f.m.c.j.j.a.a.6.w.7.7.7.f.g.a.7.y 6.7.7.y.7.7.6.7.6.y C E mXjXx n.L.6.b C.W.W.W.S.A.W.V.B.d.t.H.H.W.J.A.!.W.W.J.K x x x O.U B.B.H P x r V H x B.o.x x a ] =.=.E.+.X.E D Y E D D '.OX-XXXXX|.XX XR.+.I.+.OX:XX.[ *.+.G I.E.+.m R.'.3XjXMXcXrX;XqXiX6XkXvXbX6X>.rXCXHXKXKXKXKXKXKXVXnX3XoX:X3X:XrXcX6XBXvXmXCXCXlXuX:X:.qXSXSXKXKXKXKXCXMX6X6XNXsXoX:X<XGXKXiX:X*XqXrXSXKXpX>X,XqXqX*X|.;X,X6XcXdX<X[.:X<X:X:XXXX.^ X. XeXNXzXuX9X9X1XX.1.BXKXKXeX*XaX",
"rXDXKX6X|.;X6XiXkXcXBXcXKXKXZX:XXXnXKXHXHXKXzXOX7 ; , : a ; ; p f 9 I O.I U C.d.w.j.Y.f.d.L B.V.L t.s.b C Z w.f.f.j.e.7.Z Z f.f.Z.Z.~.GXnXS k.Y.w.J B.A.R.K.@.@.K.S.J.W.!.W.W.R.R.R.K.@.R.].@.b y w.b s e e b 6.y b y w e a.t.e.C O.OXQ.U.E.U.U.U.U.I.C.I.E '.OXXXXX;X|.:X'.o.I S.+.=.X.D  .} @.I S.W.W.+XW.E.~.~.+.N h k *.1.%.*...N d d d 0 D o.G +.+.+. X X=.=.*.*.'.'.1.^ ^ %.k a f k p 6 , o 3.xXqX[.%.` ` ` %.%./ / *.*.1.:XcXvX<X<XiXZXHXKXKXDXDXAXDXKXKXKXHXKXKXKXKXBXvXcXcXnXCXKXKXFXcXiX4XyXlXmXMXiXcXeXX.^ %.1.:X<X<X",
"< ;XKXwX! > ! / ;.` %.` >.1.>.1.1.1.XX9XOX'.*.R.oXtX:X<XeXqX*X%.N o.} S x 9 9 S A f f f s f p s f A f 9 s 7 9 d f S H } O.K H K d.K E.mXsXG R e e K f j ~ a a k k a p ; u j j j k ~ ~ k p ~ ~ $ 4 9 f 7 - 8 z 4.5.5.5.9.5.4.4.y.t.| X.X.=.I.I.U.I.E +.*.+.X.'.-XXXOX5X:XeXoXE.E.I.+.*.k X.*.| A.S.W.W.C.W.W.D.C.d.R R O.U x s x x x K R Z Z Z Z b y r x x T E U.E.E.S.S...+.] d S c c z e x x i , mXKXrXk 6 p : 7 6 - 6 7 9 s f d ; : k ] ..^ ' g 3 ;.qXiXcXsXeX X X-X1.%.h ^  X X1.%.%. XsXcX%.>.` a a g < * , p p ; : 7 d m k ",
"6 h rXrX^ a k d : ; d k 7 p s f A 7 6 5 r K R W.CXFXHXHXHXKXKXCXnXsXfX2X$X@X2X.X,.*.%.*.~ ~ '.{.[.[. X*.oX'.%.N ^ ] m ] D s A - + X ~ nXtXf 9 x 0 k ~ 2 _ |.*X3.=X[.<X=X:., Q h h ^ X.! 3 h >.'.k 6 a ~ p u g 9.y.G.^.^.m.n.7.6.{ % g ~ ..E I.R.I.+.*.*.] ~ %.<.>.1. X XXX*.D o.+.=.%.^ ~ &.*.R.R.R.K.} K.*.R.K.Y.C b y e.q.e e b 6.6.w.y.g.a.a.t.b.g.a.p.p.f.T.k.k.7.e.d.E K H 8 v c r.d.Z t.J a cXBX*.A.J w.d.D.B.v c p.w.6.b e x r r V e 9 8 - Q KXZX1.o.n c x I o.S S S S x x o.G S m N %.a a 7 - f [ [ [ m k k A x Z Z x k ",
"H D {.[.j n z 6 9 S U J x n x x L V J J C x x D 0 D x D E D +.'.=.*.Y.f.R Z.Y.W..X1XeX3X,.$.*X3X*X1.XX1XMXKXKXKXKXjX1XoX=.*.E.+.D 7 ]  X'.k 4 W.2X=X=X<XaXvXcX,XqXcXHXKXJXHXmXcXuX7X7XKXKXtXeXzXzX3X'.1.[.=X{.^._.}.}._.j.t.a.F.s &.mX=X< N X.k k ^ ~ g 2 2 ! ! h > < < h N a ; p g h 1.h g , ~ ] ~ ] ] $.'.*.9 r t t 6.q.q.j.e.y.5.4.b 5.6.L q.t.i.b.j.b L 7.9.7.c.9.9.6.Z C t 6.q.J F.t.a.y.J 7 yX3Xs w w 4.4.y v v 6.6.9.9.9.6.7.7.y 4.7.y 6.z *.CX=.- e t 5.g.e.5.y.5.e.6.t 6.7.j.b z A *.s F A.W.!.W.W.V.W.].R.W.H.k./._.W.",
"r.A [.[.j n z $ $ x L t.t.t.V b C w.6.C b v z z x b t r r r K D +.E.f.p.t.C V K x D h ~ Q ~ ^ %.^ 2 h ~ *.*XcXKXKX1...X.X...*.R.*.*.] g u s A G .X.X.XoX7XsXsXeXeX:X*XXX<XvXsXoX'.E.Q.8X8X'.] %.~.]..X2X.X@.Z.Y.B.9 4 $ 4 9 9 9 k >.mXKXKXKXtX;XsXsXrXiXiX,XwXwX<.:XNXlXsXyXXX3.XX3.*XDXmX<X,.%.%.^ a d ..9XoX6 4 t 6.q.q.v F.F.P.v.y.4.t 4.e.e.j.9.5.6.6.7.t 4.4.4.9.8.5.5.7.8.8.4.t 6.6.g.v.b 4 OXzXK.e j.9.b.4.4.4.4.4.8.4.4.8.4.8.z.8.m.(.4.w +.MX=.6 t.y.v.v.9.8.9.9.g.5.9.9.7.m.^.v W.CXR.A.$X+X}.W.V.H.W.+X+XZ.e.b.m.^.H.",
"z [ GXSXg 7 s s P J H J z z V J c c q.J H z i z { B.e.j.j.j.L.L.v.b.g.t.t.6.w.p.b D ] *.X.*.*.~ g u p f p X * rX;Xg m k m s m [ m o.m k k ' d.f.Z.B.U E E.~.~.~.E f 7 s ] iXMXE.!.@X}.Y.W.+XR.[ S.}.T.!.!.Y.Z.E.W.R..X1XoX].G ..7X|.` |.wXiXrXqXdXnXNXZXKXKXKXKXHXNXnX7XOX-XrXGXGXrX|.*XaXrXdXdXmXmX7X..=.zX'.A J v v q.V.W.*.s w w t 6.4.y y 6.F.7.e 4 4 q e 6.e.6.e.g.m.m.e.6.5.5.5.5.5.7.5.q.c OXjX..x q.4.q.j.y.4.4.4.5.y.v.v.v.9.y.8.9.9.q.z '.KXsXR.W.j.g.9.m.m.m.m./.^.k.j.9.g.^.t.!.hX].K.`.H.J.J.W.B.B.T.f.k.^.P.F.F.t.",
"4 ~ KXKX_ h j k J.m n N.J n z P | | | z i  .].`.R.J t.L.^.^.^.m.v.m.n.n.L.j.k.w.J [ [ @.@.K.I.o.} o.| c f ; < XXk s | U W.| I @.F } S.Y.k.k.n.Y.Y.Y.f.L x r Z R s.R C.R f sXuXx 6.4.t t c q.N.K.P I w.R Z.R s.K C.S.].R.} +.S.O.E Y ] ..d D ..X.X.E E B E =. XZXCX*.D D I.E +.~.E.*.' , ~ ] ..X.%.=.< . >.NX%.@ - + 6 u * * O o + f o.x S U x H H x S I S c n U B.| B.B.U L B.C.J d.L r b R J J d <.:XN ; s J P H H V z U r.r.F.q.t.w.q.6.r.{ n u rXKX3X .N.F.q.j.F.b.j.j.Y.F.t.V.t.j.F.W.O.] h ~ *.`.`.J.].$X#X_.V e b q.J N.{ ",
". , aX6XO . O * p g j i ; u u ; u ; ; * & 2 ~ g ^ m H Y.m.^.^.L.k.k.Y.L.Y.j.e.J J J U B.B.D.B.R O.A.A.j.N.7 h :XX.6 z c U U B.A.B.D.).^.^.^.m.m.T.f.L Z.r.J z e t c N.| 6 <.8Xx t 5.i.q.J U I.K. .H e.k.Y.T.T.T._._.}.W.D.Y.Y.f.w.L C.D.C.Z.Z.Z.R R R b C e d eX9XD d.T.D.C.C.T.C.o.O.I F 7 0 +.o.f 3 ( qX6X>.%. X` %._ ) &X>X>Xg * & o & : 7 p ; * , < & * ; @ X . . . . . . X + @ @ @ ; $ 6 $ o ` NXNX..* @ o @ - ; + o @ X @ @ + X + + + X . 1 KXKX3.@ ; z H U J U | U P J P | J J J s ; ^ 3 < h , g j ~ j k k p 6 - - $ + @ ",
"<X,XvXxX,XrX<X=X3.,.,.3.[.*X<X:.$.,.1.:.>.) &X*X3.~ 7 B.F.F.F.F.L.H.D.Y.H.D.L J t.u.i.q.J N.J n { N.J q.z $ ~ BX*X; 7 9 | B.V.t.r.D.Y.Y.9.c.L.n./.k.7.V.Y.Y.Z.w.y.L.W.W.A *XCXO.v i.t.r.Z.C.E @.F H e.m.^././.@X_././._._.(./.m.g.y.g.a.7.j.e.t.j.k.g.y.y.C D uX8XR 7.k.Y.Z.Y.!.Z.s.s.s.s.R I W.2XVXKXKXdX3 _ KXKXKXCXDXKXKXKXKXKXcXrX6XeXsXlXlXlXKXDXcXdXdX<X:X:X[.>._ _ ! Q $.*X:X*X*X:X:X{.=XrXGXDXKXKXKXHXGXBXrX6X6X;X|.*X=X;X3._ $.^ ^ -.3.) pXbXiX,.*.j a 7 u p ; & k ~ ; a ] 7 ; ; *XKXKX;X;X*X:._ 2 * * O @ . . & h _ 3.",
"KXKXKXZXiXKXKXKXKXKXKXKXHXBXDXKXKXKXKXKXKXKXKXKXKXeXQ [ S A.A.W.W.} f d O.J.z n J J J J z f A z A F n n i @ %.KX*Xo p j ' ' F m F I R D.f.Y.Y.F.L.^._.D.D.!.+XW.L.L.V.W.@.<XeX' 8 n H C.S.o.E R.[ [ H Y.n.n.0.m.^./.^.c.m.P.P.m.P.m.m.m.c.b.y.y.y.m.v.b.i.q.x 7XgX!.j.b.Y.F.Y._.T././.T.f.a.d.V.R C.'.:.Q = , *.*X*X3.1.>.3.<XiX7X:XzXVX7XOX-X|.:XsXyXnXKXCXBXHXHXGXBXmXdXcXDXGXBXmXGXCXcXtX=X%.1.;X4X;X<XcXSXDXKXKXJXvXSXKXKXKXKXKXKXKXKXKXKXKXHXZXbXSXKXBXnXCXMXBXBXnXHXHXcXcXHXKXMXsXiX;XaXvXcXcXZXKXDXJXvX6XwXaX6XrXCXnXHXKX",
"6XiX:X%.^ ,.=X:XyXcXcX<X:XiXlXBXvXlXKXHXbXHXKXHXKXcX> < a 7 6 $ @ X o o @ * , u ; ; u p p k k ..] N D u .   &XKXSX) 3 , o . o o & ; - - - - ; $ $ - 6 s p f D D B.O.G F p &X,X.   * - ; ; * : Q < > p m B.t.7.p.t.!.Y.k.f.m.^.m.F.5.4.y.g.L./.}.^.L.j.P.j.t.f yXzXW.b u.V.V.H.W._.Y.7.t.Y.Y.Y.t.U V x j ' { { m k p 7 7 7 7 7 7 7 f o.E k k ^ a & a N d / ] ^ %.%.%.$._ :.cXaX[.%.^ ^ ^ g ~ ~ g , Q / / > , ~ ^ |.cXSXbX;X|.|.;X*X;XrXmXcXcXiX6X0XyX0X4X4X:XXX;XsXvX<XiXHXZXcXlXiXBXcX:XeX6XyXNXKXHXKXKXKXKXvXwXBXKXKXKXHXCXBXkX",
": a f 7 s 9 p - 7 N D d p k a : : : k N p < k XXBXvX6XXX^ & & & ! 6XBXeX^ h :.,.$.:.:.1.%.=.X.X.*...p : ~ ,.iXDXKXKXJXDXdXaXaXdXcXBX<X` >.>.) ! _ ~ ~ Q ^ / ^ ^ ] g * & o ;.KXvXdX<X>.>.|.|.;.>.|.3.k a [ G x x f s f E C.C.Z.B.} | O.C.W.!.!.!.Y.C.s.Z.V.K X.vXnX'.R.J.D.D.J.V.B.D.W.B.D.J.C.V.W.Y.B.N.J v J N.V.N.P c c z z z c U d.V.I } } f 6 9 0 0 x 0 f A m A A j ^ nXeX] s 7 f A f j a ~ p k ..k k ..~ < * 3 6X<.! ! ^ k h h < h 3 h h h < : : a ..~ N %.1.^ h h h N / h h ^ %.X./ ^ =.=.X.../ ^ ^ ! ^ _ >.wXBX1.a d a : ",
"x C t.V.V.H.H.d.R Z c J B.O.x O.O.B.U S c A F XXXX:XKXKXFXtXdXKXKXKXbXtX9XkXBXBXcXdXsXzXuXuXgXuX%X.XOX2XjXzXtX|.6X6XrXmXHXKXKXKXDXKXKXDXSXAXJXJXKXKXKXKXKXDXvXiX=X<XeX;X*X>X6XvXdXmXvXvXSXKXwX,XdXDXnX:XrX: p : @ X X # # + X ; < p p ; # X .   . X X # $ : yXKXyXh * ; 6 6 a 6 6 A k s j 7 7 7 s k ] F w.C b q.i.F.F.t.t.q.N.N.q.q.r.t.q.r.q.N.t.t.c e c r.r.r.r.q.r.| X.sX.XA J J r.r.r.} A A f z n n s z x k ; %.CX%.: N N d d k a p a k o.*.%.D m T C.J.F k k d X.D a 6 @ d *.R.E.*.+.E E O.D f D R.+.[ [ u ; *XtXo.H r.J x ",
"t.b.j.H.L.F.e.Y.Y.7.w.F.L._._.Z.V t.t.d.V R W..XX...'.7XuX7X6XvXBX1.h k X. XXXXX X=.R.E.R.K.K.!.R.K.R.C.C.W.E.+.X...A ..*.'.>.-X;X<XaXdXvXDXJXKXKXDXqXqX*X|.>.3.:XsXdX:X%.1.1.=.%.*X;X[.*X;X:X*X[.;XOXoX=X*XOX7XuXsXsXjX7XtXcXiXqX;XeXeX7XeX:X%.^ ^ =.'.X.<.iXcXlXeX:X[.*.%.^ %..... X1.1.>.1.>.3.` _ _ J b y y v i.t.t.u.t.N.N.u.).F.F.u.j.j.u.j.q.5.w w 5.y 4.4.6.q.| +.uX'.z b q.t.r.t.@.K.@.A.V.J J P | J s ; ; 1.1.X.*.*.[ m k X...D ] [ [ *.E.} L B.V.I F P K.@.k G W.S.S.S.O.B.S.I.E D.B.U R S.W.W.W.A.N.'.MX1XP t.j.q.t.",
"V.Y.Y.L.Y.Y.Y.s.s.Z t.j.Y.f.Z.Z.Z.H.t.e e C Z Z 9 9 x O.I.G h h a u p A n f A G +.R L x H H n z x H H b C w.p.R I U D.W.D.R 7 7 p ; ; , @ & 6XKXcX~ g k h ~ ^ *.] k p 7 N A A A k s 6 A f f A [ F o.A f ..'.=.OX7X7X9X9XOXeXBXKXKXrXyXVXVXGXmXdXdXdXVXnXeX6X6XOX X5XeX:X6XrX6X:XXXyXHXFXNXvXaXcXJXmX3.*.t.b b c J J q.r.q.t.t.t.b.F.H.).L.F.i.t.i.6.4.v 6.i.6.6.y 6.q.p ~ :X+.z C q.J H B.X.o.} { N.x H | J.' z 7 $.qX&X^ %.*.X.A [ *.o.X.X.D +.=.=.o.| B.S.S.J.W.].*.*.*.S.D.I.D.C.D.I.+.+.E.S.A.O.W.J.V.W.R.K.*.cXjXW.J F.r.U ",
"J.!.W.C.B.D.C.I S.D.Z.V.V.Z.D.D.Y.^.j.q.q.y.e.b b C V e e z } %XS.v q.n v v r.r.C t.t.j.e.e.F.N.J N.B.w.w.6.b 7.p.t.V.t.e.r.r c z e c c x 8 ..8XW.z | I R I R O.E..XU.C.@X}.Y.F.V.V.Y.F.6.t.t.H.).t.r.Z.D.I.+.E.E.I.E o.I ..X.HXKX1.D E I.'.*.$.,.oX.X'.E.E.E.U.+.+.C.E.*.*.'.=.+.E Y =.E.+.X.^ / ^ 3 ( H.U S D I } F 9 x S S x r n P P H I { N.B.U B.A.N.N.q.t.V.V.N.'  X6XX.o.@.P I @.} *.'.[ p n S I } ' ' A s =XKX>X%.X.^ *.~ k ..X.$.&...*.'.X.*.*.R.R.E.o.R.*.*.=.E.!.W.W.+X!.S.S.+.+.*.A.K.A.K.O.@.'.'.o.~ rX1XG U V.A.| ",
"%X8XoX].E.*.*.E.R.@.| @.} | J.A.n.n.j.b.i.P.F.L d.r.V.r.V.D.[ 1X&.$ 4 4 v i.j.j.9.c.9.y.g.c.y.j.V.N.B.Z.Y.Y.7.6.a.L.F.t.j.t.C y b 6.e.q.J z 9 R U q.i.F.Y.H.C.R A.}.$X@X$X$X}.).F.F.^.^.F.b q.Y.H.r.t.Y.W.D.C.U J t.n.k.L.j.0 XXKX'.r 7.7.7.f.Z.U O.C.!.!.f.f.f.a.k.L.Y.Z.f.d.d.d.Z b b b p.E f 7 7 s d a 7 : : ; @ ; 7 - ; : - # ; p : ; ; ; 6 6 p ~ k j j s n k u u * ;XZX>.g ~ p & ; p k ~ D ..G +.E o.' ' ' p 1.KXxX/ ! ^ h ^ ' ' *.`.,.1.=.=.1.*.1.*.^ ..^ X.=.1. X X$X#X$X].].'.R.*.*.*.[ `.].`.o.....h * *XDX|.a *.[ o.R.",
"1.=.X.*.1. X1.=.*.,.$.$.] X.*.R./.^.L.n.^.L.g.B.C.B.H.V.H.V.] tX[.+ 4 A.}.).W.F.c.9.5.5.y.g.j.q.J z 0 I C L.e.y 6.j.j.n.Y.Y.t.C 6.q.q.e.q.b 9 D.W.q.i.6.L.}.!.R N.q.V.Y.Y.).).).L.F.^.).).Y.Y.^.^.).F.L.L.t.p.c v y.c.m.v.b.r E FX$X7.(.m.m.g.w.e 4 e w.L.j.g.a.g.b.b.m.n.g.g.a.k.^.n.j.y.F.L._.].W.t.~. X XOX:XOX>. X X7XuXOX=.^ %.,.%.=.%.^ ^ 1. X%...X...&.&.k g j *XKXKXqX~ _ ` ` ! < . & 7 p p d 7 d a a p ; Q HXJX<.> < Q $.' ] ..*.'...%.%...%.%.%.[.XX%.! h / %.^ 6 ; a g g ~ $.%.~ g p ' &.$.~ ^ < 3 |.KXKXkXQ h X.] ..",
":X1X9XXXXX7X:XeXtXGXZXcXvXNXeXW.T.Z.Z.Z.Z.t.d.W.W.Y.Y.t.Y.d...CXsX* n `.K.} J.N.L.j.t.Y.Y.G.F.N.J s k ].U J t.q.b t.q.F.W.W.F.t.t.e.t.q.b c x U.D.d.u.t.e.Y.Z.R r.U t.f.w.F.H.W.W._.L.t.Y.}.!.Y.^._.L.j.n.n.Y.L.).^.9.y.v.v.q.R.8XY.g.0.m.m.m._.@XfX@X^.^.m.b.L.b.v.b.P.m.c.^./.m.^.g.b.y.y.j.F._.).^._. X X1X1X1X1X8X9X9X7X8X7X7X3X1X3XtXdXvXmXnXVXzXuX9XfX8X8X9XzXjX=XkXBXcXsXdXDXKXKXsX1XsXzX1X.X=.] *.*.'.`.'.:XBXBXsXzXVXCX:XXXlXuXuXsXoXoXOXoX1XXXrXHXCXCXFXyX:XsX7X,.%.[.iXSXGXGXKXKXCXMXsX3XnXCXKXKXKXBXiXZXKXKXsXCXMXzX",
"*. XoXoX X=.=.%.XXXX>XJXKXKXnX'.O.D +.E.E.!.G s s 9 x x s.R X.nXvX2 p [.$., , p s z A P n H I R.].`.[.GX{.i N.P z { | A.W.W.V.N.U J r.V x I D '.f s H r.H R E I.W.C.R C.T.W.S.O.S.!._.B.!.+X.XY.L.L.L._.}.}.@X@X}.).k.V.q.v 6 +.uXI.t.k.k.V.N.V.}.fX$XL.Y.F.L.L.e.e.e.b.b.n.^.T./.^.Y.k.j.^.j.d.!.+X}.Y.o.x 6 6 F o.R.G s 7 A G G c 6 f ~ &XcXqX%.+.W.C.C.Y.C.R E E.o.^ *.1.XXXX*XaXDXGXsXOXX. X8X8X2X.XoXOX2X].*.X.X.a : ..1XMXuX7XlXBXNXuX1X%XoX1X9XXX[.XX1.*XzXCXVXCXnXnXnXvXDXSXiX%.:XNX7XOX:XOXsXnX7XeXeX>._ ^ =.%...*.'.'.",
"+.I.G f f D a - : : O &XiXXX*.I.O.] X.+.X.=.=. X'...D Y Y 7 a kXKXKXrX~ _ 3.( 1 h %.*.*.......k ~ $.*XmX^ ; ; + + , ' ' [ } s 7 6 - $ ; a h a <XXX. X ; @ X X : a p ; : a k a @ @ @ ; ; ; : h k s c H k A m F ..j p s g ~ ~ ^ <XnXX.G E f u @ & # ; H B.C.Y.Y.K R x !.!.{ R.]..X~.!.D.T.!.Y.Z.I.~..X!.!.B.V n x | U B.x J H U c C t.Y.F.A |.KXtXG U L w.7.a.k.p.s.L x x S R I 0 S $.W Q ^ [ k f d d k f f G A S S I D 6 $ 7 - p A D 7 - - G E.R.o.+.'.X.d 7 ; 7 k D N D k ^ ^ 6XDX>X< : - 7 7 - : f D D f p 7 a 7 s f A A A [ } ",
"B.B.R C.R B T x s 7 : 1.:Xf e C d.!.:X1X1X1X:XNXFXHXHXCXCXsX XXXcXnXiXrXrXGXKXDXbXcXdXBXHXHXcXcX6XBXKXKXXXh %.XX:X[.~ ~ X.*.OX1X7X3X:X*X*X3.` vXKXcX<X=X:X[.>.|.eXeXcXnXiXiX,X,XeX<XqXrXiXiX6X|.=X*.^ h * o O o 2 %.>.;XkXbXDXAXdX3.g ..1.2.:.:.%.^ ..*.E.+.E '.~.E oX=.< a k k D D N Y X.E E.+.=.=...k X.o.F J c J r b b r c b 7.f./.).x XXKXeXx J z J w.a.g.6.6.b w.n.k.y.g.f.a.A.,.3...A S I S s c f s s 9 z z x H x x x H U K r.Y.Z.L d.S x x x I o.I S x s 8 4 s 9 $ .   :.KXKX] ; S c V r x Z x 8 e J U O.D.V d.K 9 S P U ",
"z v f.Z V Z Z C v z 7 {.jXx w 4.4.w.I.*.*.*.*.=. X[.*X%.%. X/ * < a X.1.,.%.;XKXxX) ! ` >.|.;XyX6XiXBXcX<X:XtXCXKXKXKXCXKXCXnXKXKXKXKXKXKXcXaX>X,XdXrXdXKXHXmXmXGXKXKXGX6XxXSXmXdXSXDXmXGXKXDXSXHXCX<X<X<X*X<XpXDXKXKXKXHXSXxX,XiXtXXXtXKXKXKXKXKXmX'.+.*.'.2XCXVX X'.sXwXrX*X..X.X.*.1.'.=.'.<.<.OX1XoX'.*.k z e 8 e e w.w.Z.Y.c.9.0.^.e 1.KX7X4 b J r.t.j.y.v.y.b.b.9.9.9.9.9.q z =XtX' n H H K c H n U H H J C b e e z c V c L 6.q.e.j.6.z e e e 9 V L V V e z z K x 7 % & =XKXGXP z q.5.4.4.6.6.e.4.e.e.C c b C 8 # 4 9 c J ",
"z C Y.Z.Z Z e w v z s 9XnXA v 4.9.9.w.x x x 9 9 d p , , , & p 7 7 s 9 s 7 ; h sXSX3.> h N ! < a h a h h k ..N p k =. XoX'...k *.'.X.$.$.1.%.^ h < ^ ] g ..$.$.*.*.*.$.h < :XZX` %. X,._ %.1.:.:.*X1.%.:.1.3.>.*XSXSX6XOX1.XXX./ %.1.'.[.XXXX:X1.1.*.$.^ ] ' *.,.$.*.>.cXKXKXnX'.R.1. X{.:XoXOXOX-X:X:XOXoX%X.XR.A.r.q.w.j.L.t.k.9.9.9.8.v $.dX1.s t.t.r.e.e.5.8.4.8.8.e.t.y.y.q.i.H 8XjX' x x H L J B.B.B.B.O.U K x x 9 s z U x x x c J 7.4.7.f.Y.f.7.p.p.p.Z r t.V.H f A j * *XKXcXk s J q.6.q.t.e.y.e.L.e.e.e.6.y t e b b r z ",
"s x K +.I x c z z k , iXvXk z q.6.6.q.6.6.6.6.r.R S.W.K.A.@.o.} V.w.Y.t.d.I s 1.3X$.k f f 7 7 A } f f f f S x 9 z H K x f x } S n z H A f A N.A.S A n 9 6 8 z z J U S s a '.'...O.x m m ..X...k ] ~ g < : a ~ ^ *X<.: - 5 d 7 - p s s a d a p 7 s m ' &. .{ &.' ' ] ~ %.bXkX=.+.o.o.o.*.*.*.E.*.=.=.k o.o.Y E +.F.H.A.D.B.d.R R Z C C q.n 3.BX*X~ @.o.I P A.r.J J r.V.U U B.r.V.q.m  XoX[ G I O.U H I B.x o.S.S.I I x S P F | n n A { P w.Y.}.}._.Y.k.p.Y.d.L L x p f F A , * cXKXKX*.6 P 8 s 6 - e q.b t.Y.Y.L.Y.Z.d.U U x 9 p ",
"o X X * & * & . o . ) KXKX1.; z n S J P P H n o.@.J.W.H._.}.+XW.V.j.m.^.^.B.G E.{.' p z 8 $ z H r.C U c z J q.C C C J J H x z z z C C L V B.J J r.c z r c r.q.v e b c x o.~.E R D.W.!.E.I.+.E o.} o.[ D [ m j ^ 5X.Xo.J J H x z s p 6 z S x z P J { { | { { J.@.| [ a / |.=.0 d.Y.C.C.C.s.Z.Z.B.R E C.w.r.w.t.H.e.S ] d a 7 : # X @ ; % X >.KXvXh & g h , * g p p p ~ k 7 s 7 6 6 ;  X5Xp ; ; p a j f f f k [ } } R.@.O.A.A.A.} { m m ' I L C.Z.V.V.H.W.W.J.V.A.~ g k ~ a , 1.SXJXKX*Xo + + X @ - 6 f G } I G } D Y G m m 6 - @ ",
">.1.3.&X&X<X<X,._ ) xXAXJXbX*X~ & & % & @ @ & : ~ ] *.N.L Z.T.Y.n.v.v.F.j.t.S XXdX$.j z e $ x L d.w.q.J C c C 6.q.J z 8 9 z n z z x n P P c f z n S x U U D.D.B.r r c A ..3X*.@ 7 o.S.R.I.I.C.K.K.A.A.} &.R.k a 3X#XP b J J c z z n z P P J J t.t.{ N.N.N.N.N.{ | | $.>.NX1XE f./.T.T.^.Y.^.Y.t.Z.Z.f.k.a.k.Y.Y.N.^ ..X.` / <.1.1.Q o , _ iXDXAX6X;XqXaX,X:._ ,.:.rXvX>.< h ~ *.'. XcXNX%.* * h 2 2 * & p * , , & ; ; 6 p p k k p p & & @ X $ - 6 z @.} F k s s 3 2 h ^ ] < h ;XbXDXvX) ^ XX:XrXsX:XQ ^ ] ....N : k ..~ :.3.;X*X",
"KXKXKXKXKXKXKXKXCXmXaXpXpXbXiXcXmXmXmXvXaXcXGXDXnX3X:X#X+X+XZ.L F.^.j.F.F.J s nXKX{.p s p | | z J c z z J U J r.J z z P P J.!.].].`.| | A.A.o.m s A.+.P P m A.| K z z u : rX<Xp & + n F K.O.O.E O.O.U A.&.&.' g XX1Xm q.J J J N.N.N.{ J.| | O.B.N.J J N.| J J @.| ' ~ %.NX XD s.Y.m.m.m.9.9.7.e.7.Z p.p.t.Y.f.n._.eXuXNXFXNXNXMXmXmXCXnXeXBXBXkXsXCXSXGXKXKXKXGXHXHXKXZXlXCXCXCXCXCXBXsXsXcXmXHXcX,X3.*X[.XX=XeXeX:X:XXX'.*. X1XoXoX1.,.,. X3X7XXX~ a k ~ g j $.,XrXsX:X1.=.|.6XAXvXmXDXHXKXKXHXmXHXsXsXyXcXnXMXsXGXKXKXKXKXKXKX",
"KXKXmXnXBXeX'.oX X=.%.1.<.` < 1.sXGXKXKXKXKXKXKXmX X XoX].].} s 9 z w i i % o qXJX) O < , ' ' k { n n i p n m m k 6 j '.,.&.{.{.{.{.`.*.`.{.1X{.' | R.&...k ' A s s i , _ xX&X:.%.$.' ' &...&.R.+.I.R. .' ..g %.sX{.' V.J.J.A.N.N.' ' &.&.] ' ..*.R.S.E.!.E.R.*.&.p & Q dX|.- A K 6.e.g.e.j._._.R C.+X].W.R R H.!.E.E.'.E.'.'.=.*.'..XR.x k ^ ^ m ..*.XXoX:X9X1X1X:X:XyX4X-X:X1.X.X.X.%.>.*X<XdXaX,XdXKXmXsXtXiXiX-X4X4XtXXXXXXXXXsXmXdX3XOX7X7XtXsXnXuX7XtX1X3XrX<XXXoX1XuXeX|.;X|.=XcXBXyX:X%.^ 1.;X3.1.%.>.|.;X;X<XrXaXvXDXKX",
"xX%.X.] d - 0 !.C.!.E x D N a k ~ ~ ^ ;XDXbX>.2 a 7 a k a : & @ X + @ @ & , 3 >XxX) > 2 2 2 g g g u g ~ g , , * * & * 2 2 1 2 O O * , < , * Q ~ u p k ^ ~ h , , < g * & *XJX>X&X*X=X{.,.~ g g - * : a ~ * . o |.BXsXk p p d k k m ] ^ h , h > < g h k k k k k k ~ , > *XKXaXo & @ # - 9 S O.#XuX]...E.oX X'.Z.D.D.C.R x s x x z S x r V Z H N.| B.D.D.R I K x x D E +.=.X.N X...d : ; p a ; : , g g _ rXXXa p h a h : / =.1.X.%...eXeX,.'.+.] N D =. XD ] Y X.D ~ [ G F D D Y a h Q , h N k N +.*.*.N > p a a < h < , * , ^ ) aX",
";Xd E V K Z p.f.L s.f.p.p.B.B.R V 9 p %.BXiXh s k A } S : k _ Q 2 %.XX;XdXDXJXJXZXaXDXKXJXGXcXcXmXmXdXmXdXrXcXDXBXBXvXaXDXSXvXqXvXvXiX6X;X*X;X,X<XeXrX6XkXcXrXvXBXiX<X*XbXKXJXvX<X_ _ ( _ [.;X:XiX;X1.%.>.|.6X|.>XcXdX=.    : X. X1.>.|.qXaXaXvXrX3.^ Q > > < ` >.1.rXKXKXDXcXrX%.^ ^ > ; h ,.%.h ^ h 2 h ! *.!.W.Y.C.d.L w.7.C C L a.a.g.L.L.N.V.V.e.w.t.w.L s.s.+X+XE.'.+.E +.O.H I } n D D A k + 2 nXoX+.G k ..X.E.Y G G o.%X+.XX*.o f s.Z.Z.C.f.s.s.s.R Z.p.w.C w.V 9 9 9 s 6 ; ; ; 7 x U Z.Y.R x s m k k f k 6 6 7 ; 7 h :X",
"h X + 8 v 6.e.6.C C b 7.e.F.j.w.g.5.t.I 1.3Xp H U H J V.%XdXKXKXZXKXKXKXKXKXKXHXcX:XsXKXKXKXKXKXKXGXvXBXKXKXKXKXKXKXKXKXKXKXKXDXSXKXKXKXbXxXKXKXKXKXKXKXKXHXKXKXKXKXKXDXvXSXKXKXrX3.rXdXnXMXmXKXKXHXBXeX<XcXwX<.` <XKXsXa > 1. XXXwXbXHXGXCXHXKXCXrX1X:XtXMXVXzXVXVXsX<X:.:.dXHXCXMXlXtX1X3XnXsXMXKXKXHXCXnX1X_.Y.Z.V.e.6.6.6.e.V.t.j.n.g.7.b.F.F.t.e.j.F.t.d.C.R R C.I.!.D.C.Z.Z.H.V.J J p.C d.| f ^ jX%XI.E.!.+XW.!.s.H z H z 8 %. X7 $ y c.^.^.v.c.0.9.9.m.^.9.c.^.j.6.j.j.L J z A f x e t y q e V H I x x x H H x s z 8 ; k ",
"oXx t 6.6.q.q.q.J 4 8 b t.P.F.e.5.8.8.8 oXnX' - s z z ).oXiXAXKXvX:XoXXX>.! ` 1.k p 6 a 7 / <. X=.^ 1.XX|. X%.XXeXXX|.iX:X:XiX5X1.=.-X<X;XwXwXiXsXOX%.:X5XXX*X:X:XeXeX5XXX: ^ *.`.{.:X:X1X1X'.XX1.1.:X{...< : < ^ ~ ^ X.X.^ ^ h < |.bXeXR.R.+.R.I o.o.o.+.R.K.E.S.O.+.Y k A k E.E.E.E.E.E.R.*.E.oXXXoXoX.X'.!.W.Y.L.L.y.4.5.e.e.7.y.y.v.y.5.i.F.F.j.j.t.q.r.Z.!.T.Z R d.T._.Y.B.D.Y.t.q.J t.Z Z.S.W.+.oX'.D W.H.F.J c C r.J J r.x 1.sX'.e y 4.9.m.m.9.q q 4.z.P.m.z.9.9.9.j.L.e.F.F.V.L Z 7.5.9.5.7.6.b y t b y C 6.b e y V x =.",
"MXx Y.^.w.c r.c 8 % 4 8 8 t q.j.t.F.i.6 :XKX:.% j n J r.k , ` cXXXs z 9 9 7 9 x n x H U x 7 0 0 f s d 7 6 7 7 9 9 7 ; 7 d 7 p D Y G f a < 1.OX: - 6 6 ; A f s s d o.E E O.A.I A.!.].].+X.X!.!.!.+XW.B.N.@.X...D  ...j k ~ a p , 2 :XKX%XU 7.7.g.g.e.V.Y.Z.V.t.w.F.q.V.B.f.t.p.k.p.Y.Y.Y.L.Y.R K c B c K E U.+X+X/.Y.Y.L.k.Y._.t.e.k.j.F.L.V.V.F.t.W.B.x H P o.I.D.T.S.o.I.I.} G @.W.+.o.O.R D.W.~.R.] '.X.o.{ I | | | N.K.W.o.'.*.2.HXCX~.f.y.6.6.7.7.8.4.8.8.8.9.9.m.P.c.k.j.e.a.6.w.w.6.7.f.a.a.7.y 6.7.9.y.7.7.C a.e.6.7.C.CX",
"jXo.d.k.w.U U x } @.K.n s z z U B.J e - -XKXrXu ' F P r.@.' ;XjX*.J u.t.w.V t.F.H.W.W.k.L.Y.k.C t.H._.W.Y.d.t.Y.F.t.J r.V V L V.V b z x s '.oX6 s x x J J N.J J r 8 8 e y q.w.C H U J q.e.6.6.6.e.j.j.y.V.K.+.o.o.*.&.*.X...~ ; , tXKX%X7.9.9.g.g.9.6.6.6.g.b.6.e.e.r.r.e.e.g.g.c.F.F.j.j.j.L.L.F.t.a.f.k.Y.Y.f.Y.n.n.^.Y.T.r.m 7 6 ; + & 7 f 9 A o.E +.k k X.X.%.X...N N %.1.%.%.%.~ Q ^ +.+.o...a 2 qX6X* & , * & & p h g > h 3 ) JXaXa Z._.Z.L L x z b L 7.6.t.a.w.p.d.D.D.d.U L O.B.K d.d.r x V L s.Z.Z.t.w.L L f.Y.Y.Y..XMX",
"nX[ I e 9 x 9 9 : 6 k ..X.s # 6 6 $   > KXKXvXg ~ ~ d q.J.R.sXCXR.U j.t.r.V.j.F.L.Y.F.t.f.Z.R w.Y.j.L.Y.Y.L p.t.t.Y.t.t.Y.Y.e.w.w.g.t.D.n oX8XA z v v b i.F.e.b 6.t v q.u.r.r.r.V L q.q.t.t.t.j.q.q.q.j.V.K.R.K.`.].K.R.R.o.[ k * *XKX+X7.m.g.y.c.9.a.L.^.^.m.k.w.F.H.r.w.e.g.n.n.y.j.b.^.k.b.m.^.F.m.^.j.w.e.e.a.j.n.^.L.D.*.^ Q _ 3.:.) 1XOX....h d N N ! ! >.>.Q ^ >.! 3 _ ) ! 2 2 Q _ X.: * o . > xXJX,X3.3.|.3.) %.` ) &X` >.kXKXZX/ # p s p k d A k p 7 ; 7 s 6 - $ $ 7 s 7 s p j k m A s s 6 6 7 7 f z F o.D x x x s +.MX",
"tXm 4 V I o.R.+.[.>.1.1.%._ ^ X.^  X[.iXSXwXiX$.%.XX*.K.`.m 1.nX].I V.V.U N.W.!.H.V.Y.T.d.B.C.d.t.Y.t.V.Z.Z.W.Y.Z.Y.Y.Y.)._.W._.L.n.Y.W.!.E.uX[ s v q.u.u.t.q.6.e b i.t.i.t.V.V.U U N.q.q.q.t.W.N.r.r.V.o.X.[ ' m  .@.J.,.R.*.&.< *XBX*.K t.j.e.q.e.e.F.F.t.q.a.T.Y.w.r.d.f.k.Y.^._._./._./.j.F.k.e.t.F.t.r.V.V.a.k.Y.F.F.W.sXmXtXeXKXKXKXsXeXsXdXsXzXlXlXnXnXHXKXKXKXKXKXCXnXnXnXcXmXCXHXlX:X*XeXrX6XvXKXKXKXKXKXKXHXcXsXBXKXkX|.4XwXcXlX.XoXOX7XCXKXCX3X*X:X[.1.*.N ..*.1. XoX*.^ =X3X=X=XoX.XuX3X:X X1.'.*.+...d ..7 $ X a tX",
"*.k 6 C.+XVXVXjXcXsXrXtXrXiXnX:X*.1.=X[.h * :XsX:X9XuXoX%...iXnX..o.@.K.K.R.+X.X!.K.R.I.o.S.K.D.B.N.B.D.A.B.B.D.D.B.W.D.B.A.D.W.D.f.p.C.E +.[...F J q.F.V.J V w.V.W.W.H.W.J.J.V.| | | I O.O.R.`.&.o.K.*...^ j p k *.' m ' ..*.X.2 ,XSX%.X + s z n B.V.B.U P P x x D I S G D K R Z d.Z.V V K x x U L K | J.&.R.J.Z.Y.!.+X!.Z.A [ p h |.BX|.2 g $.%...N d ; 7 ~ k :.BXKXuX8X1X%X%X~.8X9X.X'.XX1.XXsXtX*.=.oX%X.XOXOXoXoXOX1XuXzXzXeX.X=.1.].#X1XoXOX;X6X9XtXsXBXKXMXeX[.XX:X3X:X=X*.^ 3.=X[.$.1. X9XKXKXKXKXnX1XoX1.E.'.E.+.D ] ,.",
"; s F S G 8X9X:X|.3.>.%.%.%.%.%.N d j p j ; u h a Q ! * * ;XKXiX* a ~ k ] E.OX.X'.'.'.=.=.R...' ' [ m @.@.@.o.o.@.@.o.F m m [ [ F D D D ; h [.] * ; 6 f G S 9 7 s S } [ F m n s k j : p a p p g ~ ~ ^ Q Q $. X%.; : a j k p ; ; ! SXKXqXh ; p s k k f s p : , : ; & & & & o @ ; X # - - ; ; & ; p p p p u , , p p - $ 6 7 7 9 r x D <.7X..k &...' k 9 x x s s - , XXOXB x r r Z R T.Z.x 8 p a p d k B b b V r 9 9 0 r x Z Z B x r x x } | B.} D p ; a +...%.;XHXMX%.^ ^ p ~ g k k ~ ^ ^ ~ , g k ] ^ |.KXKX,.~ ] D m o.*.+.*.] a ",
"F } | I 7 D 7XOX^ ^ %.%.$.~ a k S x U A.n z z f s %.3.[.tXGXKXKXBXXX:X1XXXXX'.=.%.*.oXOX X X:XeX[.[.1. XR.'. X1. XoX=.%...k %.=.....%.Q |.cXBXiX:.~ g h a : a +.'.X.^ ..%.$.] ~ ..) :.3.3.>.:.( 3 h *.1.OX9XNXVX5X5XyX8X9X7XOX=.4XcXDXKXKXHXlXeXOX*.X.=.-X;X,X6XiX|.3.rXqX*X6XcXiX7X*X:X<X,XqXqX;X;X:X*X3.[.XX:.~ ^ ~ _ *X$.7 7 A 0 Y .XG @.{ n ' n r c z v J p , ` @ 7 r 7.7.5.6.7.7.y 7.D.].!.D.Z.a.9.9.g.7.f.a.g.7.7.y 7.7.b Z C C J J w.L V x x x e x D / 1.D 7 m } A [ [ *.o.+.*.] k g j z 7 X O *X3.g [ A I A A o.A o.G [ ",
"B.| | n f [  XsX=XXXXXoX X .F x J w.Z Z c N.A.U I } ~ *.=.oX*XBXGX3X9XjXjX7X1XjXuXoXOX*X:XsXnXZXBXKXKXHXoX:XlXKXKXHXKXKXKXFXFXHXFXGXBXvXKXDXiXNXKXKXHXVXnXzXVXKXKXHXNXsX:XsXMXeXsXqXiXaX>X&X>X*X<XeX%X%X%X%X8XuXgXzX8X%X8XgXgX8X%XX.N oX8XuXuX7XOXOXOXOXyXwXxXDXSXqXdXdXGXDXGXmXCXsXrXdXdXaXDXKXSXmXmXnXsXnXnXtXsXBXnXmXKXmX~ p a e B E o.K.O.F f 9 Z p.J b J $ _ DXnXS t.6.y 6.y 7.f.0.9.Y._.^.m.9.7.9.v.m.n.n.c.c.m.v.v.m.m.c.9.a.6.b e r g.b.g.n.9.4.y r 0 E.o.I U J J P P } O.S.C.I O.*.A.J n 7 a XX^ 7 | U D.S.O.S.} O.S.S.",
"r.r.q.N.S.~.oXuX9X7X7XOX'.S.B.r.t.j.Z C L B.N.J r.d.S A D a a a p a k m X.D E E +.+.....a a / > ;XKXFXsX XX. XOXXX X5XOXOXuX7XOXsXcXiXdXrX;X<. XnXsXeXuX7XOX.X X XOX X<.-XOXoX=.3.[.%._ ^ Q * O h E.T.T.f.R Y 0 - 5 0 r r E T.~.~.+XI.E U.~.~.U.U.~.+XOX.X<.6XaX*X,.$.] ^ *.%.k k ..~ ~ Q Q ,XcXnX:X*..XOX8X8X7XuXHXCXCXHXnX9XjXOXk.Z.V.F.F.C.R K d.Z Z C b v , *XKXdX[ J J q.q.y.g.g.Y.n.7.j.y.9.5.c.c.y.m.n.n.c.9.c.v.m.g.y.g.y w e y r r 7.m.v.z.9.z.9.e x 8XI z J q.q.U U B.N.V.B.O.B.A.B.t.r.6 : :X1.; 8 z J U B.B.A.V.U H ",
"z z c z r D..X9XhX8X.X'.'.~.S.| | N.@.S H P H t.B.B.B.r.r.O.A G I.G G F O.S.!.I.S x D x 7 7 p & Q ,X=.d H C.Y E Y D d d A D A A A D ~ d d k 0 0 7 7 7 k d 9 f x - 7 a 7 7 s 9 f p a d p d k d d D Z.m.(./.c.7.y 7.n.n.c.9.h./.(.n.k./.(.(./.T./.n.f.f.x f =.NX3Xa D f 9 S x r x V K I I f j XX X XE x Z o.B.R C.U.E.I.E.~.].O.C.o.F.L.L.F.Y.H.Y.Z.Y.t.w.J H 8 , mXKXcXp 6 9 J w.7.w.F.Y.w.6.6.b b r 4.q.i.F.m.t.k.n.n.c.k.y.Y.U z e r V c e b e.5.9.9.l.m.x E.nXD f P z 4 J N.D.P J n z P J z c z - ~ CXeX; s s x P N.N.{ N.H x ",
"A F n k 7 k k $. X1X X XoXE.+.o.J.#X9X'.A A o.O.K.@.B.V.J V.L b e 4 9 z P x z V Z.Y.x R T c z u ^ 9X+.8 v y y b w.e C b b q.C b e.p.8 e e y 7.a.c c z e c c J b e e z x P r H J H U r r V L K K r.a.9.9.m.v.y.9.9.9.0.9.9.g.^.m.c.c.9.g.7.7.9.0.c.(.P.7.R E.eX.Xf H e.j.7.a.g.n.k.Y.k.t.U K.1X+.x Z f.a.7.6.y y b r r r 4 b k.w.J Z.Z.Z.B.N.d.d.O.K.} o.} m ; 2 DXKXcX> g 7 k s 6 4 4 6 x s G o.G m K U S.R Y..XW.D H U d.B.F [ ] [ *.A m [ 7 9 H r.d.g.f...tXHXXXh a u s f o.K.A f F G F F } F u @ _ KXqXO g ~ X...*.@.P m A } ",
"k &.~ 1 g Q ( 3 > * o & * : ; o p *.,.g : k ] h ' @.r.7.6.t y e 4 4 e z J c C Y.Z.r L b e t v 6 '.CX'.4 8.4.7.5.4.6.7.a.4.4.4.4.8.g./.6.4.5.9.4.y.j.b.5.j.4.4.4.y b b q.v C w.w.w.t.e.w.7.p.t.w.r.t.j.y.b.P._.Y.0.k.n.f.g.g.g.n.L.j.j.g.7.a.7.7.f.P.(.7.Z E.:Xa p N.P.j.T.k.j.a.f.f.g.j.q.} 1X].I p.7.4.6.9.y.m.f.7.Z V b y 6.J V.Z.L.k.k.J J z 7 @ o & * 2 , ! ,XJXAXqXDX<Xh ; h ^ %.*.%.*.oX$.$.%.*.a > < a > h ^ k h k a ^ |._ _ %._ :.[.h < , ; s 4 - : -XbX|.3 ) :._ k a p p k a N N k a &     3.KXKX,X( 2 < : - ; ; ; ; a ",
"KXKXmXrXdXaXAXAXaX,X;X[.%.%.^ < ~ 2 Q _ [.:XeXyX-X'.W.e.j.L.a.b b C J e 9 8 z L W.R K r e e z 6 ,.mX*.8 5.4.7.5.6.b Z Z e w e t 6.Y.^.e.7.g.6.t y 5.4.5.6.y 4.8.w 4 t e.e.q.J r.F.F.t.w.q.b.P.P.g.c.k.Y.j.g.c.n.n.n.B.Z.Y.^.c.k.Z.Z.V.B.r.N.V.Y.Y.(.(.7.s  XHXoXa } J F.V.F.^.Y.Y.Y.Y.W.I ~ 9X1XS V w.d.e.6.e.G.V.H x z P H.V.H n L L R R { N.R.oX=X1X1X3XnXmXGXDXbXBXiXHXKXnX9XnXsXsXnXnXmXnXeXrXmXNXkXwXkXiXiXyXkXcXGXrX;XBXDXSXBXBXGXGXKXKXSXcXvXnX:X:X-X|.|.aXbXBXdX;XOXOX:XoXOXoX'. X=.] ..[.3XdXvXKXKXmXrX:X-X-X5XsXnXnXSX",
"nXnXsX=X[.[.aXKXKXKXKXHX5X-X-X:X3X,.1.3.[.XX:XnXMX9X'.A.Y.D.W.S.S.O.x 7 6 ; 6 6 ~ k 7 p 6 i u & qXKX*X; q.t.d.q.r.t.d.L B.R U H._.W.S.U Z.d.r J J J r.H.B.W._.L.C.C.U K Y.W.N.V.W.P K L B.^._.L.d.p.t.V L L Z w.7.F.K U./.T.s.k.s.Z R K T r L Y.T.}.f.x 6 XXKXBXh ~ m } | | | p - + 9 } ~ : 3.=XD I O.x n s z x 7 k m k F m F ' k [ } O.I &.^ $.K.W.W.o.k k D *.3.^ Q < a N ........*.'..X X=.*.$.%.:XbXKXKXdX-X:X-X|.>.%.^ ^ |.:X;X;X<X:XeXvXKXKXKXnX3XXX:XXX%.-X5XXXOX7X%X8XuX9X8X9X9X%X.X%X%X8XfX1X XXXXX:X3X9XuXsXtXsXMXcXsX",
"* < ~ ' K.~.XXvXJXGXeXoX1.*.%. X:X:X1.%.] a : p p [ a h p 6 : p ; p g < > & o o * * 2 h = . . ( JXKXHX^ u @ # 6 6 6 6 6 7 d s k m h k 7 6 - 6 ; 6 p f s k ..X.s A +.R.+.0 6 i s 7 ; # 7 0 $ + + - - + # $ $ 7 s 7 x 0 0 0 9 5 5 4 0 f Y oXA 9 K Z.Z 7 d a -XKXGXQ > a ; @ . . & h h - X o > qXsX^ a d N k ; ; @ * < * , g p , & , < 2 , p < 3 > $ 4 s x e 8 4 6 6 ; 6 4 4 4 5 5 7 8 9 9 9 4 6 9 6 - p :.KXvX_ d D a < * a p & < h ; - p : ; > %.eX..6 j k k 7 A a 7 7 0 K O.O.A.A.O.} S.S.A.A.E d.D.W.+.+.o.G I O.E.*...[ ~ g g ",
"~ k F r.@X$X=.6XxX^ + $ 7 4 6 s d a a 7 A G I V w P k *...^ XXcXdXsXdXDXJXSXSXDXDXmXJXKXGXdXrXvXxXpXSXBXtX[.,.$.%.^ ~ $.3.1.1.[.$.*X<X;X<XtX:X:XXX[.'.%._ ! ! $.X.X...N a %.%.h %.;XOX*.1.^ %.=.=.*. X1.,.*.XX#XoXjXjX2X%X2X8X2X2X#X.XCXKXjXE.E +.E D ..*.:XkXaXHXZX:X^ Q ` ;XZXKXnXXX,.*XqXaXcXrXeXsXlXsXcXCXGXKXvX>.|.XX:XiXvXvXaX,X<X<X3.%.1.].A u k f p 7 8 w z J C r e b r e e b C c b C L x 9 ; 2 GXmX&.D K 0 7 ; a ~ ~ ~ ..[ [ o.k 6 7 k =.Y U { { | n z 9 r B Z b r.J J J J J z z J J b y 6.7.Z L r.d.V.H.P n @.#X2X1X1X",
"} O.P t.).}.'.CXKXR.4 8 x x V x x x x x L w.p.e.q.J a :X9XeXdXDXKXKXKXKXKXKXKXKXKXKXKXHXMXzXeX;X4XwXwX|.;XCXKXKXKXKXKXKXKXKXHXGXGXKXKXKXKXCXKXHXnXnXGXKXKXJXSXHXFXlXlXNXCXKXKXrXrXnXjXnXCXnXzXNXnXzXVXnXzXzXjX2XoX9XzXgXgXgXhXzXhXhXhXhXgXjX9X7X%XgX8X.X.XoXXX1.sXKXHXzXnXKXKXKX6XXX:XoX,.%.6XNX5X-X7XyXyXeXcXDXDXvXvXNXlXrXFXGXGXCXmXCXHXFXVXMXuXhX2X'.k & & s q.q.w.t.t.b z z v v J q.J b C c H c 6 k cXsXo.x H I k k , g ~ ~ ^ '  . .' ' j h N '.W.q.t.V.d.U f.f.Z.Y.Y.t.Y.L.Y.Y.N.J N.V.V.V.t.6.6.w.r.r.J J q.J J U I I @.K.",
"z J 9 v ).$X'.cXHX} w 7.7.7.7.w.w.w.J 6.6.6.7.4.y.b +.FXsX] ^ ^ ^ ^ ,.*XvXKXBX:X X'...p X.+.+.+.N / ! > > ,.=XrXSXDXKXDXiX<X*X_ [.<XsXsX1.< ^ ^ ~ $.*.1.sXKXKXvX*XXXXX X%.%.OX%.....D ....D +.I.C.U.E.E.+.I.S.O.| } S O.B.K V R s.s.D.E C.!.E.+.f D .X!.].~...k +.oX2X.X1.|.:X/ ; a s p u k =.'.=.=.X.+.N N %.%.` |.:X7XOXX.X.^ ^ N k ^ E +.E o.o.R !.%X9XrX<XOXW.D.r.H.F.F.t.U J J J q.q.q.r.H H z 8 ..iX>.f x H } k ' ~ W $.,._ ~ j j ' ,.' h %. .N.F.Y.t.R R t.V.t.t.Y.a.Y.a.a.7.J J J r.r.J J v v r.B.B.r.q.r.d.D.D.K o.N.P ",
"z n i e q.+XOXCXrXX % b 9.c.c.n.n.e.r.t.6.i.P.m.6.x X.nX9XP 6 @ ; @ p h 3.vX=.+.o.D 0 x T.Y.Z.T.T E ..o.G k 7 ; 3 xXGX:.; & , ; * . @ ; & ; 7 7 s s 6 + - XXHX3.p D N d : : k K L J x x x L T./.T.T.f.f.f.f.t.C t.Y.w.c w.w.7.a.7.7.k.a.f.7.Z d.V K T b C V r e 9 9 S x d X.k f n F n v n H K x U Z V V J n k k : 7 E c r K K ~.+.@.X.G x x r Z Z J D...:XmXtXeX'.S.C.Y.Y.Y.).H.N.J.N.q.J J N.r.r.b p :.GX;Xm { { ' ~ j _ [.<X,X,X=X=X{.{.{.j ~ sX{.{ t.J J J r.N.F.W.W.W.f.s.Z L U V.N.J P } S N.r.H O.R I K L r P | S S S J P ",
"' j k 8 6 $ 1.KXDXO . 8 e e b 8 9 9 s s z J v b s ; * BXuX| z 9 p 6 6 ; ^ XX; $ 9 e w.a.7.b b w.7.Z t.t.r.d.w.J +. XdX$.s +.F } | [ k G o.O.V b L C y J 9 f *...9 0 0 f D K U w.e.y.a.g.g.f.(.(.h.0.c.c.g.c.g.7.g.g.m.^.m.n.c.9.9.0.9.7.7.9.4.q.q.q.f.t.g.7.Z q.r.C c c I 1X!.8 J z e v i.u.6.j.e.y.y.8.j.u.t.{ F B.Z.w.6.g.L._._.H.H.w.L R Z Z t.Y.oX'.;XrXQ %.+.B.V.L.^.L.k.Z.B.P k f s p S I U Y.*.*XKX=Xj [  .] %.,.-.2.3.*X>X*X[.3.,.~ , ^ kX_ g k F } F F P P n A S f f m m o.[ k ' j k A F z p 6 ~ ] A D G k k k m k '  .",
"& < * * , , [.KXKXaX^ g D D $.a d : ; & * * ; u a %.iXKXzX+.J V 8 e z 6 ; ..7 + w v y 5.y.q.q.e C a.P.m.y.7.9.8.J G 3X*.9 x c z U S.S.W.B.H V C e.6.6.4.b 9 W.| x r x 9 z b v 6.a.j.n.m.9.9.9.9.0.P.v.9.9.9.g.9.9.9.c.^.c.c.9.9.9.7.7.9.9.9.4.4.J L a.k.Z.d.B.t.V.t.H.H.[ oX X$ % 8 q.G.b.b.9.y.8.5.y.v.c.q.i.J D D.t.Y.y.t 7.g.k.k.j.w.b b b 6.t.V.R.} %.|.@ 6 R Y.^.F.m.g.g.n.d.V...] ~ k m d 7 A *.|.6X*Xa * Q ! 3 ( ) 2 2 3 3 > 1 O O O 2 &XAX>.2 h h h h ^ ^ > o @ & < Q :.Q 2 h h * h h g p , $.^ _ :.>.*.%.:.$.Q g g a : ",
"rXsXBXaX*XrXrXbXKXKXKXKXKXKXCXFX9X3XtXtX<X,X,X;X;XkXvXKX-Xa S b y y 6.V ~.MXR.7.j.e.q.e.q.z % % 8 c 5.j.j.q.j.l.w X.CX*X% 6 z J N.C.Z.V.z z r.t.6.b b y e x W.N.x x x x x c b t.Z.k.Y.^.^.a.a.j.y.P.)._.f.f.Y.k.g.g.g.j.L.b.j.j.6.6.g.7.7.m.v.j.b z e e J S.D.Z.Y.Y.Y.V.] rXeX@ 4 A.+XW.W.F.v.y.5.e.y.c.j.6.v 8 7 K r t.q.y 4.g.g.G.^.F.q.q.q.t.t.q.n 9 / :X..# 4 7.m.).P.v.0.9.9.L.].#X8XsX7X=.^ ^ ! >.&XaX1.) |.*X,XqXaXaXBXJXSXAXxXpXxXaXaXAXJXAXvXiXwXiX6XiXiX,X|.6X6X*X3.&X&X,XqXaXJXKXKXqX*XmXmXKXKXvXmXmXCXGXBXrX3XsXoX3.",
"sXKXKXKXGX=X%.%.1. X1. XOXOX'.~.*.*.,.=XcXJXvX,XXX:XeXsX7X X*.L t.w.a.C.9XKXR.L Y.Y.c L H H z x s 4 8 v q.V.t.y.6 ^ KXvXu u ' | } p.r.V.r.J r.q.z 9 9 7 7 s p p z c J v v e x I o.I C.R t.d.S W.W.J.P O.S.R U B.V.V.U r.D.B.D.N.J J V.V.H.Y.F.F.V.B.d.r.A.S.S.Z.Y.d.Y.Z...nXBX, u {.*.m  .| V.t.r.H.H.Y.V.F.J.F [ fX].z t.t.v q.J N.F.W.F.r.N.A.B.U B.B.$.dXsXE.7.7.8.9.c.y.q q 4.7.K Z D XXOXeXiX6X*X>.3 2 3 ` 3.|.*X|.*XsXBXBXvX;X:X=X=X=X1.1.X.X.*...^ %.` %.%.%.|.*X;X;XaXrX3.,X>X3.xXKXxX< h =XeX<X3.Q ^ ^ 1.XXXX[.,.{.oXXX",
"*.dXqX< ; 7 4 9 x x f D Y E E T.T.!.!.].'.kXKX;Xk 7 0 0 D +.*.L U Z.D.I.1XCX'.U p.r U K x s m o.*.o.S s s I f - . <.KXKX' ~ ] ] S r.t.g.j.j.5.4.H D N k p ; $.%.m { J.N.J.K.[ * o o ; o @ - - o & < , & & > p , & p p ; ; p p , , p k 7 7 s 6 s A o.o.I m s 7 4 4 9 x x k iXKX;X_ _ ~ , O & $ 7 s k s s A [ *.,.,.CX#Xi m n i m &.&.J.!.A.[ | *.*.m X.+.Q BXKX.Xk.n.7.7.e.e.9.4.5.9.7.b S ..X.%.|.&X,XxX%./ XX'.'.+.N D +.*.E.X.X.+.!.!.W.W.Y.Y.f.f.C.D.+X2X].].I I..X<.! %.1.XXXX>.>. X-XKX*X+ - p D k p p d 6 7 s 7 7 9 9 f ' ",
"6 tX<X- # 9 V b Z p.s.s.s.E d.k.h.}.}._.C.XXKXtXk 6 9 9 s x k s 7 - # 6 :XKX,.s x 9 s f s h p : k ^ h & ; ; ; * > SXKXJX%.h $.^ A B.F.v.c.c.9.t.h ^ / %.%.3.KXDX%.k *.*.`.*.<XqX>X,XdXiX1X*X;X;X>.*X,XrXSXvX*X3.3.*X3.%.:.3.3.*XrX=X3.1.*XXX1.*.~ h h ^ XX9XuX1XoXoX.X] h <XKXKXCX3.3.dXqX2.1.;X:X1X:X*X*X%._ 3.sXHX%.& @ o @ * g g ~ ] h * * 2 < > 3 h ! SXSXh 0 Y.C.D x 9 e x H V c V J } [ Q 1.^ DXbX] s n z S m k m k 6 9 c r Z w.L d.C.K x D A k m S.} S B.Z.R K D E +.D o.o.E o.D +.BX[.9 x z 9 9 f p s x z e e V 6.b q.f ",
"6 tX;X6 4 c A.V.f.Z.Y.f.f.Z.f.k.0.(.(./.Z.'.HXsX] S c 5.t v H +.+.s ; ; 1.3X*.; x ].+X9X1XsXsXsXtX:X<X<X<X X:XtXsXiX! ;XtX[.tXuXY.t.m.b.5.y a.Y.oXiXGXKXKXKXKXKX6X0XZXNXyXeXaXDXDXDXBXGXnXsXcXdXrXvXDXKXKXKXAXAXSXKXKXKXDXKXKXKXKXHXvXcXcXvXFXKXKXFXcXlX<XiXNXCXHXBXMXNXOXX.1.*X:X3X<XrXAXKXSX,X6XiXcXNXcXBXcXZXKXKXiX>.*XmXDXBX=X3.XXXX:XqX=X;X|.qX>X&XwXHXKX:X7 6 f N =.1.*.X.k a 7 6 s S A ~ :.*.HX*Xk D.V.}.W.W.W.V.q.r.a.a.e.5.7.a.j.k.Y.T././._._.}.).Y.Y.Y.L k k a.Y.f.Y.Z.Y.e.x 3.KX=X8 H J x x z 8 8 z 9 e y 6.6.5.q.z ",
"F nX:X; 6 u k m B.J.W.W.!.].W.D.Y.T.Y./.!. XCXnXoXR.F.r.Z.V.U +.E.*.*.X.~ k p s x O.8XVXuXiX<X;X[.XX[.<X:X%.k ~ ~ g & g XX1.>.oXY.t.c.b.y.y.b.F.~..X X:X1.%.%.%.%.X./ X.=.*.%.%.,.*.X.=.X.N D ..X.%.1.,.-.) ,XpXvXvXBXyXXX4X4XXX1.` XX:XOX<.1. XuXFX6X<. X` / ~ ^ < < h d ; : : p ] ] ~ _ HXDX3.3 ! / >.<. X1.1.;X-XXXXXXX:XsXGXCXCXnXnXFXHXnXsXBXKXZX6X4X:X4XsX8X1X3XyXBXKXKXnXrXcXsX1XoX*.O.F :.oXKX<XS c q.F.Y.g.j.j.b.F.b.b.j.q.e.c.m.m.m.m.m.(./.m.m.m.(.P.m.g.k k g.c.7.y.5.8.9.y.XXKX=X6 | N.P A ' n m P J e.L.F.j.b.q.U ",
"k rXsX%.3.1.,.,.,.*.'.R.+.R.K.K.R.R.O.Y.!. XlX5XX.r b e s s r r c x G ' k u s  .I A ..3X7X>.%.%._ ^ _ h k D A m F m s 4 ; 6 p k V.Y.v.q.j.L.F.q.H L p a 6 $ 7 d z z J J J F A A x 9 6 9 s x z x x 9 4 4 o |.JX6X1.*.S A A o.Y f f s A x D Y A G ~ =.^ < a ; ; k k k k p s s s x x z s 7 ; XXmX|.< a k a ; : k a p a d k f ; 6 k X.+.+.+.+.+.R.~.OX7X2XOXQ.+.+.R.!.oX'.=.%.<.=X:X:XkXKXHX3X*.' k ~ '.KXnXD.r._.L.Y.n.g.m.P.v.P.P.P.j.q.g.c.n.c.g.9.c.n./.^.0.0.m.a.p.I K w.m.v.b.c.v.y.y.E.nXXX* m { m k i j j s { q.J t.w.q.J F ",
"  > mXKXKXKXKXKXKXBXzXhX1X.X#X].~..X'.X.!..X XE.S x I.'.oX XE.!.8 b b I @.@.@.@.P f p 1.rX1.%.%.>.>.~ j k x x x R J n | I F G ' a 6 6 - $ @ + 6 $ ; ; < g b C C q.q.j.i.8.q.r.t.a.e.5.y 6.7.y t 6.y y b s sXBXN 6 w t 5.y.6.e.e.w.t.b y 7.w.r.v n ' ~ s F U W.W.!.J.J.W.E.K.W.e.^.^.Y.S.m *.3X] k f z 6 f S B.x A x z S H x J L L Z r r r r b y r r 9 r r x J U r.I A p - 7 D D N >.iXzX..a U ] _ ^ KXHX~.W.W.D.W.Y.Y.^.).^.j.Y.Y.r.J B.B.d.J S x V K Z.Z.k.k.^./.m.F.e.6.j.L.Y._._.L f *XGX;X, * g , , u & o & ; 9 6 8 z 9 j & ",
"* ; ~ 1.XX|.rXGXKX1X+.Z.C.O.W.D.D.Y.S.o.+.O.D O.Y._.2XzXnXKXnX8XfX2X$XE.S.V.r.U | ' ,. XtXtX1X1X3X*X`.} H J j.r.K D | A.P H A a ..,.[.3X<X<X<XdXGXDXDXHXCXF y 9.y.G.^.e.5.i.b.b.y.8.4.4.4.4.8.8.z.(.z.t 9 1XeX; e j.v.v.9.5.8.8.9.9.5.9.5.c.^.t.9 fXuXn !.$X+X}.W.F._._.+X!.w.y.b.m.m.V.I +.{.$.s z 8 + 9 H r.r.V.J r c w.w.9.c.m.f.k.k.f.g.9.5.7.g.7.7.a.w.J C b w.L C L L t b K d X.k 7 F J.*.6X&X&X) > < : < 3 < Q ~ ~ X...N k k %.,.%.) ) ) ` ) ^ ^ ^ X.X.*.+.o.] ] k a k %.^ _ ) >XaXDXDX6X3.$.^ ^ %.! 3 $.p @ o @ ; X @ < ",
"1XR.c 0 D k * Q 3.O.H 6.e.t.j.L.^._.L.Y.t.w.w.L./.k.C.] o &X6X] U.+X+X#X+XL.g.j.7.V.V.!.~.+X].E.R.'.*.D.w.5.6.t.D.E.+.*.*.+.'.uXcXmXGXSXGXKXKXKXKXKXKXKXBX1.7.g.g.b.j.4.e.i.P.i.6.8.x.v.v.9.9.z.l.9.9.y z nXKX'.W.j.g.g.v.m.m.v.m.^.L.n.g.9.m.Y.L fXhXR.!._.N.J.R.A.J f.T.f.G.m.v.F.j.q.A oXJX[.p f z 9 J H w.C b c J H C j.c.c.m.^.^.n.c.b.v.m.m.m.c.9.b b b e q 9.m.n.m.9.8.7.y 5 E.E.H J U E.<X6XeX:XXX*X3XiXiX>XwXaXiXcXiX4X;XqXmXmXsXmXmXsXrXrXsXiXDXAXvXKXHXBXcXiX5X<.|.6XwXwXvXvXaXaXSXHXKXCXcX,X>XwXaXHXKXKXlX6X-X:X1XsX",
"[ W.Y._.!.D.[ :XsXJ 7.P.^.^.(.^.m.^.^.(.m.(.(.@X/.m.f.k %.xXcXN s.f.D.+X+X!.y.9.9.n.a.f.d.Z.Y.Y.Z ].]./.g.j.j.t.d.E.=.%.oX7XoX..^ %.^ $.$.Q qXKXnX X*.+.*.E.n.c.c.c.9.6.6.q.b.q.q.r.F.F.j.j.t.q.q.t.t.n ' HXHX`.J.F.j.5.b.m.b.b.F.Y.V.t.t.y.g.Y.D.S.X.k ..R.`.`.J.$X$X$XZ.r b t.q.q.t.n u eXKXrXg ~ p  .N.z J J P J N.| 6.9.y.i.m.m.g.b.9.c.v.m.c.9.j.y 8 w t b r 4.m.v.9.z.z.z.y 9 8X+.9 J q.S k N ~ [ X.] ] N h / 6X*X'.] k ..N k h a k X.~ a , : p h ^ 3.|.<.XX1.%.1.XX<.>.>.` ` ) ^ Q 2 2 /  XXX>.>X,XAXKX3X1X-XXX-X-X<. X*.",
"F d.Z e.j.L [ nXCXq.4.9.m.^.(.).P.^.^.(.(.(.(.(.(.(.Y.d ;XKXHXa R y y n.Y.b 7.c.9.9.g.c.9.7.w.7.r  XuXD.j.j.F.t.N.D.E ] ] =. X..A k k j u @ 1.nX'.f x z c y.c.c.c.c.7.w.6.y.r.P g @ @ $ - $ $ $ $ + + . *XKXBXg $ s P r.r.r.N.V.N.| | V.B.r.r.| p ; > * Q h h #.' $.' [ F p 6 6 4 $ % + . 3.SX)   O & u j j j k z H n z x C e.t.F.^.Y.Y.k.L.b.n.g.H.U z x U H x x b b 6.8.y.9.m.L *.mX'.f G 8 $ 9 x s 9 z x P I x d D [ I I I I S G f f G o...o.+.K.o.o.k * o : a ~ m A o.X.+...~ a s s s 6 7 7 ; & ^ GXJXKXGX; 6 A D D +.x G F ",
"W.W.Y.t.F.Z.[ eXCXJ y y.P.(.(.^.^._.m.^.(.^.m.P.m.^.Y.k XXKXBX; 9 F.m.c.9.c.g.j.y 4.4.j.9.7.w.Z.9  XFX+XY.Y.V.N.r.O.I I F F o.O.O.@.| { m s  XzXE.R V.t.j.8.y.b.b.7.j.j.c.n.W.%.3.:.>.1.%.h < g > 2 Q ( &XDXcX3.~ k 6 7 ; 6 6 $ ; k p ; j s $ ; : mXKXiX>.1.) W 2 * * O o o . . ; < Q :.3.,XbX,X|.*X2.:.$.$.$.] 7 7 m m ~ A x D A D +.+.f s s x o.d ] ] ~ &.~ k X.p ; f x P Z V N OXKX<X> : p k A x J U V.V.J Z b Z K L t.F.F.t.q.r K R d.Z.U B.W.W.D.F.P k ~ ] } O.A.V.V.O.O.U | J d.Z.Z.w.t.H.z ; ,.KXKXKX].8 v { g >.uXR.t.V.",
"C.B.J.U A.} %.BXKXP V L.L.W.Y.Y.W._.).^.}._.Y.^.L.j.V.A $.DXKX> X W.^._./.}._.H.V.d.J V.Y.c z A.s eXFX!.Y.Y.V.U I P z F I A n z N.J.J.N.{ m =.:XW.V.F.u.b.j.F.).F.t.j.L.^.n.Y.oXGXKXKXKXKXKXKXKXKXKXKXDXbXxXxXHXCXsXsXsXtXsXtXrXnXsXeXtXCXCX7XeXXXiXSXvXaXmXZXSXvXxX,X;X;X;X1.eXsXdXDXKXKXKXKXaXBXKXKXKXKXKXKXGXiX%.=.*.*X:X%.h ! / ! ! >.1.1.%.^ 1.qX|.3.[.|.*XeX|._ Q < ~ d a < ` iX,X;.|.;X,.R J q.J J q.J q.w.L x r.F.b.j.5.t w y a.t.b b C w.w.b 6.H ..jXoXU U V.H.H.Z.d.L t.F.t.j.j.j.j.j.r.6 $.DXKXoXs v q.&.u ^ 9XR.| V.",
"@.@.@. .~ ~ ;XKXBX] A x z s 9 9 s x z r H R Z.W.W.Y.H.F XXKXKX6X; - c r.U B.H f s s f 7 6 k { &.j |.CX%X].!.U O.X...&.{.{.{.J.{ { n { | ' k $.*XS.U N.t.u.V.B.V.N.A.J N.W.F.H.F X.6XwXqXaXvXDXDXDXGXBXbXBXNXcXkXiXrX<XlXHXBXkXKXKXFXBXBXZXKXyXiXiXwXlXHXKXHXKXKXKXKXkXcXKXKXKXKXKXKXHXbXvXvX:X1.1.tXcXNXZXHXmXiXBXcXkXeXsXMXBXAXSXBXcXkXcXcXGXsX;XkXBXGXHXGXKXGXKXKXKXKXKXKXnXeXsX;X<.wXZXnXsX2XW.H.t.t.J q.t.r.N.F m N.e.g.g.n.a.7.y y 9.9.7.e.e.e.y.q.U *.MX7XO.B.C.p.Z L C b r.r.r.q.J w.q.7.t.f 3.KXZXk z { &.&.j ..1XR.R.R.",
"3XtXjXGXKXKXKXBXDXoX*.6 $ + .   @ p 6 6 + + X X + + # . ..iX6XHXKXeXR.k s 7 ; k 1...%.*.~ p * & & 1.KX7X; 7 m +.*.:.2.<XrX<XXX[.,.,.$.,.[.:.:.,Xk ; D } m m ' j u p j j j u j j d ! ! ! h 3 h Q Q h a < : : > / X.k ` >.1.! 3 ^ ^ %.` h ! %.=./ / <.XX1.1.=.=.>.%.%.%.|.,XDXiXX.~ N h : a N s 7 7 7 - : N X...k / %.k s p $.<XJXKXrX=.<.=.%.h Q h > ^ <.%.^ %.*.%.|.kXKXKX:X{.*.'.1.%.X.=.=.E.Y.B.P P | P z s s j u ,.`.H w.w.L d.j.j.Y.Y.Y.L.Y.j.q.e.V.} k Q Q p G O.D K K x 9 z F P { | P P e 9 @ ) KX6X; n ~ ' p , ;XsX7X1XjX",
" X:X:X9XmXdX,.h ^ X.=.%.:XdX3._ *.1XsX1X:X5XXX X1.X.'.=.'.|.;X;XvXKXMX3X3XtXeXmXKXCXKXKXKXCXjXsX3XuXzXzX1.$.cXBXrX*X_ ,._ ~ ] ] X.] a p ~ h %.rXuXXX,... .k ' ].*.o.'.[.].`.'.R.X.h h a h h : < h ' $.*.^ k D o.S.o.A ..~ ~ X.k p - ; ] *.*.R.+.+.Y E G f s D *.m m j & 3 iXoXA J H x 9 r C N.U B.Y.V.x Z x V H R x 9 9 4 ; g bXDX%.d D d p & p a : : a p ; 7 p ; : h  XN - j n m 7 s 9 4 - ; @ @ . .   . . o o   o <XeX~ k s u k A P P c c s A { | { { k h 3.3.* * : , p p ; . @ , ~ ~ j * 1 ; , * |.KXvXO < < O o Q 6XvXCX1X X",
"h a h h a : k X...=.=.>.|.|.XXXX,.*.*.=.-XsX*X1.'. X'.E.*...^ ^ h ^ *.*.*.*.'.*.=.*.'. XoX%XoX'...X.+.*...*.CXKX5X5X1X9X1XoX2XhXhX#X#XoX*.N %.<.:X:X1.] '.oX8XVXVXzXuX9X8X2X9XhXoX,.I A S D ..D N [ ' &.R.o.K d.H.B.S s F @.F f o.@.o.S.O.B.S.D.S.S.C.R o.R D.W.W.W.A.| :XnXR.J F.t.t.w.j.b.F.).L.j.j.Y.k.6.t.L.}.}.H.c e 6 & rXHX'.S D A 7 6 p ~ ~ ^ X.[ o.R. .p ; a X.E.J.V.{ N.U r r r %.>.3.1.1._ :.[.*X*X|.:.qXKXKX1X'.#XjXuXoX].o.f c [ +.R.'.&. .*.:XKXKXZXdX<XrXrXrXeX:.,.*X=X*XXX_ $. XnXKXKXKXKXXX^ 1.6XvXwX>.|.eX..N ",
"E ] X.N B D f d +.XX*X|.|.3.3.1.1.+.O.X. XuX=.[ +.R.o.+.R.*.7 [ ....P } } @.K.+.W.I.E K I o.S.W.o.K E o.S } eXHXFXCX'.!.!.W.Y.Y.T.Z.f.Z.I.D d d +.X.&.o.@.+.E E U.!.S.E.!.I.E D.!.!.Z.s.C J I X.X.] ..+.E.*.| U B.B.S.J.!.R.+.*.+.E.D.I.Z.C.S.I.E E.E.S.O.S.!.W.J.W.J.J.:XCX#XU r.V.J d.V.Y.Y.Y.Y.Y.Y.s.R L Y.j.Y.Y.t.c c 9 a yXlX*.x x O.m ' g 2 ~ ~ ~ ' ' j ' &.' ~ a +.J.q.F.V.d.w.J a :XGXiXnXsXnXCXmX<X;XsXGXCXFXCXVXhXhXzXgX%X2X%X!.I.%X7X%X'.X.*. X<.|.cXcXmXKXKXKXDXKXKXKXKXKXmXHXHXnXsXMXFXBXiX;XOX%.1.;X4X<.`  X X..=.",
"U.I.E.+.I.C.I.E E.OXOXXX*X|.XX*X+.I D.+.E. X] [ } @.F O.D.W.!.!.E.J.H.H.W.W.H.D.Y.Y.Y.Y.B.Z.C.Z.Z.D.D.B.| S ..8XVXuXE Z.Y.Y.k.7.7.7.f.k.f.f.Y.R R C.D.d.U Z p.Z 7.p.Z.V.Y.Y.Y.Z.Y.T././.Y.Y.V.X.$.X.X.'.*.*.+.R.R.'.K.K.R.*.*.=.W.W.D.W.!.J.S.I.+.*.K.A.A.A.K.o.R.'.R.~ %.nX'.S B.J.N.| W.!.H.d.Z.Y.R R D.Z.Z.Y.Y.Y.w.C v 8 h <X|.s n J } k j ~ ~ :.3.:.] $.' $.`.{ p 1.'.| F.F.t.J q.v ..NXtX*.R.N ..X.N a p k ] ] X.E +.E T E o.W.R.I I.!.E.'.*.D d f d : > ^ ] $.*.%.~ h ~ ^ 3.<X*X^ ^ h ~ k a k N ....o...] h < : k {.=.+.E.",
"I.U.I.I.I.+.R.o.E.-XXXXX:X:X<XOXE.D.Z.+.*.N ^ *.} @.@.S.I.W.W.D.W.D.F.H.W.W.V.Z.Y.Z.Y.Y.B.D.d.K x P P x H O.F +.R.E U Z.F.L.7.c.n.n.7.m.(./._.}.Y.k.k.Y.Y.j.Y.j.L.Y.F.V.t.j.q.C k.Y.^.^.^.Y.F.*.*.*.*.*.*.*.*.'.X.X.X...*.1.'.1.#X+X+X#X].].'.R.*.'.&.K.`.`.R.+.*.,.h Q aXmX^ X.*.o.K.'.2X%X~.E.R.*.*.R.K.A.@.| | D.t.c C z ^ GXcX..{ { ' ' ] _ 3.<XqXqXeX3X1X1X{.' p tX1X' { J J { q.x =.HXtXF U R K R R R K U N.U U U x n J J H U L r.V.B.L U I x F A } D d k O.A.} G o.o.f f ] XXdXoX..~ a 6 4 - 4 9 L R @. .X.+.| N.!.*.+.U.",
"I.U.U.E *.*.$.~ ^ |.1.XX-X:X5XXX+.E I.R.=...] ,.R.R.K.R.R.O.O.R.W.W.F.B.r.r.N.B.I U O.n @.K.R.].~.`.R.*.*.R. .' m F J B.V.r.t.Z.k.n./.^.^.^.L.L.Y.L.k.k.L.L.}._.L.L.W.W.V.W.H.Y.V.V.H._./.}.W.@.'.=.%.%.%.%.%.%.%.>.%.h h ! %.%.m s m ' k ~ ~ ] ~ h u j $.&.k h > o > 6XKXGX^ ; ~ ~ k *.'.=.*.*.'.1.1.*.X.X.] ..] @.@.H D.E.1.mX6Xp s ' ~ ^ %._ _ _ ) 3.) ) _ Q 1 * g iX>.= 7 s m k x 7 : sX2XJ v v x U V.d.d.H.V.P } ....j j j i j s k j j f f F S ' ' ] ..[ G o.@.| P I K Z C.m [.eX*.A I I L J J J y.g.^.Y.V.O.U i.s ; k *.E.",
"..] D D ~ ~ g Q _ ` / h h a h k h p d k Q %.h g p ' *.&.X...*.*...' ' } [ s 6 p [ ~ k k ] $.*.,.'.:.-.,.,.,...j ] *.| S I O.@.F ' o.a.k.d.Z.W._.Z.H.W.!.!.W.!.+X+X!.W.W.@.R.!.W.W.W.W.V.L H p h ^ *.1.XX'.XX*XXXcXHXmXNXyX-X:X:X*.k ^ 1.qXcXmXCXZXnXsXsX3X3XsXnXKXDXDXcXvXKXKXnXsXmXsX9XOXOXOX1.:X:X:X:XsXGXsXrXtX9X*.# ; k >.;XqX,.* Q _ _ ) &X) Q ) ) ( ( 3 3 3 ) >XJXaX1.>.%.%.` >.^ ;XKXzX+.U I.+.o.+.I F @.@.o.X.*.%.%.%.] h p & * , * * & , , 6 ; * , p ; 6 ; 6 ; 7 7 5 6 a sX2XZ.T.Y.f.k.j.k.L.(.@X@X/.n.g.7.P j =X=X, ; ",
":X=. X:XXX3.>.) ) |.` / -XOXOXOX>.! ^ $.` iXrX*X~ h h h < g ^ Q Q h < , , a h ^ 2 , W W _ :.:.) -.) ) 2.) h W * , g , ; a p * g ^ %.] x k 7 + + + X + $ # - - - 7 s 7 u ; $ $ 4 4 6 6 4 # p %.6XiXsX1X%X1XuX1XXX:X:XoXlXFXCXCXFXMXnXmXBXKXJX6X;XHXCXyXyX7XeXCXVXsXBXrX3.%.XX:X1.1.oXoX X'.1X1XoX'.'.1.:XeX6XaXKXKXKXeXXXXX:.<.|.qX:X1.,X;X6XwXxXBXKXKXKXDXKXKXcXnXMXnXAXpXcXaX6XwX6X;XkXZXKX-Xd K.+.=.*.*..XOX X'.1.%.-X;X|.|.|.>._ &X>X,X,X*X*X,XXX1.1.%.>.*.~ k k k *.*.*.*.%.*XnX..4 K s.R L k.T.Y.L z 4 4 9 e x p ~ nXKXGXCX",
"cXdXBXCXFXKXKXKXKXKXZXNXKXFXuXyXrXBXHXcX<XiXSXmXdXdXdXdX|.[.<X<XqXqX|.|.|.rXKXDXvXSXSXpX,XqXqX,X,XqX&X3.3.:.,XaXqX;XqX>X3.) &X2.) 2.:.) _ ^ :.:.|.>.) ` _ ( _ 2 O , 3 _ :.Q 2 Q Q ~ ~ '.sXcXKXKXJXdX1.~ E ~.E.~ a ; ; k *.*.*.*.%.%.|.bXxX! > * : a : ; d ] X.D s 7 p ; p p p d k k [ G +.o.D k D N : ; a O ! vXlXoXoX;XwXwX;XrXKXCXsXsX7XuXCXVXCXKXsX:X1.sXsXXXXX:XXX3 3 _ ) _ ! 3 h >.sXCX5X+.+.'.'.*...=.OXoX=.k h  X:XyXiXiXiXaXxXAXvXaXcXSXnX:XvXDXvXcXKXHXzXzX1XuX9XnXMXsXiX1.+.O.C.C.Z.H.s.Z.D.I G E.R.R.A s Q.4X<.wXBXJX",
"%.%.%.'.Q.=.'.OX7XSXKX:X+.D +.+.+.OXoXXX$.< ~ ,. X X'.:XXX4XlXiXeX8X9XjXuXsXCXKXKXKXKXKXHXnXjXsXsX1X:XyXCXNX:XyXyXcXKXKXKXKXKXKXSXmXmXmXiXrXaXvXvXKXKXKXKXKXmXdXdXrXrXBXKXHXSXDXKXKXdXGXKX;X>. X<.:XXXX.} D.C.I A x 0 8 6 4 s - @ . O vXKXtX- 7 x r x 9 Z V 9 9 r L I S.K K D.x S S O.O.W.D.R R c D c s s : h :X*.9 N >.wX! 3 : a k a p / +.'.o.d a p ; p < * < k ~ D ~ o.E ......N a $.+.X.E.~.S.R.m k ' m ] *.o.m k ] X.^ X.` ;XBXdX*X[.[.=X=X*.h vXJX|.< *.*.[ D a a k k ] ^ k E E.!.!.!.!.D.Z.E E K.~.#X'.R.+.+.E.=./ / / ^ ",
"C.C.R K Z Z V x d :XnX*.K Y.D.C.E U.I.o.@.G m s 7 f A D a / 1.X.E f.Z.!.!.U.U.+.+.+.+.E I.C.E C.E.+.XX X'.=.+.X.^ X.XXsXzXzXjXuXzXuX1XoX%X:X[.%.^ 1.uXtX:X*X,.*.'.X.N %.XX*X:X6XcXcX^ h ~ p p ; h ] &.&.A.L J J H V z w z x I 9 $ + g GXKX2X9 J b 5.4.6.6.7.y y 6.w.c C 7.y 4 4 5 z J c e C d.p.V Z R c z 8 k 9X.Xz d >.aX-X; d x x x 9 B B 0 9 V K R S.K o.I.D K F O.B.!.D.S x d D d h 5 9 s z n P 8 { K.|  .P m { n n n f k k [.iX^ ; ; 7 8 6 4 - qXSX%.' P P | |  .@.} k c c K J r.L d.Z.D.Z.f.f.Y.!._.R.| S.Y.C.U K R D.E E ",
"t.t.V.t.e.e.q.b e OXgXC.C n.T.Z.Z.T.Y.R R R R K S U U I f ^  X+.Z 7.Z Z 7.Z y Z Z Z b b y 7./.@Xf.: X.=.D Z K K n r B B c c c x x x Z Z.U.!.~.o.Y +.E.E Y E I.I.S.D.E Y ] D ..h >.<X^ k F | } A o.K.S.D.W.t.t.t.R L r c t.U x f k u g SXKXoXp v q.5.q.q.e.5.9.j.b.5.e.4.y t w e b r c z c t.!.Z L b 8 w b 6 R.mXoXs S ,.*X'.s B.6.y.6.6.7.e.y t 6.e.b r.w.b 8 4 e z J c z C R R f K R d b p.H x z z z P P z J P z z x c b L I k ~ Q 7 9 z V b v 8 ..CXcXk U q.L.W.V.H.V.r.V.j.j.j.e.e.k.k.Y./._./.}.}._._._._._./.m.g.7.7.f.p.Z.",
"5.5.y.b.m.y.i.q.b OXhX_.j.y.Y.Y.Y.!.!.T./.T.k.f.L q.J J H '.1XO.y z.z.9.9.0.0.n.n.m.m.m.(.@X(.(.H k '.].K 7.9.j.g.9.4.7.s.a.a.7.7.h./.@X}./.C.D.d.Z.Y.T.Z.T.T.!._._.T.f.R R R ..1.3X..} N.N.N.| N.| N.B.r.t.k.g.t.w.q.c V z A A k & ^ KXKXsX; z z e z 8 e 6.6.q.F.t.F.Y.Y.p.L J H 9 9 8 z V S.O.H x r z n 7 ^ BXXX6 x ^ 3.%.x q.j.y.e.e.e.y.9.n.j.5.q.y y t w e b b J b q.Y.T.V I ~ k k e 8 z D.S.f s z N.J z J r.z z b q y x A h ~ ' S V y q.6.w.+.CXHXW.r r.j.Y.g.y.g.v.v.b.P.b.b.q.c.m.m.m.m.c././.^.^.n.m.P.P.P.m.m.v.m.9.j.",
"m.^.m.n.b.b.y.j.c '.VX+Xq.j.V.V.H.W._./.k.k.Y.t.f.j.u.t.B.XXzX#Xn.m.z.m.z.9.z.0.m.m.P.(.(.m.9.9.L o.:X1XJ 9.z.z.z.z.z.c.m.m.m.P.P.(.(.0.9.7.d.d.f.p.Z b R R Z.Y.f.Y./.j.a.F.t.[ '.9X&.{ V.G.W.W.F.W.V.H.F.H.^.j.q.i.t.J U n k s ; < rXKXKXDXa @ $ + + @ $ 9 S | O.B.A.O.+.+.o.} k - @ @ @ + * , * ; @ + & o qXKXvX; i Q ) 1.6 { J c c e c t.6.t.F.t.j.Y.s.L J U U 0 s p z S o.g 1 1 g g p x W.+XhXhX8X$XfX2XW.$XfX+X2XfX@X}._..X:XCX{.f J q.6.w.J ..NXHX.XH _.H.Y.Y.k.k.m.v.P.P.F.F.q.j.k.j.j.t.a.7.k.^._.f.f.m.P.m.m.y.6.9.c.j.",
"}.}._.Y.Z.Y.L.B.0 yXHXoX@.J.W.D.D.D.W.Y.Z.d.V.W.Y.t.V.V.G |.NXoXZ /.(.P.m.m./././.m.(./.^.j.6.g.B.%.sXnX!./.(.P.z.z.z.m./.P.P.(.P.m.5.7.Y.Z.R U R R L R s.R I.D.B.B.Y.t.t.t.t.| {.tX} J B.A.J.J.t.J.W.!.W.V.V.V.t.V.B.U N.m h ] ~ < 3.pXAXGX3.* h *.1.=X=X^ a ] k k k p ; h g h ] %.:._ Q k _ _ :.[.$.g > ) AXJXKX:X*.3.>XqX< 7 6 $ $ @ $ s ; ; p s p p d k a * O . . o o o o O O   o * a %.'.%.%.*.%.`.*.o.+.K.F k &.$X].A o.k 1.GX3Xk P s s s u o aXKXoX+.K.P o.R C.V.F.L.t.Y.H.B.U A.S.O.A.O.Z D S I o.s.T.Y._.Y.N.N.r.V.Y.!.",
"- # - 7 - - 9 7 =.SXvX%.~ p f A } A 7 } O.F ' m s x S k : ` xXiX- 4 _.@X_.f.w.x L L L C P x 9 s f N 6XlXX.r /.@X@X/././._./././.^.Y.V.D.].].K.&.O.O.I.W.+.*.+.+.R.@.O.U I } @.' 1XeXX.N.S.@.@.A.A.A.@.A.| I | | N.A.I ] %.*X;X,.^ ^ |.xXDXSXDXBXFXKXKXHXKXvXqXtXsXnXzXuXrXKXKXKXHXKXKXKXKXKXKXKXKXKXKXGXmXvXxXwXbXBXsXiXwX>X_ < * < Q >.) ) ;.) <.>.! ! ! |.rX:X;X<X<XrX<X;X;XvXqX&XdXiXeX:X<XXX^ ` ! Q $...=.*.m k ~ ..R.'.p o ;XKXKX:X`.$.] ^ h ! aXpX^ k .., , * p ; u j f d s d f a ; k .., p : - X . - ; - # 6 p g s p 7 7 ",
"N * & * : a p a 5XHXBXXX%.^ h : , : a a k k ~ ~ k h h Q Q -XxXcXa + + - $ # + X . X . X X .   X o > >XZXXX. e Y.!.x 7 6 6 7 6 6 4 - $ + $ $ % u 7 6 p a p ; - @ @ ; ; @ - ; @ & ;XrX$.m s m k 6 ; s f A A A a p u ; * > iXMXoX1X9XzX:X;X;X*XiXHXBXlX:X>.>.6X;X;X|.>.XX:X6XiXvXBXSXDXKXKXKXKXGXHXDXsX1X1X X=.1.-X|.` *.1.-X5X1X:X:X3XtXiX;XwXaXkXsXyX5X:X:XsXsX1XsXsX3X*X*X:X:XvXSXsX:X|.:XsXKXKXKXKXKXJXKXHXVXFXCXCXHXVXVXFXuXeXFXBXnXmXGXGXCXsXjXcXvXSX<X1.tXMXmXnXcXiX<X|./ X.X...] $.1.XXXX%.=.1.1.1.1.'.=.%.1.1.1.:.*.*.X.^ ",
"HXmXcXdXzXVXeX<XyX5XOXeXzXuXiXiXrX<X;XOXFXHXMXnXcXcXGXDXxXwXaXBXeX{.%.1.=XcXBXsX;X;X[.:XnXsX:XnXnX;XkXvXrX~ $ o * < a h ^ k h a h h p g g h $.rXiX[.*...k Q 1.:X:X:X*X1. X-XXX1.CXKXGXeX=X3XeX*X1.:.3.;X;X3.*X*X[.) 3.bXKXHXf S Y E ] h ^ h Q %.^ N ....X...h < a < a a h < 2 , ~ _ ;XDXqX*.X.] 7 - o.C.C.U.x f k k x 0 d p s k d k k a < XXXX*.D p f d p 7 7 s D k 7 p p 7 d a N D k k d N N a %.*X6XBXZX=.+.O.+.W.!.+.f f S E =./ ~ ^ >.XX'.*.'. X1.[. X*.1X1X=X<XeXmXKXKXKXHXsX3XtXjX9X:X1XoX X1XuXzXnXMXjXsXKXKXKXlXsXFXFXKX",
"XX1.[.=X7XOX.X XXXQ.=.=.=.E.1.1.[.XX>.=. XOX1X.X<.%.|.;X3.^ %.eX1X9XdXnXnXHXKXKXKXKXeX1X9X8X:XuXsX:X;XcXmXtXtXsXsXzXnXCXVXNXlXyXnXnXVXKXHXKXKXKXJXvX=X{.oX1X9XuXVXFXVXzXVXFXHXFXnXsXcXnXnXmXCXGXKXKXZXKXKXvXvXSXHXSXcXdXnXsXR.O.4 9 9 6 - & @ ; 7 S B.!.E...p a k k d k p ; ; ; u g %.dX>...O.K x V f.f.e.a.w.R ~.F J r.H z z n P P R Z f D G U Z.B.V.d.U I H o.S.S.S.W.!.E.D.S H L w.F.t.J 9 7 ; , * |.1Xk s c H U x x z v J z s S k p d x D x s 0 D A x D I S k p , > ;.JXKXyX$.]  .'.~.E.'.E.Y =.~.E.=.R.G +.%.ZXKX5XX.E.Q.:X",
"f.C.O.R.U.!.!.C.s.s.p.f.Y.Y.D.R O.O.O.Z r r x Z o.f - - 6 s 6 0 x C.o.A u s a %.BXFXD y 7.Z K x s D a X.'.R.R.*.m } o.*.*.*.*.X.*.=.'.:XoXeXDXKXJXmX' 6 x P n 9 G o.D D D G A Y Y k d ~ ] ] ..*.oX X%. X1XXX1.:XoX,._ h < ] #XZ.6.w.w.H z s 7 s z e y t e e x G S f x A S x s s p 6 a %.- . 4 w 6.j.w.6.5.j.B.o.9XF 8 w 4 v q.u.j.y.j.7.a.a.e.y.F.F.t.w.6.C q.d.d.L L V.H.L.t.C q.g.c.y.F.V.q.J m j $.CXMXz v 5.q.F.j.q.q.q.u.6.b J r.V x Z p.Z Z K x z L w.t.r.r.J n - O iXFX~.U B.S.S.W.W.!.D.I.S.O.Z.Y.f.k.F.D <.KX1Xs b Z 7.",
"f.t.e $ 9 p.Y.Y.j.a.t.b.b.b.n.k.j.e.f.n.L.j.a.n.Y.W.I.O.I Z C b 7.7.p.w.J L 9 ~ HXnXE.m.(././.f.V d.9 9 r C q.c J J J J U H S S x x H W.E...3.JXKXKX,.8 r b q.J r.N.p.x x L V Z K R C.U I D I H x 0 x x 9 9 4 9 9 9 z p s d x L 5.k.e.w.V.V.U V b y 6.4.w.w.w.w.J r c b V J e e V b r e z 4 t b i.B.t.t.V.L.A.X.eX$.+ 4 r.).).F.b.9.9.9.y.g.m.j.q.q.c K L e.y.j.7.y 6.e.n.Y.k.w.C 6.e.y.F.W.).t.{ { n MXHXJ w t 4.5.q.q.i.i.q.5.5.y.j.Y.w.q.q.q.e.t.r.q.t.q.q.t.e.i.J 6 k lXVXs.y j.Y.^.W.L.Y.Y.t.c w y c.m.m.y.V B CXzXV n.g.m.",
"b.^./.}.).F.L.L.g.b.b.b.b.v.m.c.m.m.n.m.b.b.g.y.j.Y._.!.F.n.^.c.P.9.0.g.c.g.e *.KXsXD.y.l.m.v.9.n.m.L.a.j.g.5.v.i.j.j.F.q.v C w.w.q.q.w.b s g cXKXSXR.q.j.y.b.j.j.L.g.a.g.j.Y.a.a.a.a.b L p.a.w.k.j.k.e.t.a.C 7.w.p.k.Y.^.Y.j.L.b.e.e.w.7.b C r r 7.7.n.^.F.b.m.^.c.e.e.b w.e.e.g.g.g.C J J j.F.W.W.Y.Y.f.Y.U %.GX*X@ n W.R.J.J.F.m.j.y.F.b.k.j.q.z 6 f B.J i.t.6.6.j.t.L.).W.F.t.e.e.t.t.j.u.F.A.@.[ j u 8 j.y.b.b.i.i.e.y.9.g.g.b.t.Z.L.t.t.q.q.q.q.q.i.F.F.q.6.q.n - *.CX2Xs.b.b.k.b.b.y.j.g.n.j.L.^.9.9.v.v.t.I 7X2X7.c.z.c.",
"L.W.@XhXhX}.^.m.F.m.j.j.j.F.m.v.^././.^.^.L.b.L.F.e.Y.!._._./.^.^.m./.m.c.g.w =.KXsXp v 8.9.v.^.^.n.L.F.m.v.P.v.y.5.i.b.P.b.y.y.4.4.5.5.e 8 p ;XKXGX*.J g.e.L.Y.Y.Y.g.g.g.b.F.e.w.j.L.Y.Y./.k.y.g.n.j.g.g.k.y.b.j.g.n.L.m.^.^.^.m.F.t.w.6.b |  XE.U y.c.m.^.c.P.m.m.9.L V L Y.V.b.y.F.D.W.B.B.O.S K L L R Y.R =.HXqXO k {.] g ~ F J H U B.r.r.B.W.`.&.oXVXW.z F.J J | J A.W.W.V.t.r.w.d.H q.t.F.| G d ~ {.S b e.r.N.q.q.t.f.f.n.Y.E oX.XB.A.V.t.q.q.v v z { N.J J n n u XXcXY 0 e.e.t.j.^.^.}.}.}.}._._.g.j.j.i.z G 7X.Xp.k.c.W.",
"6 6 s A U U L Z.Y.d.L V p.Y.N.V.!.!.!._.Y.Z.f.Z.t.R E..X!.W.V.w.V.t.Z.Y.F.Y.x >.bX<X& i J H.W.W.H.V.V.F.W.W.F.y.b.t.j.u.F.F.F.m.j.j.y.5.7.b R.:XDXKX,.S f.d.Z.d.d.d.t.F.V.t.W._.W.W._.}.}.@XfX@XL.L.L.j.j._.^.^.^.L.L.Y.L./.^.n.L.L.j.f.Y.C k vXKX Xe.g.c.P.v.v.c.v.m.t.O.x 7 6 8 9 6 7 A k D ..m d 7 7 0 x 7 ^ BXKXcX1.Q Q 2 O o ; k k ~ a d k ~ $.$.=XMX' 7 f * * j &. .J.K.S z p 7 7 p m  .&.*.$.^ aXmXk 7 G F ' k m S R d.H S f 7X=Xa ; - $ @ 6 u u s 6 7 m F u u , [.vX XN 7 4 8 z H B.J.W.!.].R.} V G A j ; ^ sX XS D.K j ",
", < , & D R.E.E.C.Y +.Y .XOX~ g X.+.+.E Y +.E.E.!.E.E. XE.[ *.R.@.O.!.W.P A a ;XKXJX) . . X + + ; 6 a [ @.J.d.J J J U U D.W.V.F.Y.Y.Z.t.m.r.K.'.aXKX>.; E E.E.R.W.!.+XW.} } J.{.$X#X].~.~.~.!.!.W.W.!.+X_.+X+X@X+XW.D.H.Y.H.t.p.V.Z.t.Z._.Z.X.bXKX'.y m.m.m.m.m.c.c.j.t.K d.o.'.1.oX3XXX<.1.XX7XCXCXVXnXnXjX X1.iXKXKXsX<XrXHXAXaXaXcXdXBXBXNXyX:XXXcXKXHX^ * p g ~ h g g k D *.+.*.$.^ ^ ^ a & . . o aXKXQ @ , & . & * a a a u p a qX,X>.%.h Q ) :.:.:.%.a N :X9X=X1.Q &X,XbXKX:X] $.] g : & X . . o < h ! |.6XaXAXmX*Xg ~ ] g ",
"KXKXKXGX X+.*.*..XjXCX X=.OX3.:.:.h h ] / X.X.] +.=.X.1. X$.] ] p p X.'.&.~ k iXKXKXKXcX%.Q 1.1.'.1.^ ^ f 6 7 7 7 a a a s s f x 9 s S x J J 6 < qXJX|.: a ~ m k A m ..g u u & , ~ ~ g a a a a k k z F K.J.} A } | { | K.W.W.!.].!.W.W.!.+X_.*.kXKX.Xy ^.^.m.m.^.n.m.m.Y.Y.I.E..XOXcXFXKXKXNXiX:X4XeXiXsX;X<XeX..a ^ X. X=X[.*XdXKXwX;.<.|.;X6XiXvXkXGXKXFXrX-XsXKXKXKXcXsXVXnXCXKXKXKXKXKXHXgX7X8X9XuXKXKXVXuX7XqXdXHXHXnXsXdXnXnXrXrXaXSXKXKXKXKXKXKXKXCXlXMXKXKXKXKXiXwXxXxXaXHXKXKXSXrX<X*X:.3.&XqXGXKXKXKXHXDXpXrXsX1.[.mXKX",
"GXmXsX:X1.] X.o.'.1XoX X1.sXKXKXGXoXE.=. XoX1X1XOX7X-X5XeXsX1X1XoX'.~ '.CXGX=X=.[.qXDXGXiXcXHXlXnXCXtX2X%XE.+. X1X5XyXeX*X X*.G s s A S S 9 - a *XqXdXeX1.o.[ m p i p $.:XrX<X<XrX3X1.^ 3.3.3.=X=X,.*.*.*.$.$.$.$.%.%.*.=.E.+.R.R.R.R.R.K.S X.lXHXOX9 V V x x 0 x c 7.e.Z U S.+.E X.*.:XlX%./ ^ < < < , & * ; p ; 6 7 7 k k < :.DXvX) > Q / ` / ^ ^ / ` ^ %.*.*.%.oX9XsXsXuX X*.1X:X:X=X<X3X~.fX2XU.~.9XgXgX%X7XvXKXiX<XXX:.:.,.%.1.;X3X*X:X:XXX;XiXiXXX X X1.*.%.*.X.< Q ) ` ` ! ! %.%.:.[.;X;X*X,XDXKXHXCXeX6X-X>. X:X=X3XsXdX",
"p : p ~ ~ .. .' [ $.~ X.^ $.SXKX:XE.O.*.*.*.,.*.'.1.=. X^ ..X.Y Y o.o.F R.].*.Y a k g < ^ ` =.*.X.=. X'.*.*.E.'.1X7X7X X'.X.oX'.K.~.+X+X~.W.R.+.E E E U..X!.V.V.J J R R.uXKXKXKXHXBX<X|.iXcX6XcXKXKXKXvXcXKXKXKXKXKXDXZXlXzX8XoX.X.X~.].].X.*.7X1XoXo.0 I *.1.1.X.E.s 9 x x w.C V H F ~ ..h a p 7 f o.@.o.[ m A m P Z p.c S d p =XrX$.g d f 7 ; f m s p s f A 0 4 9 A D A s f F F m 9 f 7 a L Z x 9 r s.T.h.U.U.vXKX^ ; a p , p ' ^ k k d f f N f f N N D s d k k 7 ; : ~ ^ ^ ^ < * > < a h h h _ ^ *X6X! 7 - a d - 7 d f k k a ",
"z A P P { &.{ { J.K.}  .a Q >.XXN R Y.E E E O.C.B.B.O.O.o.L d.U d.Z.V.L U R s.B.| I A D o.D G O.I D O.S.I S.E.+.D.E.C.D A f @.O.B.D.V.Z.Z.d.o.o.K x x K d.d.w.d.r.t.Y.R X.lXSXBX<X>...=.1.%.%.1.=.%.1.X./ 1.;XXX<XBXKXMX'.E.U.E W.W.D.W.W.E +.+.G o.D.T.+XjXBXKXFXuXfX2X2X!.C.e.t.t.v z ].' n J.!._._.W.V._.+X~.W.H.j.^.^.).B.G '.[.k f z 8 6 n J r.x H x z J C J J J J J S n n z x L r.U H N.r.U q.t t 4.q 7.r :.nX[.s [ } *.R.*.=.+.G D A S I x 0 0 f s f D x G R.*.k N ~ k k k k D D k k m k j ~ XXOX..z x x x 9 s p 6 s A x ",
"J q.t.{ { N.N.{ N.| | | [ X.5X7XY p.Y.T.T.T.Y.Y._.k.t.Z.Z.k.a.w.t.k.7.7.p.f.p.d.Y.Y.t.d.L p.w.r.L R U J J B.U V 7.a.k.k.Y.Z.Y.t.t.e.e.g.j.j.k.f.Y.V.t.V.r.7.a.k.Y.n.g.a.D iXGX=.d S S D G [ f 7 7 7 7 7 d 0 f D : < :.'.S Z 6.t.t.Y.Y._.^.Y.Z.p.L t.Y.^.f.R.; ( iX=.+.+X+X+X+X!.Y./.6.R CX1X| $X+X}.W.V.V.Y.T.+XY.g.c.v.m.F.V.A  X=X~ k z 4 $ z L t.t.d.J b C w.6.6.C z e z z z z z z x H H n z n S q.9.z.9.9.x Q eX].| W.V.| S.R.+.+.+.+.O.A.B.U I A A o.D D G } R.R...*.] ~ ~ m k m o.+.} @.K.' p :X8XA.J J J c z z z s x P J ",
"| B.N.J J N.N.J J | | { $.$.nXsXY Z.k.^.m.m.c.c.e.a.a.a.Z a.a.L.Y.a.a.f.a.a.7.f./.Y.k.k.f.k.a.t.L.k.t.q.t.F.j.7.4.7.9.c.c.9.7.5.8.9.v.m.c.c.m.c.n.L.F.j.j.7.7.c.m.m.P.e.D BXKX'.z c y C J J J c r.Z.Z.D.s.!._.!.[ *.dXE.C m.P.^.^./.m.^.^././.m.(.(.(.m.Y.G ~ >XSX1.D Y.Z.+X+X+XZ.k.Y.D.2XoXo.R.W.N.R.W.W.Z.!.f.t.^.^.b.F.j.J A mXKX$.u p s P U x J z z c r.H c q.J J z z z | J.| A.@.P | | n m s z A.j.8.9.6.4 3.sXo.P N.V.{ | R.E.*.R.*.| { { N.@.} &.*.[ F [  .&.&.[ ] ~ ' ..' m ' @.@.{ J.`.{ , %.3X{ c J q.J J J N.| | { | ",
"[ o.K.R.O.S.W.S.B.*.&.j * 2 <XeX7 G C.g.g.c.9.5.V.Y.p.Z T.D.Z.d.K V B E U.p.Z }.@X/.k.f.T.Y.w.w.w.p.p.r.t.j.9.v.c.9.8.8.4.9.c.c.v.m.z.z.z.m.9.9.c.m.m.m.^.(.m.m.m.m.v.y.I :XmXR.r j.j.e.i.i.j.j.y.e.w.f.p.w.j.t.S {.HX+Xt 9.v.P.(.(.P.^.^.(.(.(.(.(.(.(./.D %.KXKX1.f w.e a./.7.y 9.W.| k < h *.*.`.`.`.$X#X+XL 9 z v v J P 6 , mXKX:.2 ~ j &.' n | { P s n { { { n i ' {.`.].$X1X2X#X`.R.].#X$X`.n &.*.P 7.r 7 aXHX~ A N.| { &.$.~ ~ ~ j j J.&.' m ' o.X.~ ~ ~ j ~ ~ ~ , 2 ~ ' &.'  . .F ' R.&...~ :X1X .V.V.N.N.N.J.{ m &.,.o.",
"< < h ~ ..+.*.*.X.$.] h * ! xXvXO X ; 4 9 x U Z.+XfX%X+..X2XoXR.E.oX8XuXgXR.D E E.E x s G o.} I S o.G m I 6.y.P.b.9.9.9.m./.f.n.m.c.9.m.m.m.c.f.c.m.9.9.0.P.).P.P.v.y.w.A sXDX'.e q.q.F.t.q.i.F.j.w.e e t.t.j.Z.@.'.GX+Xe 9.v.^.(./.^._.^.m.(.(.m.^.^.^.Y.I ] AXKX%.$ t.c.m.9.9.9.y.7 ; *.>.> 3 , , g g , : a 6 ; $ $ % X X o * 6XaX> o O & , g g u ; , u , ; ; & * O * g , , g * * , g g g Q :.$.u g ] $.4 $ < xXKXh 7 a ~ g $.$._ Q o     * ~ ~ g , k %.~ g g 1 2 < 2 3 2 W Q ] ~ j k k ~ g , . ^ nXdX] f F +.o.m F ' ~ ~ g g ",
"*X*X*X_ < > o o o < Q Q ` aXKXKX,X3.^ ; : @ @ 7 ] 1.~ < > 2 g ^ h ^ / / Q . . X o o @ o * ~ ~ k ] ..k < p 7 N.W.F.j.t.Y.}.).C.Z d.a.7.a.Y.k.p.f.f././.k.f.t.F.r.V.F.c $ k GXKX3Xs @.A.@.J.V.N.D.D.D.x 9 D.D.B.S...;XKX#X9 j.L.Y.).L.Y._._.Y._._.Y.Y.L.j.t.U j rXKX*X. P ^.(.^./._.a.a :.KXKXiX6XrX*X2.) 3 2 * * & . , ^ :.=XaXxXbXxXqXvXdXrX<X*X*X=X<X<XrX*X1.*X<X;X,X>X>XqX,X*X3.*X|.3.>.) _ _ :.$.:.1.1.1.;XcXKXKX&XO * Q Q ^ Q W ! ( ;X3.h < ~ 1.>.1.XX3.3.3.*X;X;X<X6X,X3.! h < h k ^ ^ Q 3 :.|.4XcXeXX.X   # a *.%.` ` :.*X",
"KXKXKXdXeX3X<XsXsXuXVXCXCXZXrX*XvXKXCXlXlX:XXXXXjXsX<XBXBXsXtXrX;X3XsXnXnX3X=X;XeXdXvXSXmX<X3.1.>.1.:X=X%.o + p } A 7 $ $ X # ; - $ # - 7 7 0 0 4 6 $ $ - $ @ 7 7 - - k :XHXBX|.< ~ ~ ~ ' *.o.o.R.R.R. .&. .m g $.GXKXXXd K r z x 9 x x S r K d.Z.W._.Y.H.S.[ SXKXSXh + e r.d.V.7 C.8X6XwXaXvXvXZXKXKXKXDXwXaXbXcXsXHXCXKXKXKXKXKXFXrXGXKXKXKXKXKXKXKXmXGXKXKXKXKXKXKXKXKXKXKXKXSXKXKXKXSXxXxXKXKXKXKXKXKXKXKXZXpX6XGXCXMXvX7X7XsXBXSXJXKXnX:X:X:X3X7X5XyXCXKXMXnXFXCXcXGXKXKXKXJXlXeX1XXX>.<XZXZX4X;.;XKXVXa . N  X*X4XwXvXHXHX",
"oX1X'.*.*.*.*.oXoX+X.X!.E.X.k k ] .X7XoXoXoXoX.XoXoX3XsXsXuX9X2XoXoX1XsXsXnXMXmXmXmXSXDXrX<XrXjXjXMXHXKXKXiX^ & , h N k ^ %.%.>.=.:X7X X'.oX:XOX=X3.^ ,.*X;X6XkXsX<X1.-XbXKXAXbXvXSXDXmXeXtX3X:X:XtX3X3XtXMXKXKXKXGXKXsX1.f # + X   X 6 6 6 $ + + + + + # + ; rXqXbXKXsXE.m 7 s a -XBX4XwXcXCXCXFXKXDXDXvXqXvXKXKXZXNXnXsX6X|.;X:X..Q ~ *.%.-X6XrX*X X4XrXsXiX4XvXBXkXcXDXBXZXHXcX;X5XcXbXiXaXbXZXHXcX:XNXyX=.3 2 `  X.X~.%.E D +. X:XKX-XN +.R.R.*.E E ~. X'.X.a d N a ~ $.,XDXcX'.=.'.E.X.%.^ ! h ^ ^ 3. X%.^ %.X.h <.bXNX1XoX",
"d.d.w.w.B.H.H.Z.U p.t.t.B.C.d.d.Z s.p.C.!.Z.Z.Y.o.D D D D D T C.!.!.!.W.O.G f k ~ ^ dXKX*X$.'.'.*.=.=.:XcXCXsX=X3XsXVXMXzXnXjXtX1XjXzXuX1X:XOXXX:XrXdXDXKXKXKXKXKXFXrX[.XX%.! _ 3.mXKXKXKXKXKXKXsX:X X:X:X9XBXSX<XQ ~ %.=.%.1.iX;X^ $.[.9X7XOX:X*X1.1...X.=.*.|.|.;XrXKXGX9X:XoX9X X%./ X.*.N k k k ^ h Q Q ! >XBX Xa s p 7 : 7 f s s f x 6 7 d k f p a 7 ; : ; p d : ; p a p d N N D k Q h |.XXh s ; : p ] k a s J x b b Z 7.7.Y.d.*.HX8XS C V.W.Y.d.f.T.T.R r r K R O.m ; _ cX*.- d U A.o...~ N k ] ~ g p ~ g p p * _ BX8X| b ",
"g.g.m.9.6.6.4.7.L.6.a.q.q.B.a.e.a.f.g.L.L.Y.L.b.Y.Y.p.w.V a.f.Y./.Y.!.!.Y.D.Z.F.P , <XKX*Xp [ o.F A o.] D o.~.%X+X~..XE.+.U.~.E.R.E.U.!.'.~.~.~.O.o.:.iXDXcXtX:X:XoX[.*.*.o.Y ..&.] ^ ^ %.1.>.>.=.^ h h h h h < a ....*.=.>.|.;X*X[.[.*.E.'.1.uXeX1.'.oX'. XE.%.X...k ^ *.*.*.S.C.E E +.+.O.I x S I.K.@.@.n u |.sX+.J t.r.V r q.j.H.D.H.Y.Y.s.p.C q.V.Y.U C.B.B.V.r.H S I V K R C.K c z f s oX X$ 6 s s z H U J 6.9.7.7.9.9.8.8.9.e.S.MXfXw.7.m.^.j.7.6.f.k.7.m.b.L.r.H.J.n 3.KX9Xo.R r.B.P } *.+.o. .&.&. ...' ~ u , [.KXhXw.4.",
"n.b.b.9.e.g.n.m.P.k.7.t.H.V.w.e.g.b.n.y.y.y.n.j.b.m.^.F.L.^.j.e.y.7.7.e.e.t.G.P.F.n mXKX=Xk B.P P N.A.| R Z.T._._.T.T.Y.Z.Y.Y.Y./.}./.}.}.T.T.T.Y.k.A 1XnX'.o.F o.W.@.F F S x H | O.o.d s 7 : N +.=.+.] ] D f D N d D '.XXXX|.|.3.1.'.*.O.E +.yXOX..X.E.+.+.R.R.s d X.D F F P P d.t.I.E W.D.O.o.S.!.W.W.A.| R.nXjXO.r.F.i.t.F.F.j.F.L.Y.e.k.Y.p.w.F.L._._.Y.V w.e.Y.j.w.w.a.a.C w.C w.q.U f #XoXf J v J 6.i.F.5.9.9.9.0.9.9.9.z.8.5.D.uX].C j.L.^.^.L.W.f.h.^.k.g.j.Y.D.| m =XKX7Xk @.O.J.J.K.J.R.R.R.'.R.R.*.o...k , $.KXgX7.m.",
"Y.j.e.y.e.j.L.F.t.p.Y.Y.d.r.w.t.t.k.^.^.^.^._./.j.b.L.j.g.L.F.q.t.t.a.j.j.j.y.i.q.f =XKX1XA L H | A.W.!.W.t.9.9.c.m.m.j.t.p.g.m.n.m.m.m.m.5.7.f.z.(.d.$XfXW.V.r.C 6.c C J b b b e e Y.p.C x +..X=.U.E.+.U.I.C.C.C.E +.XX:X*XXXXX|.:X=.o.C.I.*. X*.' } o.} G I.W.W.!.W.R.D.C.I.S.D.D.I.+.E.A.S.@.R.W.B.W.R.R.] :XMX].J V.N.J N.H.Y.L.Y.Y.Y.s.C.L w.j.Y.t.Z.Z.Z.Y.Y.Y.Y.Y.Y.)._.L.W.Y.Y.Y.!.K.oX9Xk i w b t.i.q.y.c.m.m./.h.h./.v.t v o.oXR.H r.Y.Y.Y.H.W.R s.Y.Y.Y.Z.Z.S.R.~ _ rXXX$.&.o.o.o.@.o.| @.} &.&.*.`.R.*.o.g _ HXoXH g.",
"P U J N.V.B.N.J P K d.C.R R R C.s.Y.Y.Y._.Y.d.Z.L L t.w.L | A.A.J.R.t.Y.Y.W.H.F.U $ 1.KX:XG W.E.R.K.W.+.I K.F.j.9.c.m.y.j.j.7.7.c.m./.^.^.c.g.g.4.0.Y.#X$Xc q.L.b.y.g.e.y y 4.t 4.t 4.7.b.N.R.'.+.U.I.I.U.U.I.S.I.+.+.XXXX X:X:X;X:X'.R.Z.+.+.X.k o.| | A.@.I.W.D.!.D.+X!.!.+X+XW.W.*.+.R.K.J.J.K.@.o.'.].$.^ qXsX] } A.K.O.S.].!.D.B.D.S.o.S.D.D.V.t.V.D.Z.V.D.Z.V.d.Y.V.V.V.H.W.Z.k.p.W.R.'.1X..F | F m { ' P V V c V Z s.Z e.t.S a 1.X.f S B.!.R.+.R.+.D O.W.].U.I.+.X.~ . 3 ) 2 h X.X.X.X...k j j ..o.{  .&.*.*.h ` GX[.; 4 ",
"@ 6 p A S A f a p 7 - - 7 ; @ @ @ - + $ 6 - - ; ; - p d s j k j j k G x f A F 9 $ ; GXKX[.p k k k a k ] *.*.H.W.H.e.y.e.w.B.D.C.D.f.d.Y.Y._.Y.d.Z f.E *.#XB.7.a.a.7.7.c.y.y.g.b.m.c.c.5.i.J ; g ..E.E.E.E.I.o.R.*.] ~ 1. X X-X:X:X:X=.E I.R.E.%.^ *.R.R.*.R.R.S.} S.'.#X].#X].R.R.*.*.*.*.' &.'.`.o...k < * 3.HX<X, X.[ [ *..X8X%X].'.=.*.E.R. .}  .} P @.@.| } +.K.@.K.} | @.J.*.@.T T o.; N ,.p 7 ; ; k ' ' ..E.*.+...k f 9 s z 7 X.MX*.@ @ + 7 p : ; p p 7 7 p d f p ; 1.vXKXcX3 < ^ %...k ^ X.^ , g g s k s a a > 6XKXqXO . ",
"eX:XoXX...N %.%.` >.|.:.Q 1.3.) %.*X3.*.X.%.1.%.:.3.:.%.%.%._ ^ $.^ : ; & & h $.< _ KXKXaX) %.%.^ ,.XX:.h h m } } K c 9 9 6 ; ; 7 - - 4 6 ; ; d 7 7 : XXjXE.Y.Y.f.f.a.a.k.).@X@X}.L.k.e.q.j $.3X~ - f X.D D ^ ~ h Q ^ ` ` ! h a Q k k a d ~ k ^ _ g g k *.*.+.o.o.&.k , @ * p g _ %.1.%.~ ~ ^ *.*.^ %._ ! *XDXKXDX|.~ *.*.X.1.=.X.X.=.XXXX1.*. X1.*.$.X.*.*.R.*.X.*.1...k p p ~ N k N k h ^ <XsXoX%X1X9XuXuX9XuXzXCXCXMXjX9X1XoX@.[ 3XHXCXjX9X8X1X>.1.1.:XoX*.] .X8X'./ XXCXKXKXKXcX:XXX%.^ X. XuXnX1.^ >.'.'.'.X.N X.BXKXKXGXnX",
"NXuX7XOX X-XyXkXbXSXDXaXaXcXDXGXGXHXKXCXdXcXmXmXDXKXGXmXBXMXnXcXnXyXeXsXsXsXHXKXdX<XcXSXaXrXlXlXnXCXKXGX:X1.*.Y d f [ *.*.%.) _ %.~ a p p ^ ..X.^ %.%.cX7X7 x C.s.L d.Y.!.Z.H e 8 9 x r x p ;XKXZXmXsX1.%.XX X1.%.` ! <.` ! %. X XXX X^ h ^ ^ |.dX*X_ g h h a g ~ ^ :._ [.<XcXKXKXHXKXKXKXCXCXtXnXHXKXKXKXGX6XiXKXKXsXMXCXVXeX7XjX7XXX:XOXeXsXCXHXvXGXHXsXoX7XlXCXNXNXNXHXNXsXnXNXsXkXkXqXKXGXoX{.1X9XoX'..X'.*.*. X1.*.*.=.*.R.@.o.R.'.'.oX1X8X9XiXKXKXCXVXuX%X8X8X8X7XzXjXXXXXsXMXjX2X.X%X8X9XzXVXVXFXFXhXhXVXVXuX9X X` eXMXzX",
"OX.XE..X2X7X5X|.4XvXaX*X[.1.[.;X:X>.*.=.*.,.:._ ,XvXmXiX*XOX1X9XuXeX9XCXGXMXHXCX:X:XoX>.>.%..X X X1XXX1XjXMXzX8XoX.X9XrXwXDXSXcXKXKXnXMX3X9XsXsXCXdXkX:XX.E } O.B.C.C.E I.O.A o.+.+.o.9 N 7X<.6XbXKXDXcXBXGXCXKXKXKXKXKXKXcXKXKXzXsXyXcXHXBXqXqXSXSXdXdXsXdX:X1.:X:XuXtXdXvXSXAX,X` %.uXOX1. X X:XsXOX XoX%.~ Q ^ N k ..*.*.X.E.'. X'.%.%.^ >.1.;.vXKXKXnX XX.7XzXlXlXZXNXzXFXzXlXHXGXmXGXBXqX[ [  .E.E.!.~.E.O.O.F F G S x 9 s x n P S f f f 9 p ! aXsXX.R.W.+X!.~.U.B 0 r f d 0 x x Z.T.T.s.Z E Y d 0 0 0 r E ~.~.~.~.E o.C.~.",
"T.T.k.0.f.R ] =.yXdX^ ~ k 6 f 0 0 9 x x x k s , >.:X7X.Xf o.E E.!.].+X8X2X%X8X8XW.S.W.x f D D f f D Y E.!.].R.O.I +.1.! >XKXaX! $. XX.X.k a k ^ ^ X.N X.=.!.].!.!.W.D.C.O.S.R.1XoX'.R.o.E.'.` ! / ^ %.%.%.1. X'.'.:XyXbXKXnX'...E +.+.oX1X:X,.h g ,.1.XXXX1X:X;X:X+.a h < |.JXxX! : - : 7 - - f f f x s 7 k d d A Y D m F o.O.E.E f s D d - : : o ) 6X<.] E +.=.X.] ] d N D ..D D ..%.*.^ ..^ O.D.E.W.W.W.!.D.t.r.q.r.t.e.w.U U d.V.t.e.w.t.r.J F W *XXX7 Z k.n.f.k.T.k.k.n.f.T.k.Z 7.f.h.T./.T.s.r r Z T.f.7.7.T././.Y.T././.T.",
"(.(.(.(./.7.Z +.uXuXm x L w.Z t.a.k.f.k.Y.t.U I oX'.x Z R p.Z C y t r r r e 5 e t.C b e b H q.V.r.Z Z p.Z 7.w.H 9 9 8 @ ` JX,X~ ' m P } [ }  .k s x x H L L R Z.D.Z.s.Z.s.!.!.!.@.| D.Z.R L K I.E o.E E E K T T r K 0 %.MX1XA C.D.D.E I.U.+.o.[ m k 7 f k [ N a a a 4 . . Q KXKXE.- S b C b b Z V e 8 c d.P D.Z L K 9 x n J H L L D.Z.x R x z s p %.eXD 9 y Z r L U r x x H L H H U x 4 e 9 x b L d.Y.Y.Y.Y.^.F.b.F.F.b.b.j.Y.Y.a.j.i.8.5.e.j.t.p * >.:X0 q 9.e.g.7.L.Y.L.g.g.g.g.b.b.a.7.j.Y.k.Y.Y.Y.a.j.n.n.P.(.(.(.9.m.(.(.(.",
"M.(.(.m.m.9.7.I.oX[ p H F.v.Y.k.b.g.f.n.g.b.t.J oXoXI p.a.7.6.7.9.c.a.7.Z b r y 6.w.6.y y 6.y.9.g.e.y y 7.9.n.Y.j.y 8 s :XKX%.S N.t._.D.W.W.N.N.V.j.t.e.q.t.k.Y.Y._./._.}.}._.}._._./.^.k.a.7.t.a.t.Y.t.F.t.a.e.q.q.e +.zX.XV j.Y.Y.Z.D.T.E R R R I x K U O.D 7 d f 9 ; & 1.KXKXK.s q.5.5.4.5.5.y.6.g.j.6.b v C e $ 4 9 z J c b Y.p.b Z V b v v 6 '.MXO.4 8.4.7.4.t 6.6.e.5.6.4.6.5.a.7.y 4.4.C w.w.7.5.9.y.y.g.b.n.c.9.9.c.e.e.e.F.y.z.8.5.9.q.6 _ DXHXE.t 5.7.f.a.Z.d.d.p.w.t.t.t.W.}._.W._.}.}.}.@X_.n.M.M.(.(.(.(.(.(.m.(.(.",
"h.(.(.(.(.0.e +.nX=Xp P t.j.Y.F.L.Y.Z.Y.Y.Y.U A {.9XG H b w.w.5.6.b.Y.J V e r V.t.r.6.y y y 5.7.6.6.5.g.n.c.9.c.m.m.t.I eXKX:Xx b t.F.j.a.y.b.P.b.b.b.b.i.g.n.m.m.m.m.m.(.^.^.m.m.(.(.P.m.m.v.m.g.y.y.5.y.j.m.b.y.i.6.+.zX$Xk.9.L.Y.Y.Y._.k./.T.Y.f.p.w.q.w.t.V G x A m * :.KXDXX.6 J q.6.q.q.e.y.y.L.j.e.j.y.b y t b C r z w c t.!.K Z e 8 v z 6 =XMXX.w 5.8.9.i.5.6.7.7.w q t t 4.^._.9.5.g.j.t.j.j.6.6.e.y b w.7.C C Z w.q.r.r.V.w.7.a.e.C 8 j DXKXKXE.z 6.9.9.f.n.c.Y.!.+XW.| | J.!.}._./.@X@X/.}.(.(.(.M.(.(.m.h.(.(./.T.T.",
"7.n./.@XT.7.9 %.HXHX^ ] F U V.V.W.A.A 9 x K.o.k 1.tX[ I B.L L V c V.P n F A } N.N.O.J C c v 6.7.z $ 8 r C 7.y 4.y.F.t.A :XKXyXR V.).V.Y.k.j.m.v.v.P.P.F.t.e.j.k.j.j.g.7.k.G._.Y.0.c.P.m.m.v.5.9.c.g.L.m.^.b.n.b.b.i.q.N zX8XZ.5.F.V.F.W._./.T.a.Y.t.k.j.F.F.t.S m A k * * rXKXKX:X; P 8 8 6 $ 4 J c L H.Y.H.Y.D.C.d.| x s 7 i f x o.[ A x z z k = qXDX%.8 i.q.7.q.q.w.L L U V J V.L.Y.B.p.Y.D.D.O.I } @.| @.} [ o.U I } F m I P z 9 s f f k k s g AXKXKXXXA U r B C.C.f.!.+X].!.D.d.r K R D.!.!._.}.}.}./.(.(.(.n.k.U.Z Z s.C.Z ",
"x s.T.T.x 0 7 %.HXKX) * h p u $ @ X o o + @ @ o :.rX%.a s d s ; # @ o * * * < u a k s k j p k S m s s 7 - 6 s z J J.J.o >.KXkX*.W.| O.O.C.D.H.L.F.F.H.V.U R D.B.B.B.I B K I O.s.T.Y.T.Y.V.B.r.r.Y.!._.}.}.!.Z.Y.L.H.x <.HXuXo.A.W.H.V.D.W.Y.Z.d.B.W.!.Y.F.r.z ~ $.o.k p $.cXAXDXrXo . X X @ ; 7 7 k G A f A f f k s k p & o . X . O & * * X .   3 KXKXiX, 6 8 s z z c z f D ..G +.K...D f 0 6 s s , p k p u p a p 7 ; * * * , : a p p * < < O .   2 qXSX|.* @ X . . < a # u ~ N D m ....E D D k s f 9 x B B Z B r 0 0 x o.0 E x ",
"k d B x - d X.|.vXbXcX6X1.< & & > |.BXnX1.g ~ 3.aXBX5X XOX:X:X:X5X<XrXrX_ ) 3.3.>.h h ^ ^ h < ; * * < h 2 < & o X ; g * &XxX3.h X.p * & ; ; ; s A x f f f k p p X.k : p ; @ X @ 7 7 - ; a g j d s s 7 - - 7 7 - 9 7 N iXZX;X~ k k A } o.f S @.@.F  .x x P F A 2 , 2 g : < |.bXJXDX;X:.:XsXnXnXsX%.^ %.*.1.*.h ^ 1.,.3.=XiXqX,X<X<XqX<XdXdX<X3.>.pXAXAXSXrX1.g < , , * * , h h h ~ p _ %...%.%.oX9X2X1X'.=X{.{.[.{.oX,.1.[.;XdXdXGXGXCXtXnXnXeX3.*.3.iXcXnXGXGXcXiXwXaX<X[.*XeXsX*X^ %.oXoX..*.*.*.R.o..X.XI.o.o.+.o.o.Y f %XKX9X",
"jXuX2XgXuX.XE.XX:X|.vXKXKXjXiXGXKXKXDXyXtXtX3X[.;XbXkXeXuXlXlXlXBXKXKXJXaXiXiXrXZXKXKXKXKXKXZXjX3X<XcXSXDXdXrX*X,.*X*XrXbXBXcX=.=XMXnXcXsXrX<X|.%.N ..N ~ ~ %.1.XX*.X.>.>.>.:.*.*...%.%.:.%.%.%.X.N h * o o # - 7 : >.BXKX6X$.~ g : ; ; : a a h ~ ~ h a a Q ^ 1.1.:.%.1.-X;XxXxXdXDXKXKXKXHXkXZXvXcXsXsXsXnXnXBXKXKXKXKXKXKXKXKXKXKXKXKXKXKXCXcXiXwXwXxX6XsXSXDXHXDXSXDXKXKXHXCXGXmXKXHXHXKXKXMX!.A.B.I H S.S.S.W.'.'.eXKXKXBXrXrX9XjXhX9X2X1X#X`.'.'.'.7XBXmXaXbXJXDXDXnXeX[.*X:X:X*X X=.'.9XjX9XjX1XuXHXVXhXVXVXFXVXVXzXVXCXVX",
"~.~.+.Y %X+X+XoXE.^ %.OXuX9X:XyXBX5XQ h ' k 7 a 1.7X X=.=.=.=.%.1.XX|.;XiXzXzXXX1.oXoX.XOX1X9X2XoX3X<XrXKXKXKXKXKXKXsXXXXXXX:X'.oX9X1XeXrXcXKXKXKXKXMXeXtXjXjX7X1X:XXXOXuXzXnXVXVXsXFXKXKXmXsXVXFXKXKXCXcXsXsXVXsX:XyX0X4X7XzXjXrXrXrX<X;XXXlXHXMXnXcXdXmXDXbXcXCXCXVXVXuX1.|.|.3.rXcX6XXX%.Q ` |.%.>.` ^ %.1.3.|.*X=X<XaXKXKXKXsX3XtXoXX.=.E.=.X.X.=.` > ^ ;XdXDXKXKXKXKXDXGXtX=XdXDXHXGX;X^ ^ H e.e.q.w.w.L L b B 7 : 4X6X$.g a p f f.d.c S U c z z J S a : o ) AXpX<.^ ^ p g k D ] +.+...+...} J.@.O.o.W.!.I.E Z.Y.T.!.W.E ~.",
"d.d.Z x o.Z L R x 9 0 D +.O.d k h p 7 k A z z z o.x I R D x x x k j a a +.E B D f +.+.D x 9 B o.R A j ^ *XmXiX,.1.*.D d N A c c I I f k < < ! xXKXCX1.]  .E. XE.~.'.E +.'.~.=.E.o.+.X.eXKXnX>.=..X:X:X[.[.=X7X7XOXoX-X X'.=.E.E.1.1.[.*X1.=. X7X7X1X|.<.|.,X;X>.X.U R Z S p : a * > a a k +.E.=...: p a a p a p * * & ~ Q ,XvX>.X.Y f 7 0 !.Z.T.U.B T ] k k k k g >.AXAX3.: ; , @ * o < g & @ ; J y.j.j.k.e.w.p.C C 0 p ! ^ ; 6 c c b 7.6.Z d.t.V.j.t.e.t.x 6   ( KXKX1.7 x s f I D x V L d.d.L p.w.r.Z.U c J w.b p.7.7.f.f.f.d.",
"6.y.e.q.d.a.e.w.C C J r e e A ~.#Xz q.J z v q.q.q.6.t.q.y.5.j.u.{ { A s B.w.y a.Y.!.}.Y.t.t.Z s.s.L I k < 1. Xo.{ x x x x z c w.r.r.r.J m 7 o >.KXuXO.| @.S.W.E.!.W.C.I.S.S.Z.Z.f.Y.R N BXHXD x Z 7.f.C.O.R.E.E.!.Z.s.s.s.p.Y.Y.Y.O.R O.O.T r 9 x b K D 7 - ; d 7 e y 6.r x p 6 6 ; 7 c L p.Z.R x s D A k f A 7 6 7 6 6 p 1.5Xa x r V L w.w.7.7.f.7.p.B.B.d.L z z ..yXcX~ s m m [ m d 7 d A [ x x 6.e.j.t.p.q.t.q.C x m ,.;XI V b 7.9.c.5.e.t.w.a.g.9.9.9.4.v + _ KXKX*.x Y.L K d.f.p.j.g.j.j.g.j.6.e.j.F.L.L.n.9.7.9.9.0.7.6.9.",
"4.4.6.r.t.Y.Y.d.d.r.V.r.V.H.} '.1X6 4 4 e q.i.u.8.c.y.5.y.c.y.y.u.t.S W.Y.L.j.4.7.k.Y.k.L.Y.w.b 7.a.t.o.X.'.R.P J i.q.t.t.q.t.t.q.t.t.i.q.z ; -XFX@Xb e.Y.Y.).Y.Y.L.t.w.e e y.n.m.v.e.9 :XKXD.7.m.c.c.f.C 4 4 V Y.Y.j.a.t.j.L.b.G.k.j.w.t.j.Y.g.e.g.Y.W.I.O.I H w.e.y.c.L.w.U J P x c e t 4.q e b J K x x x S K c 9 z s ; p N + + 8 t b e.y.C q.b Z e.P.L.7.a.9.q.| X.3X~ z U H x B.@.O.W.B.U V C 7.6.6.b w.w.q.L w.z s *.XX9 z 6.y.9.b.y.L.F.j.e.y.c.m.m.9.i.8 &.KXKXR.y c.9.5.4.5.g.P.v.9.9.9.9.9.9.7.c.^.c.c.g.9.c.9.7.7.7.9.",
"c.y.q.z e e J d.S.V.Y.Y.Y.L.F [.sX, + J _.}.).F.c.9.5.5.y.c.b.e.b v 9 D r F.j.y y e.g.n.Y.L.j.7.7.9.k.L I.2XW.c v 6.q.q.i.q.i.t.F.i.6.q.q.i p nXzXU.7.n.j.n.n.j.j.j.j.k.j.^.m.9.v.v.b.V '.hXZ.g.m.m.c.n.L._.).t.j.L.b.g.b.j.b.b.P.v.c.m.c.L.m.b.b.y.y.j._.+XW.Y.^.L.9.y.L.e.j.j.t.w.6.7.7.9.7.7.6.6.b y 6.y b C C t y C x E.3Xo.b q.6.q.q.q.c 4 4 z w.j.b.j.5.8.8.8 =.mX,.$ i z c V.Y.Y.F.z z r.e.6.6.7.C V Z t.r.q.i 6 *.jXo.f J 6.j.g.6.j.F.F.j.j.y.e.e.c.b.z *.KXCXO.y 4.4.4.5.9.9.v.P.^.f.7.^.^.g.7.7.n.m.n.g.g.7.6.7.7.6.9.",
"L.u.r.P V r U W.W.Y.Y.Y.f.Y.A :XKXQ ; R.`.{ &.N.Y.F.t.F.F.L.Y.V.N.z 7 E.W.J q.t.b q.q.t.H.).F.t.g.9.^.p.U.1Xo.K V.q.i.q.J v v J N.J n n n i ' dX-Xd Z y.e.j.L.^._.}.}._._._.m.g.j.i.q.z .X8XR n.c.^.W.W.}.fXhX2X).^.m.L.L.j.b.b.P.v.m././.^.^.L.L.b.^.j.V.!._._._./.m.Y.k.a.a.6.q.t.6.7.k.a.p.e.6.6.a.7.g.7.e.b a.a.6.7.s.zXKXI t.^.j.b r.J z 4 8 8 4 e 6.t.t.F.y.8 =.KX<X% i m | r.p.w.t.J J N.q.e e 0 9 9 S P A z s u ^ cX) * p F x K x 9 8 8 s J J z R Z.J 6 *.HXsX[ x C L t.L Y.!.W.F.W.!.Z.d.t.Z.Y.t.q.H.F.V.V.r.q.V.F.Y._.",
"z P N.S.W.S.o.f 7 9 9 x L C.N :XKX3.* %.,.g * < i z z S S x S @.].].*.MXzXn n N.n m | | V.!.W.N.Z.L U 0 '.eX] 6 6 - % ; u i s p 6 k F k u , ^ cX4X/ 9 8 8 z c B.W.W.!.+X].K.U I m n u , :X9Xm C.s.F s 6 p A R R L d.Y.Y.L Z b Y.V.r.W.!.!._.T.Z.f.f.f.w.C..X].!.H.Z Z U B.R K K I | H L d.r r x V d.C.Z.t.w.d.R d.Z.Y.Y.!.9XCX*.R t.L d.U x F @.K.} A x z n B.H z @ <.KXSXj ~ ' } O.U J t.V.| @.I x A D d a ; k ~ m ; @ O &XDXqX_ _ ^ X.=.X.^ ^ < & @ ; X...$ X  XKXsX; # ; p ; ; ; ; g , @ ; ; 7 s u j k s s j m f 6 i A n f A ",
"k s p 7 a a X. XXX*.Y ..E f :  XKXKXHX:._ 3.2.W < %.,.1.*.] %.^ h $.1.nX=X; ; @ X @ j ' m o.A 7 p 6 6 ; 1.iX1._ g < 3 _ _ ) %.k p *.1XoX1.Q _ ,XiXKXzX] k ' g u * + o . . * a h ) [.qXxXBXrX~ k ] h , * * @ 7 +.E.E.D.o.E E I.2X*.g X.+.R.I.E E E.E.!.E.=. X X+.7 $ + @ 6 s 7 7 a k k ] ] d d p ; ; ; s s A G D 0 9 9 7 A sXHXo.S r 4 x s s : ; p N ..a @ $ ; $ . O DXKXJX~ ~ ^ k k f s z A p : ; 6 k h Q < %.GXrXk ^ 3.;X;XKXKXKXGXCXNXzX:X|.aXaXrXGXKXKXKXsXOX-XNXCX1.X.>.>.|.[.) h ) 3.3.;X<X3.$.Q ^ ^ h h ^ ^ ^ ,.,.$.^ $.%.",
"BXHXVXsX5XyX5XsXFXFXHXFXCXCXOX X6XvXsXrXrXvXHXKXDXcXkXvXFXHXBXcXiXiXKXKXcX^ ^ XX<X<X:.~ %.*.oXrXdXdXcXeXrXrXvXKXKXKXKXKXKXKXDXlXsXFXKXKXKXBX6XxXaXxXBXKXKXKXdX;X*X,.:.2.&XdXDXJXKXJXJXbXqXdXXX%.eXDXKXKXKXHX1X*.*.*.'.%XFX7X*.'.|.) %.k a N N / X./ X.=.X.=.'.*.%.%.XXoX{.1X X^ *X3X3X=X=XOXsXnXsXeX:X:X'.*.*.f o.A - + ; =XtX$.- x D.I..XE.;X:X:X:X1.1.,.1.%.oX3XrXbX>XiX[.,.:XOXX...] ' ] ^ %.>.=XsXcXGXDXKXKXKX;X:X<X;X|.;X>.XXoX1X'.*.$.3 ;XvXvXDXnXiX6XtX9X-X XOX:XXX:XsXKXKXdXkXkXvXDXKXKXAXxXvXDXJXDXvXBXDXKXKXKXcXiXkXcX",
"5XeXBXKXFX5X4X<.<.1.[.,.^ 1.*.: > < k *.,.%.:.SXJX&X! / %.<.-X6X<X6XcXvXrX:X:XnXHXKXKXGXHXHXsX[.3.[.,.>.;X3X:X:XeX:X;XsXcX6XXX XXX1.1.1.1.! 3 ` ` ` ` _ :.:.:.3.;X;X;X;XvXKXKXKXcXeX0X<.1.:X1X1XsXnXGXGXmXsXoX$...X.R.oX9XoX1.:XKXKXKXtX'.*.1.XX1X1XOX7XOX:XtXjX:X[.XX=XXX[.*.~ :.[.[._ %.E.oXCXKXKXKXGX{.oX1.E.E.'.*...] $...k 6 K !.hXCXVXcXsXrX<XeXqXcXeX%.%.'.,.Q & ,.tX:X7XuX-X<XeXXX;XKXKXKXHXMXcXmXsX<X<X;X<.....h a G 9 7 4 6 6 - + * xXSX=X, @ : * ; ; p 7 7 d D X.%.%.%.%.1.-XrXtXdXqXpXAXbXbXKXKXkXcXBXvXcX<XrXsXyX6X",
"k ] ]  X X< h < - p p , : * ; a 7 p 9 9 p 7 ; 3.GXqX3 > k N a < h a a h a N D p p ..'..X'.*.a p : , ~ ^ N k k k d N d d N D D k a d A p ; ; h ^ ~ ^ Q : * < < h Q h ^ ^ :.rX<.: 7 7 N - : d k ~ k h h < : k ~ ] ..' F &.~ ' ..^ wXKXcXoX+.*.*.*.1.1.'.'.=. X*.] X.~ 7 ~ g h ~ ~ ] ~ ~ , , f ~ h ^ vXKX3.g ~ m k D *...*.] s ; u ' I A '.-X X X1.>.` ` ` ^ ..] k k s k u ; p p a k N ! h 2 > xXKXeXk k ~ k p ; a d A I +.o.S e c J w.w.L t.n ~ KXHXoX+.U I G o.n 9 s x r r 9 7 4 7 x x 0 7 ; X 2 aXwX:X:XE...D X.+.N a ; d ] Y ..",
"r.z n k k a k s F A.R.R.K.A.*.[ J.r.k.L.t.B.k ~ 3X1.~ k f 7 7 f } F s f f x H z 9 x H H z f S } +.R.*.*.*.o.D S x G D 0 0 f 0 0 D A A +.*.k k ~ k k k k N D k d k k k h %.:X*.s r x x 9 7 s 9 9 k A z z n P { | &.{ N.R.} @.k a ` ;X%.D Z.E o.E E E C.B.O.+.O.K p.| m m [ o.*.o.R...m k k z 9 # o >.3.g } P I G f o.A G F } I I | S.E D D k ..*.@.} X.~ a k S x H A.J n P A A m [ X.%. X*X<XKXKX{.- z w.V.U x V Z 6.7.Z b t v b J V.r.7.t.n ~ BX:Xf e e 6.6.q.6.b r.w.e.y.7.b e.b y 6.y e v 8 XXKX:Xd 9 e b w.w.L J r.d.Z y Z L ",
"m.j.w J.8Xn A.}.}.+X).H.W.}.+X].D.t.n.m.^.Y.I +.[.,.u f 9 $ 9 H r.q.J J z c L C y e C.!.H H P | | S.*.+.X.+.+.O.A.N.U P F A G D A D G +.'.o.+.X.N ~ ~ m A G E o.} J.&.a %.sXE.U J J c z z s s s F J J J t.t.{ N.N.{ N.A.{ N.} ^ 1.sX=.T k./.T.T.Y.Y._.Y.t.Z.Y.Y.g.V.| | P I O.S.C.R O.+.K.r.J f : 1.%.6 J J V.D.U S.| I @.B.C.W.O.C.D.B.| F O.W.O.B.S.&.[ n J t.Z Z V N.A.U J O.I S k k j $.qXKX1Xe j.e.8.9.8.9.8.8.6.7.y.4.q.v 6.u.e.g.b.z 7 sX1Xz t 5.8.4.4.4.t 4.5.9.8.4.4.4.8.8.8.m.0.4.e '.uXp $ q.y.v.v.5.8.8.5.y.4.4.5.y.",
"m.^.b @XCX].!.$X).W.J.A.U w.T.T.k.n.v.m.F.j.U ..dX{.g A z 4 9 H r.p.q.J C b C 6.6.9 %X~.9 H r.} | | K.'.E.R.R.| | { | | } } K.o.F [  .&.*. .[ ] ~ ' ..m m @.@.}  .R.R.g h 1X].z J J J J J { | {  .{ | N.N.J J N.N.| U | | |  .$.;XFX=.C.a.^.m.m.m.c.g.e.a.f.p.a.a.k.C.C.R U U N.B.U N.A.N.q.r.9 ; *X:X; 6 e V U | V.Y.Z.C.+.%X XU.D.D.U.D.D.S.W.!.!.!.`.O.d.V.t.Z b L B.B.J r.B.H c P | ' . . eX1Xv v y q 4.4.4.y.y.v.y.8.9.5.4.4.5.5.g.y.v 9 eXzX@.b y.4.i.5.5.5.5.4.8.8.l.v.l.8.z.z.v.z.4.e oXKXoXI t.7.c.v.v.v.c.b.n.j.n.g.9.",
"c.j.Z.!..X..[ K.R.R.J.+X+X+X!.L w.L.b.u.F.{ p '.KXSXg j p n A.n n J c z H N.H r.w...nX Xd I f D { &.&.~ g ^ ~ j &.J.{ n m [ &.' ~ ' j j ~ ] g < g ' $.[ ' @.} m &.R.&.~ ,.3X'.| V.N.N.N.V.N.P ' ,.&.}  .K.R.A.A.D.D.C.&.&.' u , >.cXN f C.k.g.b.y.8.e.Y.f.V f.Y.Z.Z.B.d.| J.J z n i z P z z z $ p nXnX* p s x H | V.Y.!.K *.VXOX=.~.E.!.!.!.W.I.!.~.~.U.C.C.W.N.K.} S P H t.J x z x G +.*.a < oX$XJ b e z t.F.t.F.F.F.j.t.w.5.j.e.6.6.7.b r.E 7XXXp s r.F.V.F.r.y y 6.q.b.m.b.b.y.i.5.y.F.q.k rXKX=X`.W.F.5.9.m.v.b.b.^.Y.t.j.g.",
"F.H.| 6 ; * ~ $.] ,.&.`.'.'.K.x 8 z z 8 i 6 X ~ JXqXO * , g ' j m m n s u k m I D XXHXiXh < u : g #.,.$._ *     o k ] ~ p h $.^ g g g 2 2 2 2 2 2 Q ^ ] k k k k ~ g & * <XmXXXs S +.*.G F F ' ~ W g g , g ~ X.+.*.*.*.*.$.' * > *XGX` . ; 4 4 x L V.W.2X8XR.E.2X%X'.+.@.} o.A s A } G F P m 6 X 2 SXSXO < k ] [ o.} K.~.f *.CX:X%. X X'.=. X'.'..X.X.XQ.Q.~. XoX9X'.k k } o.o.].'.'.=. .X.^ h ] ] ~ j s s 7 6 6 p 7 6 6 p f s x 9 7 s 9 z - & >.yX1.@ + @ $ $ 6 7 6 p p 6 9 8 9 8 8 9 8 6 @ Q KXKX,.u z q.q.t.V.t.F.V.V.B.D.V.t.",
"- ; $ *.vX,X! Q 2 , 1 * & * & @ + X @ @ & = 2 ) vX,X3 2 2 g g h g g g ~ ~ g 7 : : / kX6X! ` 3.%.~ ~ Q 2 3 3 ` 3.^ , g $.%.%. X1.:.1.3.*X|.*X;X,X3._ h < a a ^ ^ Q 2 h >.;XsXdX>.:   . p ] X.%._ _ 3.|.:.3.-.g > & o o * < h h ;XKXKXaX>.) * ; @ @ ; ~ 1.*.h : < Q ~ ] $.k p p k p a d k s ; +   ) KXKXvX>.W < : & , a : & ^ qX|.` ` ^ / < h < h %.X.%.X.X.Y X.%.$.g : k ..N N  X1.%.h , ; ; g h W ( ! ~ h : * & o . o o . o ; : ; : h a m ~ >.iXKXKXsX=X1.>.%.^ / 3 < , : p p @ X o X o O , ) KXDX3.* u 6 p 8 6 p p 6 s 7 6 s f ",
"'.1.%.rXKXDXiXvXvXaXqX;X3.` _ ) _ %.XX*XiXSXKXJXHXvXcXKXKXDXBXmXmXmXcXmXDXHXjX1XyX-X|.6XBXBXcXeX:X1XsXnXZXDXKXHXeXOX:XeXuX7X0XnXKXGXnXFXKXBXBXKXKXKXJXvX7X1XOX>.XXcXHXkX<.<.CXKX X. * =.XX:X6XiXZXHXKXKXKXSXeX<X;XeXtXyXsXCXCXFXBX,XrXKXHXsXlXeXXX1.3XsX:XiXZXiXrXeX<X<X3X3X1X1X1X.X*. X3XvXmXeXsXiXDXKXSXnXtXeX7XeX:X:XeXmXBXcXkXrX;XyXlXrX,.^ h h h * : d h N W %.[.1X9XlXyXXX) 1.eX1X1X9X1XrXqXrXHXKXHXHXKXGXnXrX,X;XrXcXGXGXHXGXCXnXeX:XiXbXcXGXKXKXKXKXKXGXBXbXvXBXDXHXKXBXmXcXsXvXmXcX,XwXwXcXdXeXXX=X X XXX,.[.:XXX>.:X9X",
"lXlXcX6XkXBXHXZXKXKXKXKXAXcXmXCXNXHXKXKXKXKXJXJXBX6X:XBXKXKXKXKXKXHXBXbXHXdX1X1.XXXX%.>.XX X'.OXoXE ...XXXHXZX^ +.*.'.*.+.Y =..X X=.N a X.h k $.;XSXDX7XQ.'..X*.%.%.` ! / ^ 1.:X X` %.%.^ ` wXFXsX1XoX1X1X'.R.*.*.oX1X1X#X+X~.=.^ Q ^ '.9X1X1XoXOXoXoXoX3XjXzXjXzXuX1X:X%X2X2X%X%X$X%XCXSXJXAX<XoX=.>.>. XoX#XOX:XuXsXsXeX1.%.3XsXsXyX7XuXjX1X`.*.'.oXoX%X2X8XoX1.1.1.1. X7XsXeX*X:XzXzXhXhXMXzX7X:XeXOX;XeXeX<X;X<XqXSXSXcX:X;X:X*X1.,.$.g h _ ` ` Q _ 3.<XZXKXJXbXvXbXBXGXDXKXKXKXKXKXKXKXKXKXHXZXBXnXcXBXKXKXBXKXKXKXZXHXKXKX",
"XX>.<.|.5XtXuXyXsXkXiXwX-X1.,.'.'.XXoXoX1./ ! >...p p p p a X.<.1...%. XY d p j m 7 s d 7 5 7 x R 7.p.Y.S lXVXE x t.V.W.Z.s.T.!.Z.x z x I R } 6 * 6X:X: 7 x A.O.o.~ k a N ] j p h ~ p p , < 6XNXE.H p.p.p.C r.D.D.D.d.L d.t.r.S.R C.K K f.R !.Y.Z.Y.C.G G G D D T E I.U.U.I P I H R R $.*XKXmX$.C.E o.o.I I U U S.E =.OXE.X.] m ...X7XX.X.+.R.R.&.@.K.].!.#X#X!.'...^ a : 7 6 m ] E +.+.+.*.R.o.9 9 d 7 a ~ ~ k k , ) vX;X] a p a p p g ~ h , ~ ..k a ~ h < h <.aX,X` ^ ^ ^ ! Q ` >.:.%.N h h N h / =.X.^ %.XX1.^ >.-X;XXX>.` -X",
"*.*...N X.] k p a ..Q a f 7 7 e 9 0 x x s 7 9 z S x P U U 9 0 0 f f d d f A | { | U z 9 r Z p.Z 7.8.9.y.w.1XVXW.6.b.).F.e.6.7.n.g.n.m.k.t.V.H.N.m GXKXR.I U t.| } @.*.o.o.@.&. ...' ' s , ~ HXKX!.6.9.9.m.c.7.7.6.6.j.e.e.e.q.t.t.e.a.f.f.k.Y.L.L.L.Y.Y.t.L L L f.Y./.f.d.J J p.k.Y.N.p _ KXmXg m R V L L B.Z.B.B.B.} S.`.R.R.R.+.+.R.E +.O.B.W.Y.Z.C.W.B.H H U W.B.O.I o.L z H R f.Y.Z.C.B.U Z r r L U J U U J J ' =.VXXX' x x I U I k j k p k A p s m k a * 1.nXh a N k k k h : : < ~ ..%.N a d D o.D D *.*.N ^ h : : ; a ....",
"W.S.W.I.C.E o.I O.O.H x q.L L C r.L O.F.t.L w.b.Y.W.W.L.t.Y.Y.w.q.F.!._.!.D.r.t.V.B.I C.d.f.L.n.9.l.l.8.t.%XfXU e.F.^./.L.Y.Y.f.^.^.g.g.k.Y.S.m ..HXHX] } O.A.J.J.J.R.R.R.E.R.R.R.*.o.~ p p nXHXT.g.m.c.c.c.7.e.j.m.^.L.a.w.H.D.r.w.a.k.n.b.j.j.j.k.b.L.^.^.G.^.L.g.g.a.a.L.F.j.L.P.).P [.KXGXk U R I U S.D.D.J U D.W.J.J.J.K.!.A.P O.J.A.D.Z.Y.Y.Y.Y.D.D.!.W.Z.d.Z.D.D.H.k.Y.F.u.F.q.t.Y.F.j.q.v w v q.q.q.q.q.j.A.R.uX*.z b r.F.t.r.} o.F P J J J n F S s ; ^ iX%.f +.o.A f d D k k ' ' $.*. .I p.Y.W.S 7 p F  .k A S f O.+.K.",
"S.I.S.| U Z.f.7.7.7.a.a.q.6.b C d.S.B.V.J V.Y.j.Y.Y.n.n.n.Y.Y.t.Y.Y.Y.Y.!.Z.d.Z.L.t.t.Y.n.m.h.0.m.P.8.t K E..XH w.j.Y.H.Y.W.D.E Y.L.Y.Y.Y.D.R.&.h <XiX%.*.o.@.@.*.+.@.J.@.K.K.*.R.R.*.+..., dXzXE t.n.j.g.j.y.j.L.^.F.t.Y.Y.Y.d.w.t.f.k.Y.^.^.^._._.Y.b.^.L.j.Y.W.t.t.V.j.n.L.Y.F.b.e.J *.KXGX[ L c H A.D.W.W.A.n U N.| | A.W.W.W.D.D.W.V.V.d.Z.L.W.W.J.J.+X!.!.W.B.W.!.!.n.F.).).).L.F.u.u.q.6.4.t 6.q.4.6.4.6.6.z *.uXo.z q.t.q.J J.*.@.A.J.t.x J | { n s 6 k 3.%.X.=.*.[ G ..*.X.X...[ o.'.'.O.L r.N.A.J.`.].@.o.+.E.E.I.D.C.",
"W.E.C.q.H p.5.9.f.f.n.c.y.j.t.j.L.W.[ '.uXC.t.n.Y.k.m.n.n.^.Y.Y.L.j.F.Z.D.D.W.W.W.U L L V Z R s.R e.q.J s ^ '.k S B.W.!.R.R.E.Y o.J.].].I.+.+...* O ) Q p ..o.o.+.X.' A k F *. .@.&.R.R.] 2 dXdX^ 6 c r.J r.V.V.V.N.| U s.D.S.B.C.D.D.Y.T.Y.}._.Z.Y.Z.r.V.Z.d.B.J.J.J.W.D.Y.T._.W.Y.F.8 p BXMX[ S.B.| @.A.K.R.K.A F K.].~.!.W.W.K.S.S.W.D.W.!.!.`.`.`.`.`.R.K.].{.&.' | `.Y.q.{ N.t.t.r.{ t.r.L r.q.t.i.q.w.J r.N.k <.:XD | U U O.@.} *.R.F n N.K | A.&.{ z j <XBX>.` X.%.*.~ ] *.X.&.*...=.E.+.+.+.R.E.R.K.R.R.*.'.*.I.I.D.W.D.",
"].'.*.J z e.j.c.c.f.9.m.P.P.L.b.F.V.~ eXKX+.J V.Y.V.t.j.g.Y.Y.L.L.F.b.y.F.S.A.D.W.*.E +...G k 0 0 9 z s p eXeX@ $ + 6 d a : a a a s d d D d ; k <XSXKX%., h %.*...^ X.X.a s m s A k k k p >.SXSXQ   X ; 7 A G G m k j d : ; p 7 ; ; - ; ; $ 7 7 ; 7 7 ; p k k k ' ' ~ ' o.o.G [ @.F 7 @ XXKXBXg k m ~ ~ h h p * o * g ~ N D k ~ k k ~ k a a p g ' ' k ^ ....~ k $..., @ p d 9 m ' A A m  .| | *.R.`.R.K.A.W.`.R.{ h :XiX$.*.*.] D X.o.'.1...A S o.o.[ m ' F a tXKX>X` X...] ~ m ..*.*.*.%.*.*.*.*.'.*.*.R.*.=.1.1.1..X$X].+X#X].",
"%.%.%.] A } C.Z.s.E L r.H.V.B.V.W.k 2 vXHX1.O.J.J.D.W.!.].J.J.W.N.V.W.V.V.].&.*.K.2XgXMXVXVXjX9X%X.XK.k '.CXCXjX1X1X#X1.:.>.XX*X X] *.1XOX] X.9XKXKXKXCX:XXX=...] =.1XzX7X..%.'.~.'.+.D d yXKXKXKXMXuXOXOX'.X.] X.>.:.>.3.|.! %.|.>.) 3.[.%.%._ >.:.` 3.3.:.>.%.%._ $._ h : ; * g $.h < aXKXDX>...'.<XcX<X:.3.*X*X2.` ) ) ! Q %.*X*X3.=X*X<X*X:.g ^ Q N X.X./ h ~ 1.*X<X^ & * a h a a < , , p h < < < , s p * % * %.DXKX3.2 h 2 > * * & ; k D D E Y ..~ m s ; 1.KXkX! > < h *.o.o.R.].'. X=.=.=.%.%.$...$.Q ! ` >.1.*.K.R.'.*.$."
};
