/* XPM */
static char *wall_west[] = {
/* columns rows colors chars-per-pixel */
"256 256 181 2 ",
"   c #343D59",
".  c #3C4357",
"X  c #37415D",
"o  c #3D455C",
"O  c #3E485E",
"+  c #374465",
"@  c #3D4660",
"#  c #3E4964",
"$  c #40465A",
"%  c #434A5D",
"&  c #494E5E",
"*  c #4C515E",
"=  c #50545E",
"-  c #454D63",
";  c #494F63",
":  c #464F68",
">  c #484F68",
",  c #475066",
"<  c #4B5266",
"1  c #475069",
"2  c #4D556B",
"3  c #4F586D",
"4  c #515665",
"5  c #555966",
"6  c #5A5D67",
"7  c #50576C",
"8  c #535A6D",
"9  c #595E6D",
"0  c #4E5770",
"q  c #4F5870",
"w  c #505770",
"e  c #545C71",
"r  c #595E71",
"t  c #57606F",
"y  c #5C616E",
"u  c #576073",
"i  c #5C6273",
"p  c #5E6578",
"a  c #5E6879",
"s  c #61646E",
"d  c #686A6F",
"f  c #626674",
"g  c #656976",
"h  c #696C76",
"j  c #626779",
"k  c #656A7A",
"l  c #6A6E7B",
"z  c #6E7077",
"x  c #6D717D",
"c  c #707077",
"v  c #72747E",
"b  c #78777E",
"n  c #76787F",
"m  c #7A7A7E",
"M  c #676E80",
"N  c #6A6F81",
"B  c #6E7281",
"V  c #727682",
"C  c #787781",
"Z  c #767984",
"A  c #7A7C85",
"S  c #747788",
"D  c #767B89",
"F  c #7B7E89",
"G  c #807F86",
"H  c #807F89",
"J  c #7E8087",
"K  c #7E818B",
"L  c #7F8390",
"P  c #818187",
"I  c #888687",
"U  c #83848C",
"Y  c #88878D",
"T  c #86888E",
"R  c #898A8E",
"E  c #908F8F",
"W  c #848691",
"Q  c #888791",
"!  c #868992",
"~  c #8B8C93",
"^  c #8D8E98",
"/  c #908F95",
"(  c #908F98",
")  c #8E9096",
"_  c #8E9199",
"`  c #929296",
"'  c #989697",
"]  c #959897",
"[  c #989896",
"{  c #94959A",
"}  c #98979B",
"|  c #97989D",
" . c #9A9A9E",
".. c #A09E9F",
"X. c #A1A09F",
"o. c #9596A0",
"O. c #9699A0",
"+. c #9D9DA1",
"@. c #A09FA2",
"#. c #9FA0A3",
"$. c #9FA2A9",
"%. c #A3A3A5",
"&. c #A8A6A7",
"*. c #A7A8A7",
"=. c #A9A8A7",
"-. c #A5A5A9",
";. c #A8A7A9",
":. c #A7A8AA",
">. c #ACABAC",
",. c #B0AEAE",
"<. c #AFB0AF",
"1. c #B2B1AF",
"2. c #AEAEB0",
"3. c #B1AFB1",
"4. c #AFB0B1",
"5. c #B3B1B4",
"6. c #B1B2B5",
"7. c #B5B3B5",
"8. c #B4B3B4",
"9. c #B5B4B5",
"0. c #B7B5B5",
"q. c #B7B5B7",
"w. c #B6B6B6",
"e. c #B4B3B3",
"r. c #B8B6B2",
"t. c #B8B5B5",
"y. c #B8B7B5",
"u. c #B9B7B6",
"i. c #B9B6B6",
"p. c #B9B7B5",
"a. c #B7B8B6",
"s. c #BAB8B5",
"d. c #BBB9B5",
"f. c #BAB8B6",
"g. c #BBB9B6",
"h. c #BAB8B7",
"j. c #BBB9B7",
"k. c #BAB9B6",
"l. c #BBBAB7",
"z. c #BCBAB7",
"x. c #BCB8B7",
"c. c #BBB9B6",
"v. c #B7B7B8",
"b. c #B6B6B8",
"n. c #B9B7B9",
"m. c #B9B7B8",
"M. c #B7B8B8",
"N. c #B9B8B8",
"B. c #BBB9B8",
"V. c #BAB8BA",
"C. c #BCB9B8",
"Z. c #BCBAB8",
"A. c #BDBBB9",
"S. c #BCBAB9",
"D. c #BEBBBB",
"F. c #BFBBBB",
"G. c #BDBABA",
"H. c #BEBCB9",
"J. c #BEBCBA",
"K. c #BFBCBB",
"L. c #BDBCBB",
"P. c #BEBDBD",
"I. c #BCBBBA",
"U. c #C0BEBD",
"Y. c #C3BFBE",
"T. c #C1BEBD",
"R. c #BFC0BD",
"E. c #C3C2BF",
"W. c #C2C1BE",
"Q. c #BFBFC0",
"!. c #C1BFC0",
"~. c #BFC0C0",
"^. c #C1C0C1",
"/. c #C4C2C0",
"(. c #C5C4C1",
"). c #C4C3C1",
"_. c #C8C6C4",
"`. c #C7C8C5",
"'. c #CAC9C6",
"]. c #CCCAC9",
"[. c #D0CECB",
/* pixels */
">.U 5.5.R  .T ~  .Z -.-.Q ~ #. .5.:.V } Z i { -.5 2 5 ~ 5.>.A.A.f.f.u.,.1.5.` -.>.~ >.u. .>.A.v 2.;.>.+.~ { { 2.A.n.f.` k x { -.>.>.-.l 5 5 2 2 B 5.,.1.A.A.A.f.A.U ~ -.A.5.{ >.f.v ~ R { { H 5.4.T >.5.f U U ! Y.u.! { >.5. .-.{ J J r 2 k -.5.u.A.f.f.f.A.W.A.+.3. .5.f U >.` 5.-.>.-.@.5.F { ` +.>.>.` v >.{ +.A.-.A. .~ >.{ f 7 5 ~ 5.>.5.A.f.f.f.u.>.,.,.` -.,. .Y.A.-.3.Y.{ 5 { ).5.-.Z +.#.~ ).~ 5 +.Z A.>.A.5.-.~ Q V 5 j @.5.5.A.f.f.f.f.A.5.,.5.3.5.~ ! 5.5.~ 5.A.~ Z A.f _ f.5.>.` +.>.-.` {  .~ ! } J J >.5.,.5.A.A.",
">.{ 3.>.{ { +.+.5.U 5.>.Z { ` >.>.>.v -.F f V J V 7 2 r +.5.,.f.f.u.f.f.-.V { >.5.~ A.u. .W. .~ '.+.` v.{ -.+.! +.-./ =.5.Q Z  .>.-.x Q F 2 e 7 7 Z ,.,.5.A.A.f.A.>.@.-.5.{ >.u.1._ U { v.} 5.>.} ~ >.>.Z -.-.U >.5.R +.h n.5._ J -.l j e 2 j -.5.5.A.f.f.f.A.A.u.-. .{ Z +. .{ +. .A.>.>.~ v @.).-.Z >.-.U 2.{ k >.5.5.>.T W._ 5 5 5 5 ! >.1.u.f.f.f.f.>.>.,.P >.A.-.-.>.>.u.A.-.f Z 5.u. .U 5.>. .+.l ~ >.+.3.` A.5. .-.@.{ k 2 i +.5.5.f.f.f.f.f.5.,.5.-.5.>.R ;.-. .3.A.-.J >.+.+.5.} 5.-.-. .>.-.A.-.~ _ V ! J B +.5.,.5.A.",
" .~ -.5.-.} -.5.5.U ~ 5.).{ U U  .2.' ).{ i V i B e 2 2 i -.,.1.f.f.f.Y.-.f -.,.5.-.5.u.5.5.-.-.u.-.>.f.-.F ! l U { >.1.).{ f +.` 5._ } Z k V k 2 2 l -.>.5.A.f.u.Y.>.~ U / Y.u.>.` #. .A.+.5.).{ J +.-.~ @.>.-.~ -.-.>.U -.U +.U A.U i f i 2 i #.5.5.f.f.f.f.A.5.1.-.-.v l -.A.-.-.W.+.{ +.{ >.>.>.5. ._ ).` f ! ` 5.>.A. .{ _ { x 2 e < V -.1.5.A.f.f.A.5.-.-.>.u.-.` ` -.f.u.` A.{ f 5.>.-.A.).T +.U A.{ 5.5.x >.>.T u.Y.+.f 5 e 5 ~ 5.5.f.f.f.f.f.A.>.+.5.>.A.5.-.+.{ 5.A.U  .3.;.2.>.{ R 5.5.>.>.{ } h ` ~ 5 { Z 2 ! 5.,.5.",
"+. .}  .-.+.-.-.-.5.! ;.5.Z y h R  .A.A.5.B e Z F B k 5 2 k >.,.1.f.f.f.f.5.-.+. .5.5.1.5.5.A.>.{ ` Y.Y.-.i Z -.-. .>.f.5.+.U F Q >.A.:.J ~ ~ { k - 2 B >.>.u.A.f.f.u.-.Z >.A.W.>.Z >.5.5.,.-. .5.9 } >.-.5.>.~ U +.Z ).>.{ 9 2.W.-.~ x l ^ i 2 k -.5.5.f.f.f.f.f.u.f.5.Z ~ -.A.5.+.5.-.{ 5.5.{  .-.A.~ y >.{ y  .>.Y.' _ 4.+.U +.k 5 k M 2 i ~ 5.5.f.f.f.f.5.>.>.~ ~ >.>. .>.A. .A.-. .;.n.! -.3.h >.5.+.~ >.>.~  ._ { -.W.:.V g V F 7 U ,.5.A.f.f.f.f.A.-. .5.Y.u.u.! Z A.-.F u.;.` ~ ~ ~ { +.).u.-.~ -.2. .Z 2 F ^ V 7 J 5.>.",
"Z -.>.+. . .2.` >.5.A.~ ! x v v.-.~ A.A.Z f 5 ~ U i V B 2 2 B 3.1.5.f.f.A.A.-.` +.` -.5.A.A.f.>.` >.A.5.-.~ } >. .>.5.-.>._ x l Q >.5.U >. .Z V V i e 5 ~ 5.>.u.A.A.f.A.>.-.>.A.,.>.5.W.1.W.5.>.+.4 Z >.u.Y.#.; { Y.+.Z  .-.Z ! >.5.+.-.Q F ^ k 2 f +.5.5.A.f.f.f.A.u.,.u.-.` f.>.{ 3.-.@.A.5.>.5.U -.` -.{ V +.>.>.-./ _ Z _.2._ Q 5 B F B 2 5  .1.1.f.f.f.f.5.-.{ -. .-.5.-.Y.W.A.2.#.Z >.g  .>.{ >.>.>.v 5.~ +.>.}  .>.A.5. .-._ Q 7 7 B ;.5.f.f.f.f.u.A.>. .Y.5.5.-.U >.-.5.A.5. .f { >._ { ~ +.5.5.{ +.5.i J +.J U J 5 Z 5.",
"Z +. .{ 2.>.` U ;.,.A.~ x { +.5.-.P >.>.9 g } ~ -.Z ! J i 2 5 U 5.,.5.A.A.f.f.5.{ U u.f.5.A.W.5.-.>.+.R A.>.h 2.>.-.+.Z -.l k Z A.} +.h -.5.k < { { 5 2 7 ~ 5.>.u.A.f.f.A.,.5.,.-.f.5.5.M.f.5.;.Z i l ` A.5.F V #.>.>.l { +.-.+.+.5.2.-.J k F >.f 2 i +.5.5.f.f.u.f.A.' ~ -.>.u.A.f.-. . .,.>.` +.+.A.{ ~ +.~ >.A.5.9 J >.T -.5.-. .Z k k ~ F 2 i -.1.1.A.f.f.f.u.5.+.U -.Y.W.A.Y.Y.5.-.~ m u.R 5.).~ U 5.Z +.~ -.5.` +.A.u.5.J >.>.i e i 2 k -.5.u.f.f.u.u.f.f.5.,.>.5.5.Z  .3.>.>.-.Z +.+.} U n #.f.>.U U A.~ -.+.l ~ T { V J ",
" .-.>.~ +.+. .h >.5.;.+.U >. .~ { >.-.-.V { -.>.5.>.>.Z i e 7 2 ! 5.>.5.A.f.f.A.-.U 5.5.A.W.A.u.-.U +.` >.5.f ~ -. .R Z 2.f v >.5.! l Z { -.i < >.-.k i 2 7 ~ 5.>.5.A.f.f.A.A.-.>.f.5.5.5.-.5.Z ~  . .>.>.~ -.U 5.5.F l {  .~ -.~ W.+.U 5 J J v R l 2 i  .5.5.A.f.u.f.,.` { 5.5.5.A.-.5.5. .` >.-.R >.-.Z -.A.f.+.~ ~ J >.3.5./ >.2.F 2 B ~ +.2 2 k -.1.5.A.f.f.f.u. .2.>.>.5.5.f.f.1.A.-.Z { +.-.5.Z P :.~ -.-.-.-.5.Z 5.5.5.U f A.Q V ~ k 2 k -.5.u.f.f.f.f.f.f.5.5.u.-.Z ;.5.R n.-.Z U / -.+.5.{ ` ~ f ` A.>.} +.Z +. ._ { J ",
"5.2. .F ~ +.~ >.5.5.@.-.>.-.-.V { A.>. .Z  .>.5. .5.>.f 2 r 2 2 3 _ 5.>.5.f.f.f.A.-.>.>.;.A.A.>.-.Z +.5.{ +.x Z 3.{ 2.` F f 5.f. .U {  .5.! 5 Q -.' ~ } i 2 5 ~ 5.>.u.A.f.f.A.5.-.5.A.A.-.+.Z v ;.A.A.Z >.-.>.+.;.-.U Z -.{ { 5.f -.Y.Z l F l ; 3.5.l < i { 5.5.A.f.u.A.5. .5.A.>. .` >.W.5.>.5.+.f -.).+.x -._.{ v >.-.f >.A.5.>.U V x V { { e B 7 i } 1.1.f.f.f.f.5.5.>. .{ -.5.A.Y.A.>.~ x { A.>.~ }  .~ :.5. .~ 5.U -.>.Z ~ +.4.` 5.5.F e 7 k +.5.5.f.f.f.f.f.f.f.f.5.~ ;.>. .A.1.U v -.>.Z R {  .Z { ~ ,.A.~ +.-.U  .+.U +.",
">.-. .>.+.-.h :.5.~ 5.>.-.} -.2.~ -.@.-.V F { >.>.5.>.l 2 2 B i 2 5 { 5.>.u.f.f.f.Y.>.{ =.A.f.5.,.5.U {  .} x J ).2.~ ~ Z +.A.{ U 5.5.4.J Z { +. .+.-.+.! e 2 5 ! 4.>.f.A.A.f.A.5.>.A.1.f.-.V U M.f.5.{ ;.>.f Z 5. .-.4.-.-.! Z ~ +.>.A.~ F 9 Q { 5.A.x 2 r ~ 5.5.A.f.u.A.A.Y.>.Y -.-.>.A.A.A.5.U 5 -.).U Z -.A.;.:.R {  .5.A.-.Z _ -.! } V B i U { , e { ,.1.A.f.f.f.f.A.-.{ U 5.W.W.A.;.+.>.3.3.n.>.~ h { -.T :.~  . .5.~ J J 5.>.>.A.A.+.f e 5 9 _ 5.5.f.f.f.f.f.f.A.W.-.+. . .>.-._ g u. .v -.u.5.l ! A.>.-.Z >.f.~ V { #.Z ",
"5.-.-.).U +.U >.-.{ A.5.5. .J } { +.Y Z U J } R @.+.R.~ f k -.{ 2 2 i +.5.>.u.f.f.f.A.-.u.A.f.f.5.5.! J -.>.g #.A.v T ).-.{ {  .-.A.A.A.U 5 l ~ ;.2.>._ U f 5 2 5 { 5.>.f.A.f.f.A.u.>.>.,.+.+.-.5.A.{ -.-.9 x -.-.-.5.A.! U V k } { { A.-.i ~ 5.+. .5.-.r 5 5 { u.5.A.f.f.u.A.5.-.-.*.-.W.W.A.A.~ Z >.A.Z J 3.5.~ -.5.y {  .1.-.J v.#.y >.U f Z Z -.! 5 5 +.5.,.f.A.f.f.A.5.~ U >.W.W.A.>.-.{ 5.>.-.>.g l :.;.{ Z >. .#.~ -.Z { >.).>.>.A.5.#.5 i 5 5 ~ 5.5.A.f.f.f.f.f.Y.>.-.>.` >.5.Z Z )._ ` 5.-.>.-.J  . .5.{ 5.>.g } ~ -.2.",
">. .>.5.-.-.x  .-.f.A.>.+.-.v -.f.` -.! ~ +.! -.U -.+.U -.+.{ { r 5 2 i -.5.>.f.f.f.f.A.A.f.u.A.5.5.-.l F 5.#.>.5.U { f.5.{ -. .+.-.>.` >.>.J U { >.-.n 5 D { i 2 i +.5.>.f.A.f.f.A.A.b  .Y.@.-.M.A.` T J 9 >.{ l ,.>.-.! %  .+.+.>.M.5.B x 5.>.5._ _ -.Q i e i +.5.5.A.f.f.f.A.5.-.5.5.A.A.5._ 5 Z 1.1.>.>.x U { { >.Z ` #.R A.2.~ Z F >.A.Q e i Z -.! e i } 1.,.f.A.f.f.f.5.{ -.W.W.u.n.+. .~ U P  .v >.#.+.>.~  .+.2.U +.~ +.5.u.5.{ -.A.-.9 J F e 5 ! 5.1.f.f.f.f.f.f.A.;. . .u.A.` -.{ +.+.-.M. .5.-.~ ! 5.5._ } V J  .+.5.",
"Z ` 5.5.W.A.} h v f.>.-.J -.Z >.W.#.x Z >.2.U +.;.F +.{ 5.>.>.5 e a 2 2 a -.5.,.f.f.f.f.A.5.A.,.1.1.5.Z U 5.A.+.Z >.+.>.A.+.~ _ 9 Z  .-.>._.+.9 +. .3.U B ~ -.{ 5 0 5 ` 1.>.u.f.f.f.A.' A.f.-.-.5.W. .f U -.Y._ 9 >.-.{  .k >.1.-.+.+.A.>.-.{ -.U -.5.>.~ k j 5 i +.5.5.A.f.f.f.f.,.5.W.W.u.F V F v 5.,.5.A.Z x ' U =.>.A.-.#.).u.{ f -.~ U U ; ; ~ +.2.+.2 5 ~ 1.,.f.A.f.f.A.u.5.>.A.f.u.5.v & l -.>.:.W.J {  .{ >.5.~ g  .-.+.A.&.A.-.>.5.{ +.~ J i i 5 ~ 5.,.f.f.f.f.f.f.5.-.>.f.W.>.-.h 5.-.>.).5.U 1.>.5 ~ +.9 5.+.-.@.+.;.",
"f R  .).W.>.v Z  .f.-. . .u.v.{ v n U -.M.~ ~ @.,.F ~ A.>.~ +.V V D i 2 7 e ~ 5.1.f.f.f.A.5.5.A.f. .J v } 5.{ >.J ` 5.5.A.>.i V @.@.' 5.f.u.+.F U U 5.u.>.! 5.{ k e 2 5 Q 3.,.f.A.f.f.A.A.f.~ -.f.A.x 9 >.A. .` _  .5.>.n.l ~ f.>.F h >.'.-.5 { U F +.>.5.Z x e 2 r { 5.5.f.f.f.f.A.5.f.).5.{ Q U 5.-. .M.-.i ! A.>.5.-.2.v ` W.Y.{ 9 v  .f 5 B k 2.T >.n.~ 5 3 J 3.,.f.A.f.f.A.A.>.5.A.5.5.2.~ V +.>.>.3.-.+.*.-.+. .U O.:.M.5.{ +. .A.-.~ f +.+.k 5 5 e 5 ~ 5.1.u.f.f.f.f.f.A.&.>.A.A.3.V >.5.-. .5.Z ` ,.U Z 5.~ ~ >.-.>.+.+.",
">.R R A.Y.>.-.-.A.A.-.~ U u.>.~ Z >.>.-.>.v >.-. .` ` A.} 5 V U { J 5 j 2 q 5  .5.1.f.f.f.f.u.A.-.5.Z ~ ` 5.-.>.M. . .2.A.>.Z { ;.{ >.3.>.5. .Z l U -._. .{ +. .+.i 5 5 2 J 5.,.u.A.f.u.f.u...5.A.-.9 ~ W.u.2.+. .U U 5.3.Z ~ A.>.J U -.A.Z +.{ ~ { { 5.2.U 5 e e 5 9 ~ 5.1.A.f.f.f.f.u.A.u.>.v ~ 5.>.{ >.<.{ -.5.-.-.>.2.f +.).#.y x g ~ >.F }  .+.4.{ 3.;.M e 2 J 1.,.5.A.f.f.f.A.A.A.Y.5.5. .~ ~ ` ' 5.5.5.5.Z U 5.x -.-.u.5.l 4 R W.~ Q T _ A.l O.9 k V 2 J 1.1.u.A.f.f.f.f.A.A.A.1.5.3.Z { -.` 1.>.{ +.5.5._ J ~  . .5.-.{ ",
"A.>.U v 5.A.>.A.5.Y.! g 4.-.-.>.~  .A. .-._ +.~ U A.+.5.~ k x 4._ r Z ~ x 2 e k >.1.>.f.f.f.f.A.5.-.-.U +.).+.-.5. .-.>.-.5.>.Z 5.>.-.>.~ ;.U g f 2.-.,.-.Y.+.Z { U k 7 w 5 U ,.,.f.A.f.f.f.f. .~ >. .{ ).5.Y.-.h U Z ' A.Q y  .A.-.{ -.h U '.5.Z >.M.#.` } k i { B 2 9 U 5.5.A.f.f.f.u.f.5.f.+.>.>. .U 3.5.1.f.+.-.` 5.>.! -.5.U ~ U {  .-.+. .+.} -.2.5.} 5 a e 2 Z >.,.5.A.f.f.f.A.Y.1.>.~ -.+.x U R A.u.5.!  .>.A.V Z >.5.{ R { >.=.{ { >.+.>.A.` ~ +.J i < h >.5.5.A.f.f.f.u.f.A.-.,.Y.5.V U ).5.>.+.2.-.+.9 l 5.U -.A.>.{ ",
"f.A.~ Z >.A.W.@.>.5.U } >.-.-.5.+.#.2.5.>.i U >.! -.{ { -.>.{ ` _ i ~ U +.i 2 2 l 1.1.1.f.f.f.A.5.` 5. .-.5.>.{ >.5.>.-.>.,.-.5 +.-.-.` h >.Z 9 { >.5.5.>.-. .+.Z J ~ B i 2 5 F >.,.A.A.f.u.A.{ ~ 5.>.5.A.-.-.+.T { A.,.~ & 6 ` Y.2.5.Z s -._.>.~ #.-.Z } -.F j ~ J 9 5 9 F 1.1.f.f.u.f.A.A.5.5. .5.#. .>.f.2.1. .-.-.5.R.x l :.l -.>.l U <.5.5.Z 5.-.+.).:.5 i ! j 2 Z >.1.5.A.f.f.f.A.5.-.Z >.3.T 4.>.u.A. .v >.A.-.U -.` -.>.2.>.>.5.-.-.-.-.~ 2.'  .A.F 2 B 9 l >.1.5.A.f.f.f.u.f.f.5.u._.>.~ T >.>.{ x +.g x ~ A.5. .>.5.-.",
"f.A.5.-.x +.Y.@.5.-.Z 5.5.5. .>.-.:.~ @.-.f U >.@.5.-.v -.>. . .A.Z x { B r e 2 2 Z 5.>.5.A.f.f.f.A. .~ ` ,.u.U { W. .U A.,.` f U >./ -.T >.y } A.>.5.-.} s -.A.-.U Z { Q 5 5 5 V >.1.A.A.A.f.u.} ` f.A. .} >.5.2.Z ` 5.U y -.5.A.>. .Y >.-.v. .~ +.R 5.x k { i i i -.V 2 5 { 5.5.A.f.f.f.f.u. .` 5.>.f.1.5.Y.-.` -.+.#.{ F x 3.{ -.A.l v ).3.@.Z x Y.A.5.>.Z 5 { V i 5 k -.1.5.A.f.f.f.A.n._ -.>.5.5.>.-.5. .+.-. .A.U +. .{  .-.-.A.).5.~ -.! h >.A.Z 2.-.U F i 7 l >.5.5.A.A.f.f.f.f.A.f.A.1.>.g +.-.` T -.Z +.@.>.>.>. .` } ",
"A.f.Y.5.~  .>.5.5.>.-.1.A.5.A.3.U Z +.5.5.} k 3.+. .`.-.{ -.A.~  .5.5 ~ { i { g 2 2 Q 5.,.5.A.f.f.A.+.x 5.5.A.' { 5.-. .U -.+.f U A.3.+.V Z } -.>.!.U s { -.>.A.{ ~ >.5.Q 5 5 5 7 Z >.1.A.A.u.A.>. .~ A.` >.A.5.5.J Z f.T { ).>.' >.R ;.W.-.~ +.{ A.>.-.Q k { l F V >.n.F 2 i { 5.5.f.f.f.f.A.2.R { u.u.Y.A.5.5.U ;.Y.F U V v ~ -.n.>.{ :.>.5. .5.{ -.{ R Z :.:.-.B V M 2 j +.5.5.A.f.f.u.A.>. .-.5.W.2.~ >.>.4.~ ' A.U ~ A.:.U #.+.-. .>.P  .`._ ~ -.x -.>.-.Z B e e f  .5.,.f.f.f.f.f.f.A.f.5.>. .>.x ` u.Z +.M.-.{ { { ~ } ~ ",
"u.f.f.A.n. .-.>.A. .5.f.A.U 3.>.>.~ -.A.-.U x h R >.-.} R 5.~ Z ` W.J g -.i Q Z - e 5 U 5.>.5.A.f.f.5.-.U  .Y.5.5.>.+. . .>. .U ~ ).{ 9 { ! +.-.3.>.Z ` 5.+.-.A.{ { { -.~ k Z 2 5 5 B >.,.f.f.f.f.A.+.-.>.5.A.R.5.V +.A.~ >.A._ { 3.;.f.u.>.y { 5.-. . .A.g  . .-.-.J U #.l - r ` 1.5.f.f.f.f.A.-.U  .A.f.f.,.1.>.` `.! ; Z _ -.-.{ >.A.A.~ 5.5.1.5.x Z +.x >._.+.Z ~ Q k 2 e { 5.1.A.A.f.f.A.5.>.A.5.-.{ +.:.>.U 5.~ ~ 5.5.>.` { ~ U 5.` @.A.>.f s >.T -.,.5.~ +.k l 5 5 _ 5.,.f.A.f.f.f.f.f.Y.~ ~ A. .-.{ -. .-.-.>._ -.-.A.+.",
"1.u.f.f.A.` >.5.5.>.u.>.~ ' -.>.1._ ;.u.Z V T l ~ +.Z +.U >. . .A.5.Z 7 ! f ~ R F 2 2 3 ~ 5.>.u.A.f.f.f. .-.-. .u.1.-.+.5.+._ A.' 5.l U 5.>./ >. .~ T U ).+.Z -.>.-.~ J x +. .J 2 e 5 Z 3.1.f.f.u.f.Y.>. .A.>.A.).{ v { ~ -.f.5.n.` _ A.>.{ g T >.} Y.u.~ l ;.-.>. .l Z Z F k 3 5 ~ 5.1.f.f.f.u.A.5.>.5.>.1.>.A.).>.-.U g } >.5.5._ -.5.A.#.~  .5.5.9  .A.5.~ J 6 >.-.~ F r e 5 { 5.1.f.f.f.f.f.A.f.,.A.F ! -.-.-.4.Z +.2.+.+.@.{  .>.5.5.A.-.5 U ` #.>.-.u. .5.-.U +.B < 5 Q 5.1.u.A.A.f.f.f.A.-.U >.Y.>.U 1.5.R U A._ { 3.A.v.",
"u.,.u.f.f.A.u.5.>.>.u.R U A.>.5.5.n -.5.i _ -.M. .~ ^ v ` <.A.R :.R >.! < V {  .-.~ 2 e 5 ~ 5.>.f.f.u.u.W.5. .5.f.>.-.n.5. .+.-.~ -.>.! }  .;.).U l #.5.` T 2.{ 5.} Z 5 k ~ { -._ 2 2 5 F 5.,.A.A.f.f.A.`  .>.A.5.Z U Z } Z A.).;.2.>.-. .` -.~ 5.>.+.+.{ :.+.y +.U ~ W.J B V 5 e e ~ 1.1.A.A.f.f.f.Y.f.-.h { W.-. .R  .{ }  .-.;.,. .>.-.T >.-.>.W.Z  .5.Z x U ~ A.>.n.>.x 2 e 5 ~ ,.1.f.f.f.f.u.f.A.W.! U >.+.~ >.-.+._ ~ `  .-.+.5.-.5.).5.l R 5.~ >.' Y.-.` A.>.+.i J k 7 F 5.1.5.A.f.f.f.f.A.5.' -.5.u.>.5.R v f.-.J Z 5.A.",
"-.5.>.f.f.f.f.f.-. .5.>.5.A.A.{ Z -.-.&. .~ } 5.~ { { ~  .` A.:.v l v.-.i j f +.~ 4.Z - e 5 ~ 5.,.f.f.f.u.f.u.f.f.` ' 3.>.A.Q Z >.-.>.2. .Z >.>.~ V 5.-.} _ >.5.+.Z h J D V +.5.A.{ 2 e e ~ 5.5.A.f.u.A.u.>._.>.>.~  .A.-.~ >.f.>.-.-.#.{ U A.A.-.~ f Z ).>.` l _ -.#.5.{ j 2 B i 7 e Q 1.1.A.f.f.f.f.A.P Z +.>. .,.A.A.5.l J -.>.>.n 2.-. .5.5. .A.{ Z Z v >.-.{ 5.-.>.A.F i k 5 5 F >.1.f.A.f.f.f.f.Y.-.>.5.9 f >.)._ v 5.U R A.5.{ 5.>.-.` n ~ G { ).-.U 2.>. .{ -.F 2.f 2 5 F 5.1.5.A.f.f.f.u.A.>. .>.3.;.+.U ~ 5.5.{ @.@.>.",
"i >.,.1.A.f.f.A.5.Z >.f.A.f.A.+.Z 5.T >.A.{ ! V 5.+.~ T -.R  .1.U U  .-.9 - 2 k U 3. .5 2 e e { 5.,.A.A.f.f.A.u.5.` n.5.-.{ i U 5.` >.-._ U 5.-.U _ ,.Y U Z { A.+.l U U U Z { 2.-.A._ < e e { 1.,.f.A.f.A.A.u.>.A.{ U u.5.u. .+.>. . .-.~ { 5.W.-.v -.` @.>.A.-._ Z >.~ f B 5 5 -.F < 5 { 5.1.f.f.f.f.f.5.A.>.~ >.A.A.A.A.U ~ A.+.~ Z ).-.A.>.5.{ -.-.Z -.>.-.-.U ~ U  .-.~ J 5 i e 7 l -.5.f.f.f.f.f.f.A.).>.F :.U -.2.x ~ A.A.,.5. .-.U y >.-.@.+.>. .>.Z 5.5.-.! ~ ~ g 5 F S 2 Z 3.5.5.f.f.f.f.u.f.Y.{ { W.5.v U >.5.5.W.-.f ",
"2 x 5.>.1.A.f.f.5.;.>.3.f.,.=.A._ { i v 5.Y.~ k 2.U -.Z >.-.-.-.-.#.U >.k k ~ f -.-.2.:.f 2 e i +.1.,.A.A.f.A.A.5.1.A.).>.v U  .5.R 5.` +.+.~ >.-._ >.-.#.V #.>.{ V { { -.! k { >.A.5.U - e e +.1.1.A.f.f.f.u.5.u.-.-.5.A.A.-.+.-.` +.~ -.>.5.>.-.A.Z 2.;.>.A.;.i 2 { U k { F 9 5.).F 2 r  .5.1.f.f.f.u.f.A. .-.&.5.).f.A.5.>.h g 5.+.{ 2.{ >.1.{ ' A. .~ { ~ >.` U ~ -.Y n.J ! B e e 5 k -.5.5.f.f.f.f.f.A.A._ -.{ ` ` Z ~ ,.n.-.1.U _ >.~ 5.Z +.5.A.` ~ R -.u.5.7 v ~ v } >.V 2 5 x -.5.1.f.f.f.f.u.f.5.+.W.).;.r ~ -.>.5.>.h ",
"2 2 Z ,.,.u.A.f.f.A.f.A.f.u.f.>._ y Z h >.).U _ } V A.A.` -.R -.+.} -.-.B < >.+.{ >.~ -.+.7 2 3 i -.>.5.A.f.f.A.A.>.5.A.A.+.9 -.5.A.>. .+.5.x U -.R >.4.5.5.-.-. .f  .>.2.^ i +.3.A.>.-.J 2 e k -.1.5.A.f.f.A.5.>.>.-.A.W.5.5.>.X.>.U +.>.-.5.' >.5.v ~ A.-.,.5.B 2 U -.>.-.+.f >.>.-.l 5 i +.5.1.f.A.f.f.f.f.u.>.,.A.A.>.A.{ v ` >.~ T A.Z +.>.>.>.5.Z ~ 2.5.U U +.>.@.3.W.>.Z k J l 5 e l ;.1.f.A.f.f.f.A.5.-.5.A.>.T { { ~ >.>.5.~ ~ 5.3.>. .-.-./ ).~ Z 5.-.5.U { 3.>.U -.g i U 2 i { 5.1.f.A.f.f.f.f.A.5.W. .U _ V A. .A.5.",
"5 2 2 F 5.>.u.f.f.f.Y.A.Y.1.u.>.T g 5.F -.).T { -.~ -.5.g >.3.-.~ J A.-.l l -.} +.:.Q j l 5 5 2 2 ! 5.,.5.f.f.u.A.5. .5.A.` U >.>.Y.3.+.g { -.h >.>.A.#. .>.A.J `  .-.v.-.>.U V ! ;.:.>.A.B 2 5 k -.5.5.A.f.f.f.A.' -.W.A.5.>.:.1.:.J { U >.A.{ ~ v -.~ T { 5.A.U 5 { -.>.>.~ ~ } R Z 5.g < i { 5.5.A.f.f.f.f.f.5.5.5. .1.).-.-.{ -.+.{ >.4.~ +.>.5.*.{ +.-.-.{ ~ -.5.5. .` 5.-.2.#.x k r 5 l >.1.5.A.f.f.f.f.f.Y.).W.{ Z U +. .+.+.@.~ -.5.5.).>.+.~ U { f.5.>.5.!.F f ~ x { < F ~ B k < { 5.5.f.A.f.f.f.f.f.W.~ R R _ 5.>.5.-.",
"v 7 2 2 ~ 1.>.f.f.f.A.A.5.-.A.-.+.~  .{ -.5. .`  .+.U @.>.3.5.:.} _ >.5.! ! J { U -.+.B e k D 5 5 i U >.,.5.f.f.f.A.>.>.A.5.5.{ 5.A.A.v f -.2.f { W.5.5.~ J -.{ -.u.~ >.>.~ P 5.F V :.4.5.J D 2 5 k >.1.5.f.f.f.f.5.u.A.A.Y.` _ 5. .i Z -.5.2.B % -.n.k g 5.>.T _ B ~ >.>._.>.f } u.U { ` l 7 5 ~ 5.1.f.f.f.f.f.f.5.5.>.5.A.5.1.-._ -._ +.{ k { ~ 1.<. .} 5.-.V 2.@.4.+.~  .5.A.>.-.U :.~ 2 5 x >.1.5.A.f.f.f.f.A.A.f.>.5.-.+.k _ { >.+.-.-.-.A.A._ g Z 3.5.-.-. .~ l f #.v Z i -.~ _ >.B < F 5.1.u.f.f.f.f.f.A.-.V +.>.5.5.>.U ",
"U l 2 2 r +.1.,.A.f.f.f.5.A.>.` @.c {  .>.5.>.{ J Z A.-.+.A.-.U #.-.R >.} +.~ 2.+.3.+.i B r i r 2 5 2 U 1.>.5.A.f.f.A.u.5. .+.>.>.1.A. .-.u.U 5 ;.3.>.5.J 9 R 5.A.A.~ ~ >.:.-.u.>.v ~ :.-.Z ! < 7 7 l >.1.5.A.f.f.A.f.W.A.@.R >.-./ ~ -.`.>.{ 5 U W.>.x ^ 5.5.l f ~ -.5.A.5.` v ~ `.+.U >.5.B 2 r Z >.5.f.f.f.f.f.u.W.u.f.1.5.f.#.~ { Z -.V y } -.;.Y.n.>.>.5.g ~ A.-.v >.A.} >.-.v.-.=. .2 e 7 k -.5.1.f.f.f.f.A.f.W.>.;.>.-.V R A.-.l ~ -.A.>.5.V h ` 5.5.X.-.+.i ~  .-.Z Q l +.>.J U A.} 2 U u.,.5.A.A.f.f.f.f.{ -.-.>.u.W.-.",
"U -.9 2 2 g >.>.1.A.f.f.A.,.,.` y Z 5.~ f.Y.).g - Z ).5.~ >.A.v { >.U :. .{ ' >.3.A.5.l V k D i k - 2 F ,.>.>.5.A.f.f.W. .Z -.5.{ { A.W.f.>.V f -.5.~ } Z h ).>.-.A.-.{ -.>.+.>.>.>.~ ~ 5 V { F j 2 5 l >.1.5.A.f.f.f.A.f.@.` A.A. .>.5.>.5.5.+.5. . .v { A._ Z Z J { 5.>.} R W.-.-.-.+.+.-.} 5 5 7 V >.5.f.A.f.f.f.A.Y.A.u.-.5.5.U -.U >.-.~ @._ >.+.u.A.} V -.Z ~ f.-.Z -.{ 2.~ ~ 3.A.>.9 5 i 7 i } 5.5.f.f.f.f.u.W.{  .Y. .{ ;.A.3.~ U -.A.5.-.i Z A.,.>.5.5.~ y #.,.-.v { +.Z +.~ 2.-.~ { 7 U 5.1.5.A.A.f.f.f.A.5.>.>.5.A.W.",
"Z ~ ~ i - 2 F 1.>.1.A.f.A.5.5.Z  .2.>. .).' ` c Z -.A.5.n.{ -.<.+.-.+.v Z { -.>.A.A.>.Q - B Q F x B - 5 Z ,.>.,.u.A.f.f.A.u.{ T  .5.5.-.5.>.x U >.#.-.U  .5.-. .-.4.+.{ 2.-.-.} R 5.-.Z 5 V -.~ ~ k < 5 l >.1.u.A.f.f.f.A.,.>.f.A.5.-.5.A.-.~ U v n -.5.U Z 4 -.-.~ ~ -.! +.).5.5.-.A. .5.~ g 5 i 5 5 l -.5.u.f.f.f.f.f.A.A.R 5.A.`  .-.` A.{  .+.~ :.u.A.{ 5 -.>.{ { _ g U >.>.+.J -.5.A._ i i e 5 i U 5.5.A.f.f.f.f.u.,.>.5.&.>.;.-.2.{ :.5. .J f x 1.A.5.-.2.{ F Z 5.-.{ ~ >.-.~ ' ).>.{ { f < F >.5.1.A.A.f.f.f.5.Y. . .A.Y.",
"g R 3.-.i 2 5 ~ ,.>.5.A.f.A.1.>.5. .f.5.;.-.v 5.A. .A.:.U -.>.;.+.-.-.F J >.:.4.-.A.Z 9 i J _ f j ~ B 7 5 _ 5.>.,.u.A.f.f.Y.U ! >.-.@.R A.u.#.-.~ T u.n.~ -.Z -.).-.5 F _ -.-.J { >.-.+.l ; +.~ Z { l 2 5 l >.1.5.A.f.f.f.u.>.f.f.A.5.A.A._ y U i { 5.Y.~ V V 5.>.5.>. .#./ A.5.-.{ -.>.-.; V ! a e e 5 l -.5.f.f.u.f.u.A.>.R Y.A.~ { -. .>. ._ ~ J A.Y.f.-.k +.-.>. .U ! { U A.V } R >.5.-.-.k k e e 5 Z -.5.f.f.f.f.f.A.5.@.-.u.5._ +.x h M.Z h #.Z U 5.A. .~ v { Z :.>.>.-.} ~ 3.>.>.-.>.7 < i 2 k { 5.5.f.A.f.f.f.Y.Z ` Y.Y.",
"-.-.` -.Q e 5 9  .1.>.5.f.f.f.Y.>.>.-.5._ 5.+.>.A.5.>.U +.-.>.u.+.#.` ~ ! { { Z U u.x f  .~ >._ ^ ^ B j 2 5 { 1.>.,.A.A.f.A.5. .>.R >.A.-.v u.).U F u.5.-.>.~ 3.A.{ Z U g ` >.>.>.T { V ^ l {  .~ >.-.2 5 5 F 5.,.u.A.f.f.f.5.u.-.5.).>.>.' f l { U 5.Y.A.` ! A.>. .` A.).+.U 3.Z U } 5.-.y +.^ i u 5 5 e k ~ >.u.f.f.f.f.f.A.A.A.U f { -.-.:.v ~ >.A.A.5.-.5 l 5.5.A.:.Z ~ -.A.~ Q y >.>.#.U U B 2 5 e 2 Z 1.1.f.f.u.f.f.A.@.3.A.1.#.f J n 5.` U >.5.~ 5.f.+.V +.-.>.#.U >.).-.g A.W.5.#.+.i i i k e 2 J 1.1.f.A.f.f.f.1.f.-.` ",
"A.-.{ -.U 5 e 5 j -.5.>.f.A.u.A.A.5.` W.` Z U ' 5.>.-.5.A.5.-.~ } ` ~  .~ U ` { ~ -.T _ -.>.>.>.-.! 5 J F < e { 5.>.1.A.A.f.A.f.f.>.u.U U ~ f.3.+.v ` 5.-.>.5.>.-.A.J i h 2.A.+.~ { x Q  .-.V  .{ >.~ l 9 2 5 Q 5.,.u.A.f.f.A.f.>.5.A.1.>.-.~ Q U { 5.A.u. .~ ~ U  . .5.u.+.g >.-.F 2.-.~ 5.` ` >.k 5 i 7 r 5 _ 5.f.f.f.f.f.A.u.A.5 f -.>.>.>.{ -.A.f.5.f.+.Z { { u.A.+.Z -.5. .~ v J -.A.{ 4 >.{ j i k i i  .1.,.f.f.f.f.f.Y.>.>.5.:.g +.V >.{ ` 5.A.5.5.-.+.`  .5.,.-.@.u.;.-.Z #.>.W.>.` x Z { Q B e 2 ~ 5.>.u.A.A.f.A.A.A.~ ",
" .5.-.U Z r e 5 5 f U >.5.A.f.u.f.5.u.A._ $ Z 5.1. . .A.u.>._ g -. .U 5.U -.W.~ l +.{ -.@.5.-.>. .V 5 k O.U 2 e U 3.>.,.f.f.f.A.A.Y.5._ >._.U l V U -.>.;.u.A.5.+.-.5 9 -.A.{ ~ -.-.-.+.-.+.U +.>.-.{ Z V l 2 5 ~ 5.>.u.A.f.f.A.u.5.A.A.+.v  .-.V 5.5.5.5.5.~ ~ >.5.>.+.{ +.J 5.+.Z 2.A.{  .+.+.>.5 - k r 5 e J 3.,.f.f.f.f.f.A.A.f +.A.>.A.f.+.-.5.5.5.>.5.,.>.Q >.+.V 2.5.#.5 U ~  .>.;.-.U  .>.Z +.-.V 2 f -.1.,.f.f.f.f.f.f.-.Y.5.7 Z J >.>.>.5.n.A.5. .{ +.>.1.=.5.-.' 5.>.v +.+.5.U -.2.-.-.! r i i e J 5.>.5.A.A.f.f.f.u.",
"5.,.~ { J 5 5 i 5 e 5 V >.5.f.f.f.f.5.;.{ U J -.W.U ` ).u.-.}  .A.-.>.A.} U -.>.-.~ ~ ~ { -.>.! f . 5 ~ +.v.l 2 5 Z ,.>.1.f.f.f.f.A.5.5.f.5.f x Z  .-.>.` ).>.U ~ >.} ^  .>.~ _ Y.5.A.B < Q ~ -.5.A.{ Z V -.f 2 5 ~ 5.>.u.f.f.f.f.A.5.+.U U 5.>.-.-.~ 5.A.Y.~ -.-. .-.-.v A.A.{ Z -.{ 5.5.-.+.~ Z Z i B O.i 5 5 { 5.>.f.A.f.f.f.u.3.2.+.>.A.5.P 1.u.5.>.U 5.W.A.U Z  .! >.h ` U ~ `.~ Z Q {  . .A.~ ~ -.V ! 7 k -.5.>.f.f.f.f.u.A.A.Z g F ~ -.W.` >.A.&.,.` 5.>.5.>. . .T ^ -.1.5.{ Z A.-.5.>.2.~ k 5 B -.i 5 { 5.>.5.A.f.f.f.A.",
">.-.+.{ l j Q D i 2 e e Z >.5.f.f.f.A.-.Z >.>.R @.5.>.5.Y.A.>.' v.-.>. .2.~ { Y.A.{ Z } ` ;.Z % Q  .{ -.5.5.T 5 5 2 F 1.>.5.A.f.f.u.A.>.,.;.P 5.} ` f.+.+.).F { A. .5.{ { ` +.5.A.5.5.+.F g { +.-.-.>.F < V 2.5 2 5 ~ 5.,.u.A.f.f.A.5.~ 5.A.5.-.-. .-.-.>.5. .` -.U -.+.-.f.>.>.U U v U n.,.` Z -.>.-.g D i 5 5 i +.1.,.u.f.f.f.f.A.5.;.-.Y.u.-.5.5.-. .-.5.5.-.,.v _ / R >.5.5.} 5.-.f V >. .+.n.F k Z k Z y 2 i { 5.1.f.A.f.f.f.Y.~ ~ -.{ -.n. . .).{ 5.>.>.A.5. . .` -.{ ;.>.Y. .Z -.A.5.5.{ V { ( ~ { +.k e { u.>.5.A.f.f.f.",
"-.M. .-.k j k F D 7 7 e 5 J 1.5.f.u.f.5.J -. .>.` A.5.5.A.5.f.+.-.>.A. .R +.{ >.+.-.~ >.>.;.j ~ ! Q +.-.).#.l i 7 5 5 J 5.>.5.A.f.f.A.5.>.-.A.<.>.{ >. .A.5.U A.A.R -.5.~ >.} Z { -.R -.A.+.B ~ >.>.U l ! 5 >.Z 2 e e Q >.>.u.A.f.f.A.>.1.u.>.u. .g 5.A.;.A.-.Z A.-.+.U ~ >.` 5.+.5 6 -.>.,.-.U { ).` ~ ~ J D 5 7 f  .5.>.f.A.f.f.f.A.A.5.-.Z -.f.~ v A.-.>.-.-.A.Z g A.-.>.}  .5.-.{ Z { 5.3.3./ >.! < < Z ~ ^ 2 5 Z -.1.u.f.f.f.f.u.5.{ F A.+.T  .A.:.5.A.>.-.5. .-.A. .Z U -.5.5.f ~ A.>.5.+.f ' -.4.x Q F 7 5 ~ 5.1.5.A.f.f.",
",.5.>.J 5 < 9 { V J i 2 r r ~ 5.u.f.f.f.-.U ~ -.f.A.#.{ u.u.A.5.>.u.5.U +.! i 5. . .>.+.U -.~ 5.Q i +.:.-.Z e k B 5 e 5 J 5.>.5.A.f.f.A.5.>.5.5.5.5.+.-.>.5. .5.2.-.5.A.+.Z U l U ' 5.1.W.2.9 } R >.-.{ ! 5 ~ 5.l 5 e 5 Z >.,.f.f.f.f.1.5.u.-.).-.5 -.).5.Y.` { 5.5.Z x x ~ >.>.~ 5 U A.~ { ).{  .). .5.+.J i i 5 2 i  .5.>.f.A.f.f.f.f.A.~ v 5.&.-.5.5.` >.+.>.J -.-.5.5.+.x U #.{ ` ~ -.W.U R +.~ ~ 5 2 Z +.{ ~ f 2 k -.1.u.A.f.f.f.Y.-.U ` -.+.-.n.M.A.-. . .-.} ! >.5.! x >.W.>.F >.>.~ f.U +.5.+.Z l f y Z D 5 V 3.5.1.A.A.",
"5.-.2.g 5 - < ~ v ` ~ < e r i  .5.u.f.f.A.~ R -.).u.U ` 5.>.W.-.{ >.f.-.` } V ' -.A.v x Z -.P n.3.5.2.} < 2 5 - B { 2 e 5 F >.>.u.A.f.f.f.>.A.5.5.f.5.` { A.u.;.T -.A.A.+.i Z -.-. .>.n.5.-.~ J U -.A.).D 2 V @.U U 5 5 5 U 5.>.f.A.f.A.A.u.5.u.Z { Y.A.A.;.l 5.-.-.V Z 5./ +.2.F +.>.5.} ~ { 5. .-.-.).#.- @ - i f 2 i #.5.>.f.A.f.f.f.f.u.@.-.,.5.-.u.5.v.{ J Z >.5.+. .' l o.U -.-.-.~ ~ Z  .-.U #.U B 5 2.>.J V r 2 Z 5.>.5.f.f.f.u.Y.>.{ -.>.5.{ 5.A.U ~ 5.-.+._ +.n.>.{  .A. .v  .>.{ +.{ -.U ,.~ +.{ Z +. .J 5 j -.5.,.f.",
"5.>.{ V < k O Z -.` v.V 2 r r g -.1.f.f.f.f.-.+.A.5.>.Z v >.>. .A.v  .A.5.n F +.>.} Z ! l A. .{ >.!.Z { k 5 k _ x -.B 2 e 5 B >.,.f.A.f.f.f.A.>.A.A.5.g ~ 5.3.-.~ 5.A.u.+.J  .>._ >.5.-.5.#.F f U ` A.A.Z l 2 5 J 5.-.5 5 k 2.,.>.f.f.f.f.f.5.u. .A.5.A.` >.-.` 5.>.h { -.-.{ +.T +.A.A.u.} Z { >.U 2.5.2.k k B { k j 5 i +.5.>.f.A.f.f.f.f.1.&.>.M.>.Y.5.J V  .).Y.f Z =.5.x Z 5.{ -.{ l T U 5.5.~ -.{ { F -.>.x f Q k 5 ! 5.>.5.f.f.f.f.f.A.~ _ 3.~ @.>.` 5.Y.n.>.Z -.5.~ >.` -.5.V 4.@.3.{ A.x U _.{ x } x 5.~ x J 5 i +.5.,.",
"A.1.! F :.Z 2 ~ >.-.5.+.5 2 5 9 V >.5.f.f.f.A.>.>.;.x 5 h 5.-.-.A.Z  .A.5.~ -.U >.g -.-.-.A. .Z s >.>.+.F k _ 5.} ! Q e 2 e 5 ^ 1.>.f.A.f.f.A.A.A.-.P Z A.A.-.v _ 5.' { A.>.V 4.5.-.>.Y -.~ x 9 { 5.-.>.} -.Q < i W.).J 2 e V >.>.>.A.f.f.f.f.Y.5.-.>.>. .-.Z R -.~ h A.>.U ~  .T -.A.-.>.-.A.~ ~ ~ >.>.~ { -.U g 5 ~ U 5 i +.1.>.u.f.f.f.f.A.A.5.5.A.5.U x +.>.A.5.g { W.:.Z U ).+.Y -.+.~ _ 5.W.>.h v 5.-.~ +._ Z ~ ~ 5 3 U 5.>.5.A.f.f.f.A.2.v >.W.V ~ A.A.A.5.5.U  .5.{ ~ 5.>.-.U 5.-.5.~ { ` >.W.#.U -.>.+.-._ Z Z 3 7 ~ 5.",
"-.4.v h W.{ k f { ` { ~ { k 2 e e  .5.1.A.f.f.A.>. .i 5 _ _.` ~ W.>.>.u.5.{ 5._ { >.>. .>.>.Z  .~  .`.-.i +._ } ! -.` F i < 5 r  .1.>.f.f.f.f.A.A.v ~ 5.).1.-.U #.5.{ R A.5.i { >.-.@.s -.~ 9 Z -.5.A.>.{ } Z F } 5.>.n.{ 7 2 V >.<.>.A.A.f.f.A.A.{ 5.` A.g J A.Z >.~ A.>.l i J A.>.>.{ +.>.5. .l g n.5.Z ~ ` -.{ ~ Q V D 5 5 { 5.>.u.f.f.f.f.f.A.f.A.5.-._ Z >.5.5.4.>.@.R +.-.v -.>.5.:.! V -.5.>.` U Y.A.i x +.-.} l e 5 5 F ,.,.1.f.f.f.f.A.2.Z >.+.Z Y.A.-.>.+.5.>. .5.{ >.R  .A.-.+.2.Z v { >.A.>.>.-. .C >.{ Z ! J V < U ",
"-.~ ~ 2.A.^ ; L B U V ~ 5.-.4 7 e x >.,.5.f.f.f.f.5.V x ~ 5.U T Y.u.A.5.5.>.5.5.U {  .` ` 3.{ ~ A.~ -.5.#.x Z A.+.-.>.{ ~ J 5 e i -.1.,.f.A.f.f.u. .-.>.>.u.5.1.A.V +.,.} >.B V 3.R -.T >.x n A.1.5.>.>.V F ~ +.>.W.-.-.#.7 5 7 x -.,.>.f.A.f.f.f.A.5. .W.+.Z >.5.{ T >. .g l ~ W.#.~ 5.{ -.+.v v. .-._ { ~ +.>.{ Y._ < Z ~ 7 e } 5.>.5.f.f.f.f.f.f.A.Y.A.~ V >.-.-.f.5.Z ~ { X.R 5.{  .>.<.U U >.-.>.-. .5.! J >.-.5.V B J 5 2 F ,.>.1.A.f.f.u.A.-.~ -.' W.5.-.>.>.A.-.~ 2.+. .+.5.~ ;.F { 5.Z U 5.5. .>.+.{ >.+.h v.>.V l V 7 ",
"-.+.-.5. .J i U { V B { f.-.~ 5 5 5 Z 5.,.u.f.f.A.5.`  .~ -.+. .).Y.u.1.A.+.{ >.@.` ` >.+.5.{ l f.5.{ -.-.5 ! 5.-.-.A.-.! +.i 2 5 g -.,.1.f.f.f.f.u. .5.-.Y.5.f.A.F { Y.>.+.Z x A.>.>.Z Z U -.-.W.3.9 { 5.Z { -.{ A.5.} _ i i 5 2 k -.1.,.f.f.f.f.A.5.' A.5.-.>.-. .L { } T A.>.>.>.5.2.l +.U 5.>.>.V 5 J -.u.U V >.+._ Q Z J 2 e ~ 5.,.5.A.f.f.f.f.A.A.Y.-.U 5.+.>.{ @.+.>.-.>.>.&.-.@.:.{ ` v >.A.-.` Z 5.+.F ~ T >.5.V { r 2 2 Z ,.,.,.A.A.f.f.A.5.U #.Y.u.>.5.-.>.~ { } { -.A.>.U / >.U ).Q g 5.,.5.-.~ +.5.-.{  .` J f J o.",
"` 5.{ >.{ g V F Z Z r >.A.U ~ +.< e 5 ~ 5.,.A.A.u.A.-.~  .-.;.>.>.W.>.-.f.Y.U l -.5./ +.+. .>.-.A.-.5.` -.l 5.2.~ Q A.>.9 - 5 5 7 7 k -.1.1.f.f.u.f.5.5.A.Y.>.~ ' Y.5.+.T A.{ k A.5.l Z ~ ~ 5.>. .@.{ 5.5.J l >.+.).5.i -.J e 5 2 5 i } 5.5.f.f.f.f.f.A.5.2.>.f.A.{ < f -.5.-.2.+.5.-.Z l U +.5.A.>.x 2 f A.>.{ >.+.>.;.O.! F e 5 7 Z ,.,.u.A.A.f.f.f.A.A.f.;.5.` 4.i V 5.U -.2.-.u.{ >.-.x >.F ~ u.-.-.{ v.Z Z ~  .2.).~ Z ! 5 e 2 V >.5.1.f.f.f.f.Y.>.+.2.u.2.5.{ ` -.{ U -.u.>.A.F  .5. .5.-.U 5.-.-.2.-.@.-.-. .A.-.+.{ U F ",
"A. .Z U ` U >.>.l 5 x -.5.-.U <.x < e r ` 5.1.A.A.f.f.-. .-.>.5. .5.U -.).A.2.x -.>.~  .f.{  .u.>.} 5.5.{ 5 -.f.A.Q ~ !.x a k i 2 5 5 f { 1.5.A.f.f.f.5.Y.A.-.#.-.A.+.+.{ >.#.5 2._ Z -.W.>.{ -.~ ` ).5.;.U T >.~ ~ -.F Z >.< k D < 5 e Z { 1.f.A.f.f.f.A.5.5.).u.~ 5 U -.>.-.-.+.{ ~ U +.U U 5.2.>.+.9 _ 2.>.5.>. .{ -.5.{ ! l k 5 5 V >.1.5.A.f.f.f.f.A.f.5.&.+.+.J -.` +.>.U 5.5.>.-.Z n >.2.R >.W. .l ~ ~ -.{ 5.>.>.+.T J k V l < l { >.1.f.f.f.f.A.A.5.>.V -.>.5.).~ ~ 5. .R ).Z -.5.v.T ,.>.4.-.>.` @.>.-.>.5.-.+.g U { D ",
",. ._ l ~ v.5.A.~ i F -.u.-.y +.+.5 5 e i  .1.1.A.f.f.f. .-.-. .5.~ -.5.Y.` -.>.A.Z ~ -.+.~ >.A.>.>.2.5.{ l !  .A.>.h 5.{ J >.x e e 5 5 r ! >.5.A.f.f.f.f.f.-.u. .3. . .).>.Z - ~ +.-.5.A.>.l V A.+. .>.>. .+.+.` Z ` _.+.-.J l ~ k < e 5 F 5.3.A.f.f.f.f.A.1.5.5.{ Z -.-.#.{ -.g U 5.n >.1.R 5. .v +. .A.-.+. .5.#.~ ' >.U v._ i B e 5 V >.1.5.f.f.f.f.f.A.5.5.-.3.U 5 ~ A.5. .5.A.{ ` -. .+.5.~ f ` I -.A.Z ;.-.+.v. .h Z 3.{ ! Z 2 5 5 Z 1.,.f.f.f.f.f.A.>.! ~ A.5.A.5.2.~ -.-.3.-.5.5.Z ~ A.~ -.-.-.U U >.`.>.+.U -. .~  .V ",
">.<.+.+.-.U V :.-._ ` 5.#.{ V l +.Z 7 5 5 i -.1.5.A.f.f.f.-.1.A.g ~ 5.5.>.v  .5. .U } >.#./ A.f.1.5.>.&.` ` -.+.+.>.:.~ +.n.~ B i i e 5 e r l  .u.A.f.f.f.f.-.5.5.5.A.Y.-.>.B - _ #.@.5. .{ { ~ _ } -.` A.~ v -.T  .A.>.>.x U } k V J 2 e k -.,.1.A.f.f.f.f.f.5.A.5.-.~ g  .v { +.R f.4.+.` >.-.A.@.@.,.>.{ 2.F 5.+.v `  .-.5.5.+.^ i 5 5 V >.1.5.f.f.f.f.f.f.5.f.A.J J } f.f.>.-.5.+.-.5.+._ h Z U U A.f.>.-.A.>.5.F V ~ ~ A.! +.F 2 e 5 5 ~ 5.>.f.A.f.f.f.A.>.~ A.&.-.>.A.>.-.>. .-.>.5.+.3.5.>.V V J :.~ -.5.5.5.+.{ 5.M.x - ",
" .P -.+.` v >.-.{ } -.-.-.~ ! +.~ r i 5 5 5 l >.1.5.f.f.f.u.@.-.~ 5.1.-.Z Y -.2.+.-.A.>.M.5.-. .5.5.~ -.+.U 5.).-.>.5.~ v 5.U x B i D 5 5 e l >.,.5.f.f.f.f.5.5.A.Y.5.3.5. ._ ! v } Y.-.U / A.>.U #.5.` 5.~ V O.Z 5.>.~  .:.U A.V k 4.l 2 e l ;.,.5.A.f.f.f.A.f.f.5.>.U V ~ -.{ 5.5.f.>.-.U U ;.u.,.u.} 3.R `  .f. .~ A.-.-.5.-.-.Z k r e 5 x >.1.5.f.f.f.f.f.A.Y.5.>.5.U :.Y.`  .5.A.>.-.4 U +.+.5.-.5.-.+.5. .f.W.{ f -.u.~ {  .i 2 3 k 5 5 _ 5.>.u.A.f.f.f.A.5. .5.+.>.Y.5.{ A.1.5.U { 5.A.5.5.U l 5.:.U ! x ` 5.5.-.Z A.U J ",
"{ h 2.>.{ Z A.;.U ~ +. .n.Z T  .g < ! k < 5 5 Z ,.,.u.A.u.A.f.U ~ A.-.T J ~ 5.2.>.5.5.5.u.-.J -.>.>.+.! Z +.>.5.f.+.l ` { v ~ n.U < i j 2 5 5 Q 5.>.f.f.f.f.A.u.5.Y.-.>.f.>.-.-.+.5.>.n >.5.#.U -.U -.5.Z ` ~ ! { -.-.-.` ).v ~ A.R  .l 2 5 5 l -.1.5.A.f.f.f.A.u.A.>.A.' Z +.R >.A.u.>.Z +.{ +.u.-.>.{ >.-.+.~ >.n.l ~ >.1.,.+.^ ; k l j r 5 l @.5.5.A.f.f.f.f.A.A.-.;. .U A.5.>.>.A.h Z +. .-.A.-.U -.` A.>.@.A.5.U Z U { +.-.{ 9 5 J ! M 2 5 T >.>.u.A.f.f.f.A.5.` -.5.W.u.R >.5.u.f U A.-.>.-.O.x -.~ ;.U ~ >.5.-.J Z A.-.~ ",
">.+.>.` >.+.A.5.J U -.-.Q < x #.U F -.k i 2 e e J 5.,.A.f.u.Y.} -.A.v J -.-.-.A.A.>.A.>.U -.-.-.5.-.i x 5.-.l +.5.~ f +.-.-.3.U x 5 r +.k 2 e 5 ~ 5.,.f.f.f.f.A.f.u. .-.>.5.5.>.>.U >.{ T 5.~ V { u.u.U y ~ -. . .5.:.J Z A.~ -.{ U  .Z Z k 2 e f +.1.5.A.f.f.f.A.f.A.f.{ Z -.-.U { f.5.{ {  .;.A.-.~ 2.Z -.5.-.5.-.i 7  .5.u.{ F k ~ F F ~ 2 2 f +.5.5.f.f.f.f.f.A.-.-.>.#.5.-.5.5.T Z ~ ,.-.U -.A.{ v  .>.J { f.&.3.+.~ U -.l 3.v V 5.>.O.J e 2 Q 5.>.5.A.f.f.f.f.5.-.5.).A.>.F +.' h } `.U -.5.} x { ~ >.{ A.~ T +.f ~ >.f.+.",
" .{ A.+.U >.>.v.V l { -. ._ 2.~ F +.! i _ i 5 e e ~ 5.,.f.f.u.A.A.>.F h 5.A.-.5.5.-.Y.A.x ~ A.V ~  ._ -.-.{ ! -. .-.-.A.~ ).+.Z V ! k +.-.k 2 e e ~ ,.>.f.A.f.f.f.f.1.5.-.f.u.>.~ ` >.5.-.~ U -.>.A. .J Q Z ` 2.U 5.A._ { R.T +.-.Q -.A.~ k 5 5 5 k +.5.1.f.f.f.f.A.Y.5.5.5.>.J 2 V A.A.5.{ -.).Z { >.} Z ~ { W.A.{ f ~ 2.-.>.M.` { l ^ i ~ +.i e f +.1.1.A.f.f.f.f.u.1.,.>.>.-.f.>.y } _ { -.-.,.Y.!.V r ~ { >.u.5.A.+.U ~  .} >.` >.-.5._ k - 2 5 ~ 5.,.5.A.A.f.u.A.f.5.u.5.-.+.! Z n.A.:.~ >.A.-.Z U -.;.V ~ `  .J ~ ` { ). .",
">.-.` 5.` >.} J ~ 5 R W.5.{ 5.~ U A.F < V V i 2 e r { 5.1.f.f.f.A.#.4 ` A.5. .<.P -.f.A.v Z 5.Z } -.>.+.T ~ -.-.>.>.~ u.-.+.U 2.-.-. .! x { i 2 5 5 { 1.>.A.f.f.f.f.f.A.5.5.-. . .5.5.5.Z ~ ).R 5.A.U l U +.+. .-.{ A.>.5.-.Z { { 5.5.-._ l 7 7 5 r i +.1.1.f.f.f.f.A.A.u._.} l { U 5.-.2.>.+.` U >.u.5.~ f ! ).-.>.>._ -.5.{ >. .~ l k 2 U A.J 5 5 f @.5.5.A.A.f.f.f.A.u.,.>.5.5.~ U 5.Z _ -.u.5.Y.5.U i V >.-.5.>.>.5.v -.-.2.Z 5.U { 5.#.B V k k 2 U 5.1.5.A.A.f.f.f.u.5.u.U >.A.:.{ 5.5. .-.>.-.F v A.{ v #.M.5.x Z A.>.>.~ ",
"R U @.A.{ { f.x Z { -.).-.v +.{ U >.i r i k l 5 3 e r  .5.5.A.f.f.5.l +.). .n  .X.f.A.5.{ x ' f.1.5.u.-.x i U -.>.A.Z >.A. .~ A.A.-.@.Z k y f i 2 e i +.1.1.A.f.f.f.Y.5.>.A.U ~ 5.f.5.F k U A.-.f.;.9 {  .R >.>.>.~ >.>.5.~ +.5.J _  .-.5.-._ F i 5 e k -.,.5.A.f.f.f.A.A.Y.-.Z ~ { 5.-.+.5. . .A.U { Y.5.+.Z U u.A. .-.~ -.{ v { { 2.Q 5 2.#.f Z e 5 i -.1.5.A.f.f.f.f.A.u.A.>.x Z A.5.` ` ~ >.5.>.-.+.-.U 5.{ F { .. .>.2.-.~ U -.+.{ 5.2._ Z f V 5 5 Z +.,.5.A.f.f.f.f.A.5.{ 5.A.>.{ >.-.-. .1.-.v T ).U ` f.#.>.-.l +.-.5. .",
"f / +.>.-.J 5.Z i 5.>.A.5.l 9 2.3.-.5 V k >._ 2 5 5 e i -.1.5.A.f.A.>.{ 2.T v A.).f.f.5.5.>.2.5.>.-.>.A.V , #.+.+.5. .-.J  .). .U >. .+.5 4 U +.5 5 5 f +.1.1.A.f.f.f.f.-.3.Z -.A.f.5.g { >. .A.,. .y F ` } >.A.>.;.-.~ -.5.>.>.l U >.>.*.~ ,.A.Z 2 e 5 l -.,.5.f.f.f.u.A.A. .-.n.+. .-.U -.-.R >.~ +.2.5.` J { _.u.~ }  .J -.U v.-.J +.f { +.J _ e 5 5 k -.1.5.A.f.f.f.A.A.Y.;.{ +.5.>. .~ V >.).@.>.>.-.-.-.v.l v f.5.` { U +.-.~ A.~ +.{ v ; f #.! i 2 r ~ 5.1.A.f.f.f.f.u.5.5.5.5.Z ~ ,.>.-.W.+.v -.>.{  .-.3.~ A.-.~ U >.A.",
"v -.).A.Z i 2.k F 5.f.5.`  .l F 5.5.{ l i J F Z k < 5 e l >.5.u.f.u.A.5.U  .5.u.u.5.5.1.A. .#.<.~ U u.>.U 5 J J ` >.u.>.Z Z A.l Z >.4.5.J V U -.V r 5 5 k @.1.5.A.f.f.f.W.-.g  .A.,.u.Y.5.x l { >.-.{ {  .F -.5.~  .>.-.2.+.-.5.+.-.>.k -.R >.+.9 2 5 5 5 l ;.1.5.f.f.f.u.A.-.-.Y.2.~ -.! { 5.>.{ Z -.>. .3.-.>.>.5.2.&.+.~ >.u.+.5 4 U >.>. .J ~ Q i 7 5 k >.1.5.A.f.f.f.f.A.5.5.>.-.>.Z +.5.5.=.5.` x >.` >.-.>.-.-.5.-.+.x ~ @. .-.! l ~ f U  .5.` J k 2 j -.1.1.A.f.f.f.f.f.f.A.5.U ~ ;. .5.).` -.>.Z A.>.-.).>. .-.>.J Z ).",
"`  .A.;.Z } U 4 +.-.f.-.Z A.Q F >. .+.~ +.5 J F k J 2 e 5 ! 5.,.f.f.f.A.-.>.5.A.W.>.>.5.-.~ f -.U ` A.>.~ 2 k >.5.-.>. .>.} ~ -.n. .! ~ -.Z -.-.i e 7 5 e f +.1.5.A.f.u.f.5.Z -.5.5.u.5.,. .-.Z >.Z >.A.} ` +.>.~ -.5.5.-.U >.f.-.` 5.v >.f.-.v B ^ Z i e 5 V >.,.5.f.f.f.f.u.>.A.A.5.>.x i ! '.+.l  .:.x -.f.>.' U #.,.-.-.+.' O.l +.>.A.).{ < e F ~ k i 5 F 3.>.1.A.f.f.f.f.A.5.>.-.>.>.>.>.A.Z `  .T >.>.>.+.~ A.-.;.5.2.+.`  . . .-.! +. .,.-.>.:.2.f i 2 f -.5.,.f.A.f.f.f.f.Y.5.` ~  .>.,.u._ {  .{ >.5.A.5.Y.U { W.v < -.",
"` ;.-. .} } { U +.5.W.+.Z A.` B { 5.` -.>.~ f _ ! ~ r 2 e e { 5.1.A.A.u.A.u.>.Y.A.5.5.-.P >.>. .~ +.{ >.n F +.>.,.~ Z +.Y.A.>.J x -.x l  .#.U 5.l - 5 5 5 5 k -.1.u.f.f.u.A.-.>.>.-.A.` >.1.-.,.-.V 3.A.~ -.{ -.>.-.>.<.~  ./ W.#.T v ~ f.5. .J #.} U i 2 5 5 V #.>.u.A.f.f.f.A.A.Y.).+.k i { -.).v Z U  .-.u.+.' >. .U @.>.2.>.:.V 5.` -.).U 9 +.U { Q e e 2 Z >.1.5.A.A.f.f.f.u.f.} ' A.u.5.U Q / ;.5.>. .>.Z { f.Y.A. .-.5.~ V Z ~ >. .T { -.4.-.~ 2.J k e 2 f -.1.,.f.A.f.f.f.A.A.x v >.Y.A.>.y x >.{  .).5.` >.` Z +.2.U -.",
">.>.Q -.R -.>. .{ 5.5.{ ! ~ -.V U 5.-. .A.>.Q -.>.Z Z f 2 5 i #.5.5.A.f.u.A.u.>.1.A.{ ~ 5.~ A.&.~ 9 Z -.v A.~ J ,.5.~ ;.5.A.U x U +.{ _ Z 5.@.` U F k 5 2 e e k #.5.f.f.f.f.f.5.5.{ >.f.5.A.@.5.~ +.u.A.5.U F  . .-.>.` { >.-.>.v -.~ { @.5.2.Z -.-.Q 5 B 5 2 e r ` 5.u.A.f.f.f.A.W.5.-. .Z 5.>.5.` -.{ >.-.} ` -.v.;./ >.1.5. .} U >.2.~ ` >.U ).-.D i J Z 7 5 Z >.1.5.A.A.f.f.f.A.:.>.A.).Y.J { >.-.5.>.+.-.` 5.5.>.A.} h R i F R  .3. .>.-.+.-.-.U f.Y.Z r B e i +.5.,.f.A.f.f.f.Y.{ F >.u.).A.J Z 5.' -.Y.-.{ A.5.-.{ >.5.-.",
"5.>.f -.{ :.5.>.,.-.U  .} Z 5.^ ~ -.>.A.>.5.! g >.} >.F 5 5 5 f -.5.5.A.f.u.f.' f.,.+.-.5. .{ f 5.} >.5.J ~ -.Z >.A.{ { =.A.R +.,.A.Q J  .+.).-.M.>.V i r 5 e e k -.1.f.f.f.u.A.5. .n.5.A.5.` M.V ~ Y.3. .J g  .~ -.#.` { 5.>.:.-.5.} y >.~ v -.5.{ Z _ { k 2 e e x >.,.u.f.f.f.f.A.u.5.f.~ +.5.>.~ { 5.>.2.U ~ 5.-.>.{ -.-.A.! 9  .5.).~ Z 5.` >.:.5 x Z Z i e 2 V 2.5.5.A.f.f.f.A.5.5.Y.>.5.~ _ ).>.5.J +.5.5.>.U R >.2.s _ +.:.5.{ ` 4.5.-.5.Z ~ J 5.A.5.U _ x 5 i  .5.>.f.A.f.f.f.A.5.~  .).).5.l { -.{ -.3.-.A.u. .-.>. .U ",
"+.2.+.>.A.>.>.-.5.{ 5 +.Y.;. .5 J >.~  .-.-.>.9 U 5.} O 5 5 5 5 k >.5.5.A.f.u.A.f.>.1.A.>.>.~ { -.A.1.5.{ l -. .5.+.3.+.T ;.5.` >.{ k +.5.` n.-.5.v.U i i e 5 e r  .5.,.f.f.f.f.u.>.>.f.W.-.{ v.` -._ -.-.:.:. .+.v { -.-.` >.-.5.5.x U :.i f 5.W.} Z A.F F k 2 e 5 x >.,.f.A.f.f.f.f.u.u.5.>.@.-.+.~ -.U  .F ~ A.A.J s P W.-.l F +.A.>.>.~  .;.U f Z ~ U ~ -.Q 2 2 B >.1.5.f.f.f.f.f.A.A.' 5.A.>.A.u.{ U -.,.-.-.~ >.#.P >.A.{ -.W.<. .{  .-.{ x #.4.-.` Y. .@.F 5 5 5 { 5.>.u.A.f.f.f.A.&.-.W.A.5.+.U -.-.~ -.A.;.-.R  .-.~ 9 ",
"5 5.f.A.-.5.5.+.-.:.Z -.W.+.9 e Z -. . .A.' -.-.U ).Z 5 i l 5 e 7 x ;.5.u.f.f.f.f.f.A.5.-.>.>.+.{ Y.>.+.` -.+.:.+.Z >.>.Z -._._ Z >.U Z ).>._ T { A.-.2 : e 7 5 5 V >.,.1.f.f.f.f.u.-.>.Y.A.f.5.-.A.Z ~ 5.5.+.* Z  .;.R +.2.>.>.,.@.-.>.x l ! :.>. .:.A.-.O.V r 5 e 5 V ,.,.f.f.f.f.f.A.f.>.` >.` 5.-.-._ k k ` A.-.{ v -.:.J } A.-.f.>.-.5.-.9 7 F >.{ Z ~ U +.l 5 7 l >.1.1.f.f.f.f.f.A.5.5.).5.>.~ U 5.' -.>.>.` U 5.~ ;.>.F -.A.f.R R R A.~ -.` T +.-.-.>.-.Z i x 5 5 ~ >.5.5.A.f.f.f.A.Y.5.' >.W.5.{ { l +.>.A.{ U ` >.` T ",
"Z  .5.5.>.5.n.5.F V -.5.-.~ 9 +.x J U v A.5.5.{ U ).J l ! j i 2 e e f ~ ,.f.f.u.f.A.5.-.5.A.).` ` u.-.5 { ).-.R ~ Z ~ 5.5.5.>. .~ -.{ l W.5.V A.>. .+.F k B i 5 5 5 V ,.,.5.A.f.f.f.A.5.Y.n.-.A.A.-.i +.{ U ~ f -.U x ` >.-.` +.U ..f. .~ >.{ Z -.>.>.5.5.-._ k 2 e r 5 Z >.,.f.f.f.f.f.A.u.>.f.Y.5.R { { F 5 2.{ v A.5.2.9 { ~ { { A.f.5. .U f { 5.>.F Z +.-.-.Z k 5 5 l &.1.1.f.f.f.f.A.A.5.A.A.-.R ` A.>.>.-. .>.-.>.` -. .F -.5. . .:.x A.~ P U ~ ~ R _ ~ -.-.x k ^ j 2 B { 5.5.f.f.f.f.A.5...-.Y.5.-.{ s A.+.{ A.~ ! :. .>.",
"A.U @.).5.{  .).o.< ~ A.v u.+.-.F Z U -.-.>.A.+.-.5.g J e j +.k 2 e r r Z =.f.f.u.A.-.>.A.W.-.-.5.>.U g -.5.-.@.Z T 5.A.>.>.-.-. .).{ V ~ ~ ` u.W.+.f Q.2.{ V 5 e 5 5 V >.>.1.f.f.f.f.A.Y.A.;.u.A. .5 _ -.v -.-.5.l 9 >.Y.~ R ` >.5. .5.~ _ _ >.-.U { A.5.+.{ F i M 3 5 5 ! 5.>.f.f.f.f.A.5.5.&.`.R h R >.+.U U h >.A.5.>.{ { V +.>.+.5.f.2.Z +.>.>.2. .i g 5.).~ V k i 2 k #.5.1.f.f.f.f.f.A.A.u.&.5.-.5.5.>.-.! >.5.Z ~ ~ ).5.f +.A.5.-.~ +.{  .{ { { U { U >.W.~ 5 #.{ a 2 r { 5.5.f.f.f.f.A.u.f.A.>.@.A. .5.). .x i f {  .+.",
"-.v -.+.-.A.>.>.-.f Z u.R -.).5.{ U F  .A._ 5.3.Z +.v i 2 V A.+.< 2 e e l >.5.A.f.f.5.5.5.A.-.>.-.` U ~ ~ >.A.>.J >.5.5.>.A.n.x _ >.Z Z x U 5.>.>.f.+.} U A.~ r k 2 5 5 Z >.>.5.A.f.f.f.Y.,.' u.-.h v ' u.T  .-.>.#.! V F Z 5.A.W.5. .+.{ J +.A.5.+.+.5.! +.{ 5.i k B 2 e 5 { 5.1.f.A.A.f.5.A.5.W.` _ n.R  .5.{ T >.5.>.5.A.2.{ U A.5.>.A.A.T f { -.-.5.Z V >.A._ J +.~ i 2 f -.1.1.f.f.f.f.f.A.u.5.u.f.Y.>. .A.+.U T 9 -.>.5.A.Z _ 5.4.A.+.~ #.&.~ J +.U ~.U ~ A.>.+.-.F a e 5 i { 5.5.f.f.f.f.f.A.u.>.>.f.5.>.A.{ 9 Z 5 +.n.-.",
"R +. .T ~ ,.>.1.~ i v -.>.5.>.+.Z -.~ ~ ).Q V 5.{ } ~ l J { +.Z ! 5 2 5 r { 5.5.A.f.f.u.>.>.+.R +.{ -.R +.>.>.f.+.+.+.-.-.A.5.~ +.-.Z U 2.>.A.+.x 5.5.-.Z 2.A.~ e e 5 e 5 Z ,.,.5.A.f.f.A.>.R A.>.>.+.~ A.>.~ @.A.{ g 9 Z :.A.5.>.>.>.>.5.F ~ >.-.-.5.+.v U  .A.+.7 l f 5 5 e { 5.>.A.A.f.A.A.A.Y.A.{ ' -.>.A.@.~ -.f.>.-.f.u.>. .+.`  .@.W.~ - v A.>.5.} ~ 5.V Z ~ -.;.2.V 2 k -.1.1.f.f.f.f.u.A.,.5.A.1.&.-.>.Z * T +.>.5.5.5.&.5.>.{ -.A.~ U +.+.5.5.x { _ -.5.U >.>.v f F k 2 i { 1.5.A.f.f.f.f.f.5.A.1.u.A.1.-.k +.~ 5.A.>.",
"{ 1.#.T g ~ 5.u.} f +.,.u.u.{ v.Q ~ -.R.{ B ~ -.).>.F D ~ >.} J { F 4 5 e i +.5.5.f.u.f.f.&.-.>.>.{ -.A.5. .-.`.>.U v :.+.{ 5.5.@.5.{ x u.-.U 4.Z +. .>.).} Z A.l e e 7 e 5 F 3.,.u.A.f.u.A.5.A.A.Y.-.~ A.+.! -.5.#.J  .5.{ ~ } -.~ >.5.A.{ F ~ -.>. .` 5.>.v.-.k Z Z j k 2 e r { 1.,.A.A.f.f.f.Y.A. .~ Y.5.>.P +.f.A.>.-.-.-.>.u.~ ~ >.Z ` P U U @.R >.).{ Z i ~ { ` 3.u.-.g 2 f -.5.1.f.f.f.f.u.f.5.>.5.-.R +.R Z ` Y.5.>.5.5.>.5.M.Z -.f. .~ { 5.A.5.V ~ ~  .A.-.~ +.~ +.x { Z 5 i _ 5.,.A.f.f.f.f.f.A.,.5.A.5.5.k _ ~ -.5.5.",
"-.5.-.v { 5.@.=.>.U >.5.5.5.l x ~ ~ ~ A. .~ { V _.1.f Q } ` 5.Z i { Q 7 5 e f -.5.u.f.u.u.A.f.-.>. .-.5.~ >.A.5._.+.h 5.5.` -.>.T ! +.9 5.2.J ! l A.A.~ { >.~ ~ U V k k 2 e e Z >.1.f.A.f.f.A.A.5.A.u.Y.+.f x >.U _ -.5.).Q l +.>.~ >.A.-.R ~ U >.F Z 5.Y.Z @._ 9  .5.~ B i 5 5 i +.&.1.f.f.u.f.f.A.A.-.-.,. .>.-.~ 2.5.-.-.R 5.f.4.J Z f Z -.>.U {  .W.Y.5.V V ! ~ Z +.-.{ { k 2 i ~ 5.1.f.A.f.f.u.A.>.-.-.>.Z >.Z +.f.A.-.` A.-.>.Y. .Z A.:.>.-.>.5.4.U U >.Z #.).-.}  .2.Z x { a 7 r ` 5.,.A.f.f.f.f.A.A.>.f.Y.>.{ B x  .>.A.",
"A._  .-.n.u.+.U Z  .A.>.>.>.l 2 _ >.{  .>.-.-.Z 5.>.#.Z >.` { >.{ ! D i 7 5 5 k -.5.f.f.u.A.5.-.A. .>.>.@.A.u.-.{ Z U >.).v U 1.{ i -.@.5.>.>.B x -.Y.2.l -.A.~ +.} ~ F 5 7 e e V >.1.f.f.f.f.f.u.,.A.).Z i -.Z { { -.5.5.l f 5.5.{ { -.` { >.Y.{ 5 { ,.>.#._ M.} { >.-.@.Z 5 5 5 i +.5.1.A.f.f.f.f.f.A.v -.{ &.5.+.{ T R 5.-.>.R >.l i _  .-.-.{ #.:.).A.5.>.{ l j {  .+.@.>.2.i 2 e J >.5.A.A.f.f.f.Y.} -.{ g -.{ -.>.A.v +.A.R u.Y.5. .:. .>.-.-.{ 5.{ F 5.-.-.R.~ ~ U U Z @.+.B 2 e e { ,.,.f.f.f.f.f.A.5.Y.W.3.-.V ! -.-.>.",
">.-.~ -.-.>.R 9 J >.A.A.5.~ B x V ~ ` 5.Z ' ).A.>.{ +.Z ~ >.-.5.>.B - 5 i 5 e e x >.5.f.f.u.f.A.u.>.-.+.5.A.Y.-.i l v ).A.y ~ A.>.F  .>.5.5.! i Q >.>.T ~ >.A. .Z { -.! B 5 2 e e F ,.,.f.A.f.f.f.A.Y.W.~ Q 5.f -.5.A.5._ < Z 5.>.P -.{ +.>.5.-.U U >.>.-.A.1.A.+.U { Z ~ ~ j r 2 5 i +.1.3.A.f.f.u.f.f.~ >. .>.W.A.-.g ` ).{ s U Y.-.U ~ 5.U { -.-.+.-.W.A.3.n.i 2 Z M.A.{  .-.~ k 2 5 V >.5.A.A.f.f.u.f.:.l +.-.@.-.1.5.{ A.u.5.,.Y.5.~ 2.-.>.-.A.+.U  .-.>.A.5.~ h Z Z { ` A.5.V V i e e ~ 5.,.f.f.f.f.f.f.Y.Y.5.u.-.Z A.-.v ",
"5.-.h ,.5.-.@.-.>.5.5.).5.U Z J { +.U ~ +.f.-.5.~ ` Z U ` A.>.v.-.V u 5 5 r 7 5 5 V 1.u.f.f.f.A.u.>.{ >.>.-.Y.,.J -.>.>. .9 -.f. .` >. .5.>.J U -.` -.R 5.{ {  .~ ~ -.T ! _ r 7 e 5 F ,.5.A.f.f.f.f.A.A.5.-.{ U { _ 5.f._ 5 Q 5. .-.>.-.-.U { ~ ~ >.5.~ -.5.,.{ Z x +.-.F k k B k < 5 i +.1.1.A.f.u.f.f.5.,.>.>.5.5.<.-.~ +.f +.A.f.-.-.@.-.! Z 5.-.>.{ f.f.u.2.5 k U -.A. . .5.~ F y 5 e Z >.1.f.f.f.f.A.5.{ -. .3.>.@.~ 5.Y.=.5.Y.>.>.>.5.>.~ { 3. .5 U ,.Y.5. .U { U 5.-.3.5.>.+.J 5 e 5 5 U 1.,.A.A.f.f.f.f.f.A.5.A.>.>.A.~ ",
"-. .>.5. .-.U  .A.>.>.f.U -. .+.2.~ Z -.{ U ~ -.+.` l { A.>.5.Y.+.f i 5 j j 5 5 r e Z >.5.A.f.f.A.>.>.5.' U f.A.5.A.,.} v -.A.5.x :.5.+.>.+.~ >.{ J A.f.~ k { 5.+.U { A.>.#.l 2 5 e 5 U 5.1.A.f.f.f.f.).-.>.+.-.J -.>.5._ Z 5. .Z >.,.>.J -.Y ~ +.5. .` 5.~ J P >.5.f.~ r V V J -.k 2 e r  .1.5.A.A.f.u.f.A.;.>.,.A. .+.} ~ ~ ~ -.u.-.>.;.` +._ 5.A.>.>.>.5.3.h k :.-.-.A.-.-._ ~ F J B 2 e V >.1.f.f.f.f.f.A.>.>.#.{ / ~ >.>.5.A.Y.f.>.A.W.k k -.Z { v g -.5.n.+.U >.-.+.v.5.>.>.5.+.-.Q e 5 5 J ,.,.u.A.f.f.f.f.A.A.Y.A.>.-.+.",
"-.>.5.U ~ >.R ` Y.>.1.-.-.U 5.,.n.x f A. .f { >.-.U Z Y.5.J  .W.A.f l l J e e 5 7 e e { 5.5.A.f.A.5.5.` ~ +.u.A.A.5.5.Y.U -.>.-.Z 5.+.-.5.U >.A.Q -.-.5.~ { 5.>.} { { A.,.~ k r 5 5 e r Q 1.5.f.f.f.f.A.5.5.>.u.~ -.>.>.~ J A.-.5.{ } #.9 5.5.! x _ ` 5.-.g +.>.5.~  .-.{ { -.U +.+.5 2 5 i +.1.5.A.f.f.u.A.-.,.,.A.` ~ U -.T T ' A.=.-.Z >.A.2.+.A.A. . .f.Z 9 +.-.` 5.>.5.5.~ x j 5 J l 2 e V >.1.f.A.f.f.u.A.>.~ Z { ;.5.>.-.A.A.).5.5.-.Z 9 -.:.Z ` { >.5.-.Z -.-.>.-.+.! -.W.>.5.>.>.Z i e 2 F 3.>.5.A.f.f.f.f.A.A.5.-.>.>.",
"5.5.5.{ { -.-.5.A.-.>.A.>.U +.).>.< V U 5. .-.U -.{ ~ A.5.} Z >.-.i F J 5 f ~ l 2 3 5 U 5.1.f.A.u.f.u.>.Z >.5.5.).5. .A.-.>.5.` x u.A.~ ~ -.-.>.9 ~ Z >.+.-.5.,.{ ^ Z u.5.+.J j r 5 5 e 5 ~ 5.5.f.f.f.f.A.,.>.5.{ 2.` { 4. .-.-._.{ 4  .R 5.).{ l >.>.J Z { A.A.U x >.5.2.U ` 5.U _ Q k 7 5 i -.1.5.A.f.f.f.u.5.>.5.5. .~ +.-.+.~ U A.u.-.>.~ -.Z 5.A.+.` 5.x 5 !  .5.>.-.A.>.2.g 5 r T A.l 2 e V >.1.f.f.f.f.f.f.{ } >.-.-.3.{ A.u.Y.).5.l ' A.W.-.Z >.2.F >.O.5 5.W.` >.` v R 5.>.{ ,.u.{ < 2 e 5 D >.1.5.A.f.f.f.f.u.,.f.f.5.",
"A.-.` >.-.5.' ,.A.U U f.A.5.v +.Z V 5.+.>.5.>.2.+.x { M.-.-.x 5 5.{ Q -.k ^ A.U 5 2 5 5 _ 5.1.f.A.u.A.u.{  .-.5.!.>.-.A.-.2.M.{ U 5.-.g Z  . .{ l ~ 3.-.+.{ >._.#.< { >.3.>.U 2 i 2 2 5 e r ~ 1.5.f.f.f.f.A.5.>.5.@._ +.5. .>.+.n ;. . .,.5.5.@. .-.U 5 i ~ A.5.J O.-.{  . .-.).5.{ k i 2 e e k -.1.5.A.f.f.f.A.5.` -.u.@.>.{ v >. .A.Y.5.F U  .-.A.v.+.Z >._ f  .>.f.5.-.:.+.9 g 5 U #.>.#.k 2 3 V >.1.f.f.f.f.f.5.,.>. .R -.u.A.>.A.).5._ >.-.5.5.-.+.@.V l _ ~  .f.{ ;.;.-.+.~ ~ J -.f.>.~ i e e 5 V -.1.5.A.f.f.f.u.f.u.Y.5.",
"f.5.@.{ >.A.2.-.` -.-.A.A.{ T U k >.>.#.+.>.5.>.>.Z T >.^ ~ { +.{ F Z { _ r x U g f 2 q e { 5.1.A.f.u.f.5.{ } ;.5.A.A.>.A.s +.A.>.U U >.>. .~ U A.>.+.M.>.` +.5.R g +.-.>.{ ! D +.B e 5 5 i r { 1.u.A.f.f.f.f.5.>.{ k U >.Z ..R Z A.>.-.-.5.5.>. .{ ~ U { +.{ { ).U  .-.-.-.>.A.W.2.2 i k 5 e e l -.1.5.A.f.f.u.Y._ U W.,.{ ` >.).5. .>.5.{  .J >.>.+.-.>.>.V { -.2.A.>.U -.~ f _ Q i #.>.A.2.k 2 e x >.1.f.A.f.f.A.u.>.Z >.5.>.f.A.A.W.-.~ >.P A.` ` >.G >.F U A.{ -.Z U Y.>.>.x +.5.5. .3.>.V 2 k 5 5 f +.1.5.A.f.f.f.f.f.W.>.",
"f.u.A.U ~ A.-.{ ~ Y.-.5.>.9 U 5.Z -.A.5. .n >.A.3.Z U A.Z s f.A.f Z ~ +.l j ^ Z { { 5 2 e 9  .5.5.A.f.f.A.-.-.' >.).A.>.5.U { >.X.+.Q >.>.-.>.R >.5.~ @.U V v. .{ -.>.5.:.4 5.+.{ J e 5 5 e e k >.1.f.A.f.f.f.5.>.~ %  .,.>.Z ;.2.5.n.5. .n.+.{ +. .+.@.n.5.{ ~ ` R -.{ ` { -.W.).+.5 U V a 2 5 e g +.5.5.A.f.f.f.5.` A.5.U >.Y. .>.A.~ R 5.-.2.{ { ,.>.5.-.~ U f.{ +.5.U ~ _  .x V V _ &.A.{ F M e 5 Z 5.,.u.A.f.f.f.A.>.5.A.>.>.>.A.A.-.i -.5.).` ! -. ./ Z 5. .-.' -.x f.,.-.J ~ Y.-. .>.@.V F J B 5 5 j  .1.5.A.f.f.f.f.Y.;.",
"f.u.A.>.{ 5.+.>.5.5.-.-.{ l ~ =.Y.} { ~ -.5.5. .-.5.~ -.y v ).5.+.V >.-.i +.+.k 5 >.T < 2 5 f -.u.5.A.f.f.u.1.&.>.5.A.).A.Z ~ >.>._ f 5.R -.5.` >.A.~ ~ >.Z -.>.-.>.-. .5.U { Z ~ D - e r 2 e e J 5.,.f.A.f.f.f.u.{ 5 +.+.5.{ >.5.5.>.A.+. .J ~ A.>.>.5.~ { +.9 v >.-.! {  .>.).5.f J -.U 2 i 5 5 5 r { 5.5.f.f.f.f.&.5.5.` 3.5.-.u.A.>.-. .>.-.x 5.A.5.` _ -.J >.` -.A.~ U  .{ i ~ { -.>. .l -.-.2 e 5 Z 5.,.f.A.f.f.f.A.A.A.Y.~ U 5.Y.+.< +.Y.5.-.V n 5.>.+.>._ ).Y.-.9 +.1.l f -.5.-.J >.;.F i _ J V k 2 i -.1.1.A.A.f.f.f.f.",
"u.A.f.f.u.Y -.u.' v 5.A.~ +.5. .3. .U +.{ 4.-.-.A.u.;.~ F -.>.,.).k l U U +.} 5 V ~ +.Z < 5 5 f -.5.5.A.f.f.A.u.f.,.-.W.~ h -.u.Z g Z 5.>.u.} { 5. .>.-.Z -. .R 5.Y.` v A.-.f < +.~ e e i 5 2 e i { 1.,.A.A.f.f.Y.>.Z >.Z -.A.-.f.f.>.>.~ U 5.1.5.;.-.2.x ~ +.~ >. .>.-. .>.>.Q >.~ 5.A.J i ! l 2 5 e f >.5.5.f.f.f.f.f.>.-.+.5.f.).A.>.-.>.{ ~ ! 1.5.Y.-.x 5.Y.M.F ~ 5.U x +.` { -. .#.>.` -.5.+.k 2 5 5 F 1.,.f.A.f.f.f.A.A.>.y ~ 5.).A.-.U 2.-.-.Z  .5.Z U 5.5.A.U ~ U { ` -.~ +.Z f.-.+.5.` { -.Q V F i 2 k +.1.1.A.f.f.f.f.",
"1.f.f.f.u.R >.A.~ U ).5.f U  .' A.-.-.).Z ~ A.5.5.u.Y.` i -.-.@.u.g r Z +.V ~ L k _ -.-.k 2 e 5 x 3.5.u.A.f.u.A.A.).A.-.{  . .l Z >.{ A.-.>.Z +.~ ~  .5.` -.-.~ >.A.5.>.+.n { f  .>.Q i a V r 2 e f -.,.5.A.f.f.f.5. .+.-.>.Y.-.-.5.f.-.U 5.2.>.-.3.;.-.~ >.A.+.5.V ^  .>.A.>.V { ~ 5.f.#.k l L e 5 5 e Z 5.>.u.f.f.f.A.5. .#.Y.u.W.A.5.` { g  .5.f.>.).2.l U W.-.l Z Y.>.5 Q U l >.5.-.:. .{ -.>.l B 5 5 7 J 5.>.f.A.f.f.f.A.u.h U ).).A.f.{ { U ~ -.A.A.} T ;.A.{ Z ~ +.-.U ).2.i i -.A.5.>.{ +.f r r Z U B 2 f -.1.,.f.f.f.f.",
"5.1.f.f.f.5. .-.x :.).-.U >.-.` ).{ U 3.+. .#.`  .).~  .Z ! 5.U +.>.-.i J % J V U  .>.-.{ r 2 e 5 U 5.1.f.f.f.f.A.W.Y. .Z / Z 9 #.f. . .Z -. .{ ! -.{ ).~ Z v.@.>.u.5.;.Z 9 v.>. .,.{ B 2 _ Q 5 e e V >.>.5.A.f.f.A.>.>.f.A.-.` -.-.>. .` A.-.~ -.5.@.>.>.' Z -.>.-.{ -.>.f.+.F _ Z 5.W.U k i V ~ r 2 e 7 F 5.>.f.f.f.f.5.-.-.5.A.Y.u.A.V 4 ~ 5.-.5.5.>.f.~  .Z Z f.;.>.{ Z Z U l >.5.-.-.~  .' 4.Q ~ Z < 5 5 U 5.>.u.A.f.A.f.Y.+.V -.).A.u.-.J Z 5.~ 5._.-.Z >.>.R ~ -.} { >. .W.} x #.5.5.-.x x ^ Z F +. .Z F - f -.1.,.f.f.f.",
"5.1.5.A.f.A.f.U U A.u.f. .&._.>.:.-.{ U Z -.} -.-.>.f >.+.f >. .5.>.5.J ^ i . T ! J u.>.-._ 9 2 e 5 { u.1.f.f.f.f.A.5.-.U ~ +.V >.5.-.+.>.~ -.#.-.~ -.u.` -.>.A.>.Z i U ;.5.} T _ Z -.+.J Q B i 5 e 5 J 5.>.5.A.f.f.A.A.3.>.-.>.A.-.{ 2.u.-. .U >.+.>.A. .Z V U ).` _ >.#.~  .5.2.U @.5.+.i i -.2.k i 2 e 5 ! 5.,.f.A.f.5.u.).-.5.A.5.>.x ! 5.5.' >.U  .1.` -.-.J A.-.9 f +.-.+.V 5. .~ +.-.Q #.5.-.l e k k 2 5 ~ 5.,.A.A.f.f.f.A.-.} -.A.>.>.~ { 5.{ A.u.5.{ -.>. .-.A.-.-.U } 5.).+.V +.-.v U { A.5.{ ` >.~ ^ e 2 f +.1.>.A.f.",
"~ u.,.u.A.f.f.>.-.5.u.-.5.A.W.>.-.2.J {  .5.>.5.u.Z ~ 5.{ { `  .A.5.f.V - r F ~ 5 } >.>.-.>.{ 7 5 e i +.5.1.f.f.f.A.1.u.+.P +.v -.,.).{ U { ~ -.>.J  .5.-.>.+.,.>.4 e +.f.,.~ J Z g +.>.{ U x k 5 5 e r ! ,.,.5.A.f.f.f.u.>.5.5.+.>.5.U >.+.5.~ ~ -.-.-.4.#.~ { -.+.-.~ _ ~ -.A.<.-.-. .~ i ! -.>.Z B r 2 e 5 ~ 1.,.f.f.f.A.f.f.u.A.A.+.} 5.{ -.>.5.U _ >.f.{ 5.>.U l Z v 5.>.} 5._.+.f D { Z >.A.` f - i >.i 2 5 { 5.,.f.f.f.f.f.A.-.x { =.,.` >.` ` `.-.{ -.>.>.` 5.Y.>.~ +.5.,. .-.x g 5.>.` ~ _ Y.` Z 5.f.k 5 j 2 i +.5.>.f.",
"i #.5.1.f.A.5.A.A.-.5.>.>.A.f.W.-.>.g U ).5.~ { >.v >.-.J +.-.{ 5.5.R Z l +.1.F 5 Q >.3.2.5.~ 5 5 e 5 k >.1.5.A.f.f.A.5.v +.Z Z =.W.).U -.-.l A.^ V +.f.-.A.-.R u._ J v.>.>. .g { 5. .~ F  .U r B V 5 r 5 J 3.,.5.A.f.f.A.A.A.5.{ -.A.~ ` -.1.~ -.u.5.J +. .Z 4.v -. .} { -.>.n.-.` ~ -.v.k k Q { -.{ ~ F 2 e 5 { 1.>.f.f.f.f.f.A.u.,.A.>.-. .:.` 5.` _ +.u. .5.&.i 5 { >.u.A.:.-.v.).~ 2 i Q -.-.f >.O.x  .{ 2 2 e +.5.,.f.A.f.f.f.A.>.g ' 1.=.-. .1.).A.5.Q Z 5.-.-.W.+.-.>.-.A.` V -.T ~ ).{ U Z -.{ l  .A.#.J k r 5 i { 5.>.",
"5 k >.5.5.f.f.f.A.-.>.5.W.+.-.W.Z ~ { U 5.>. .+.+.Z A.} l { A.~ J -.{  .>.-.>.x O J A.>.n.-.9 J J < e 2 V 3.,.5.A.f.f.f.+.Z v -.A.).5.g -.>.U -.~ 5.>. .<.).u. .>.W.~ l { #. .~ -. .5.J U k F ~ +._ 5 2 e 5 Z >.,.u.A.f.f.u.A.>.-.~  .).>.U -.-.-.>.A.U U A.{ { J >.5.>.-.{ +.-.-.~ >.5.-.V V +.~ >.' 2.+.5 2 e 5 +.5.>.A.A.f.f.f.u.5.W.-.Z { -. .>.-.>.P @.5.{ >.U ~ >. .5.u.`.U T Y.~ < U -.l -.x -.Y.+. .U i k 2 i -.5.>.u.f.f.f.f.f. .{ { { >.W.W.).A.5.-.i +.W.>.>.>.U ;.A.u.5.k  .{ U -.5.-.v x >.{ -.5.~  .Z i i 3 5 ~ 5.",
"e 5 V 5.1.5.A.f.A.>. .W.,.+.5.A.5.T { 5.5.-.5.5.{ ~ f.Z < x &.x h )./ U 5.-.5.~ i ~ A.@.3.x ! -.{ f 5 e 7 Z 5.,.u.A.f.f.A.V Z 2.u.f.A.+.>.#.+.:.` Z Z >.1.+.,.A.f.-.Z U _ +.+.-.{ >.>.~ Q i +._ { F k k 2 e 5 Q ,.>.f.A.f.f.A.5.>.~ >.5.5.-.v U >.5.5.>. .>.` 5.A. .{ { ` { { ~ ` >.;.-.Z x -.A.A.-.i +.} V k < 5 i +.5.1.f.f.f.f.f.A.Y.-.9 Z -.A.5. .-.5.5.>.l  .).>.-. .5.A.-.U 4 -. .g >.>.l {  .+. .>.-.Z ~ +.l 2 k >.,.>.f.A.f.f.f.Y.5.#.>.-.M.<.A.A.3.5.;.+. .5.5.3.l Z ).).! g }  .-.+.~ R U -.#.{ 5.>.#.-.-.B k l 2 2 F ",
"2 e 5 { u.,.u.A.f.5.>.A.5.f.A.u.W.4.i  .u.,.;.5.3.J { l v #. .x  .u. .>.5.+.Z >.-.{ l _ 5.-.+. .~ F i 5 e 5 U u.1.f.f.u.f.5.{ { ` 5.Y.).3.+.A.Z J k f f.2.V >.Y.>.9 ~ -.>. . .>.g >.W.+.< V F g { Z +.Q 9 2 e r ` 1.,.f.f.f.f.f.A./ ~ =.R.Z l ).u.>.>.1.>.Z 5.A.>.R Z Z ~ ! ~ +. . .-.=.~ >.>.-.-.>.Q J J +.{ i 2 5 i +.5.>.A.A.f.f.5.W.J < U ` W.).5.>.Y.>.! y Z W.A.{ { +.-.{ 5.x f 5.5.5.5.} Z ~ ~ ;.` -.A.2.U +.k 2 x >.5.,.u.A.f.f.u.A.5.5.5.5. .A.A.5.5.A.5.i v Y.A.U Z >.5.~ U 5.5.>._ y { ~ ` -. .f.5.5.! ~ x B } x 3 7 ",
"5 2 e i +.5.,.f.f.f.5.>.A.f.A.A.5.,.U ! ~ u.>.A.+.5 +.U -.>._ V 5.5. .,.>.4.F ~ 5. .l U { ).+.l 5.+.i 5 5 e e _ u.1.f.f.u.A.5.U ` A.W.A.` >.Y.V ! +.{ A.>.5.5.~ ~ ~ +.>.-.Z  .>.U { Y.:.g F ! Z { F V A.+.7 5 e i  .5.,.f.f.f.f.Y.-.n 5.>.Z +.>.5.A.U ` >.{ 5.>.>.-.h -.5.V { >.-.-.5.,.>.-.Z Z -.Z ~ Z +.-.{ ~ k 5 3 i -.5.5.A.f.f.5.A.-.V ~  .Y.).A.,.).U V { -.W.5.U U 5.;.+.A.{ - U W.A.>.U ~ ~ { -.+.,.,.-.T +._ k 2 k { 5.,.u.f.f.f.f.A.5.5.-.;.5.A.5.>.A.` Z #.>.Y.~ Z ;.+.5.>.Z T A.-.5 ~ -._ +.>.).>.U g ! V -.<.{ 2 e ",
"l 5 5 e f >.5.5.f.f.f.f.f.f.).,.,.A. .{ -.5.U >.;.F ! { g J -.2.A.5.U  .-.f.+.U Z +.U -.>.} >.U >.+.Q k 5 3 e 5  .5.1.A.f.u.A.>.+.>.A.A.>.~ >.~  .>.-. .Y.A.W.F F 5. .-.{ Z U 2.+.J 5.>.} { -.+.Z Z J { V Z 5 e e g -.,.1.A.A.f.A.5. .>.-.P +.>.A.A.-.-.>.+.>.{ -.-.P ;.f.-.~ +.-.>.5.5.>.T ^ Z A.-.>.-.{ ~ -.2.Q < 5 5 i +.5.1.f.f.f.f.Y.-.~ -.3.W.>.5.Y.-.+.;.>. .>.M.~ -.>.-.5.+.5 x >.>.>.~ >.-.Q -.>.>.} -.-.>.+.V l 2 5 Z 2.,.5.A.f.f.f.A.5.Z -.>.A.u.A.5.5.).-.Z >.Z P ).-.-.>.i U >.5.J T >.{ -.5.{ -.5 i A.>.~ >.+.! i ",
"B g 2 e e V 5.5.5.f.f.f.A.Y.Y.f.A.f.5.` >.! Z Y. .f k x _ -.>.-.-.5.} }  .+.y >.~ >.-.>.5.Z v 5.A.T l < i 5 5 e i +.u.>.f.f.u.f.Y.5.>.A.U U 5.+.>. .{ -.>.u.A.l 5 ~ Y.>.-.x F 5.` +.>.~ { >.{ U ! ! ~ 5 e -.V 5 e 5 B >.,.5.A.A.f.f.A.5. .l { W.W.A.1.Y.2.g 5. .~ A.A. .>.>.{ +.;.{ 5.3. .>._ l 5.).+.{ >.-.Z :.F i 5 5 5 g -.>.>.A.f.f.u.A.-.+.>.).>.,.Y.A.{ {  .@.5.>.5.-.{ { -. .5 { >.{ A.-. .V ! A.-.U +.>.~ >.-._ #.r 2 e D >.,.5.A.f.f.f.f.>.-.5.5.M.A.5.A.).{ J ~ W.u.-.h v >.Z -.-.W.5.>.>.l ~ 5.~ U ! +.5.2.>.~ -.+.f ",
"l g i 7 e e J 5.1.u.f.f.f.A.Y.f.u.Y.A.~ Y +.>.).~ $ ~ ).-.{ Z +./ ).Z ~ 5.~ Z A.{ >.-.>.>.J g >.Y.~ Z k i i 2 e 5 f -.1.5.A.f.u.A.5.>.u.5.+.+.-.-. .5.>.>.A.>.F <  .).>.-.U >.W.~ g { +. .A.-.~ V x +.e e Q ~ Z < e 5 V ,.>.5.A.f.f.A.>.-.B U 5.).5.5.Y.>. .>.2.>.-. . .-.>.-.-.-.>.5.5.R ` -.Z U 5.5. .-.5.U J -.F e 5 2 2 k -.1.1.f.A.f.f.Y.>.` f.>. .5.A.-.-.v.-.{ :.5.2.k g U >.-.f.+.U 5.>.-.F U >.-.U U -.5. .} 1.>.5 2 2 e V >.1.5.f.f.f.f.f.5.5.-.A.W.A.5.A.u.-.Z A.5.U y U A.5.>.5.5.W.{ R s  .>.+.~ ! >.5.-._ U >.2.i ",
"k Z h 9 3 e 5 ~ u.1.f.A.f.f.A.5.f.A.5.~ -.>.` ).F 4 +.5.5 r  ._ ~ 5.T F 5.-.} ~ -.5.T #.>.2.U +.-.} +.F < 5 k 2 e 5 g -.5.u.f.f.u.f.A.5.W.Z Z R A.>. . .~ A.;. .U ~ } -.R >.n.-.` { Z { -.-.>.-.V ~ v.B e 5 _ 2.k 2 e 5 Z 3.>.5.A.f.u.A.5.` V 2.u.5.f.5. .).5.+.Z 5.5.+.+. .>.>.` Z 5.>.+. .5.>.~ +.A. .-. .>.{ { { V 3 5 2 2 k -.1.1.A.f.f.u.f.;. .>.@.5.W.W.5.@.+.~ W. .:.k i M.{ -.f.` h >. .-.U 9 Z 5.~ V U M.~ { >. .k F l < 5 V >.5.5.A.f.f.f.f.A.>.5.>.f.,.A.,.>.` A.Z -.@.~ u.A.V -.W.5.l Z u.-.A.{ 5 f Y.A.{ F f A.5.Z ",
"-.>.x l 5 5 e i -.5.1.A.A.f.f.u.Y.A.A.>.J v U A.~ J >.3.{ -.+.~ Z Q +.M.5. .5.+.>.{ y 5.{ ! R ` { 2.$.f l +.U < 7 e 5 i -.5.f.f.f.u.Y.&._ +.-.A.A.{ ~ -.` 5.{ ;.U U ~ -. .A.-.{ ~ 5.V V ~ >. .<.{ 5.-.2.x i { >.{ e 7 e e  .1.>.5.A.f.f.A.-.V ~ ;.A.A. .` Y.Y.-.~ A.5.Z 9 -.V Z A.Z +.#.-.5._ u.2.U -.-.5.` +.!.+.U { k j e 2 5 i -.,.5.A.f.f.f.A.>.-.>.Y.A.W.u.v -.>.u.>.2.Z x )._ ! J -.~  .f.-.i $. .).:.f { M.-.5.:.i J U >.F 5 5 l -.1.5.A.f.f.f.A.Y.-. .).5.u.A.5.{ -.Z 2.5.>.A.+.~ Z A.,.+.+.W.5.5.Z < F 5._ ~ 5.-.>.-.5.",
"-.5.F f l 2 e 5 J 5.1.5.A.f.f.A.Y.Y.5.{ ~ V ~ A.>.;.3.).>.` g Z i V  .5.1.-.-.+.-.Z g A.5._ 5._ j  .{ f +.! V J 7 2 e 5 Z 5.5.f.f.u.f.5.{ u.A.A.A.{ ~ 5.>.-.{ ! ~  .{ >.-.5.>.5.+.-.U { #.} +.>.>.5.5.A.J B J ~ _ 5 e 5 5 g =.>.>.u.A.f.f.Y.-.Z Z v.Y.5.u.). .s +.u.R n T  .{ >.,.+.-.~ -.-.Z 5.-.U { >.>.-.Z 3.A.} ~ i i a 5 5 e k -.,.5.f.f.f.u.A.3.` A.Y.W.5.J Z 3.u.u.+.{ ~ _ 5._ ~ #.+.-.Y.5.Q } >.;.f.~ ~ 5.3.u.-.5 _ ~ -.5.V < 2 F 5.,.5.f.f.f.f.A.A.5.f.u.f.A.` Y 5.5.5.2.>.1.5.-.Z +.>.>. .T >.5.-.J V +.U >.W.-.~ >.5.",
"{ +.F V x i 5 e 5 { f.,.5.A.f.f.A.W. .5.{ 4 5.>.>.5.>.-._ y J #.Z _ 5.Z >.} -.5.~ f  .f.5.A.+.< 5 -.Z x J V Z +.~ 7 5 e i +.5.5.A.f.f.A.f.5.u.A.5.#.Z V >.+.{ ` +.U 4.:.-.-. .5.5.{ _ M.5.R -.5.Z M. .A.>.5 j { < j B < e 5 l -.1.,.f.f.f.f.A.>.Z U A.A.).+.U >.>.>.~ +.A.` A.2.U :.A.U { 5.{ +.{ W.>.,.U -.+.5.f.U y Q ^ 2 e 5 7 2 l >.,.5.A.f.f.f.A.~ 5.).Y.,.' _  .>.5.{ -.{ g >.-.+.>.` ` 5.A.5.Z U { 5.` ~ -.>.5.3.+.Q  .+.-.Z k 5 i U >.1.5.A.f.f.f.A.A.A.5.u.~ R A.A.5.A.-.` 3.5.5.-.f.` ~ { U 2.2.~ h ~  .5.~ ;.{ Z A.5.",
"+.~ ` ^ k x 5 2 e i -.5.,.f.A.u.u.f.-.,.+.~ >.3.5.~ ~ v u.+.} { -.2.A.+.{ ~ A.>.i } 3.>.5.3.g 7 +.>.l ~ F Z ~ v A.F < e e k -.5.5.f.f.f.f.A.f.f.J J Z 5 >.5.-.;.A. .U 2.+.-.-.>.:.4.J +.5.5.5.-.{ #.V  .5.l F -.k B ~ D < e 7 k >.,.>.f.f.f.f.A.-.} -.f.).V V A.{ u.-.Z 3.5._ ` >.5.5.v ~ A.-.T ~ 5.u.>.+.l -. .U 9 Z :.V - Z ~ 2 e 5 F ,.,.5.f.f.A.f.Y.A.Y.5.5.).+.~ { T 5.-.P v U -.R -.@.-.U >. ._ -. . .{ U 5.~ 5.A.>.4 >.5.-.} x e 2 2 l -.5.5.A.f.f.f.A.1.>.` -.5.A.5.A.Y.>.-.>.5. .h 5.5.` Z ~ 2.v ~ -.-.-.-.U -.>. .3.-.",
">.5.J l 5 k h 5 5 3 k 2.5.1.f.f.u.A.,.5.Y.A.U u.{ J +.-.Z >. .~ { +.A.>.v T Y.-.i >.-. .u.Z _ ~ } A.+.J { x -._ { -.l 7 e 5 B 5.1.u.A.f.u.f.Y.@./ _ y } ).Y. .-.>.>.~ 5.{ Z >.5. .v._ V  .>.5.A.-.T v } #.U D  .@.U j i M 7 e 7 k -.,.1.f.f.f.f.f.1.>.` A.5.>.-.Z A.+.9 ~ 5.f Z 5.Y.A.-.-.>. .~  .A.{ >.-.f >.-.^ v +.U J i U -.~ < e 5 Z 5.>.5.A.f.f.f.A.A.u.A.A.{ g _ i -.>.{ Z Z  .A.-.{ A.P -.R  .5.~ -.{ >.-.-.{ Z +.F >.f.>.5.F 2 a 2 2 a -.1.5.A.f.f.f.A.f.>.-.1.1.Y.u.).5.~ 5.A.T Z  .>.,.` >.-.+.A.f f -.>.{ @.Y.-.R -.",
"2.{ f O 1 2 l g 7 5 3 F u.-.-.A.f.f.A.5.u.A.-.>.-.>.{ { Z R ;.~ F { A.v.#.-.-.-.7 +.v V )._ x { -.5.5.{ ~ ~ 5.U f +.{ i 2 e e U 5.1.A.f.f.f.f.1.5.5.5.+.Z -.2.+.{ +.A.A.l l  .`.T _ +.f ! :.#.{ >.5. .>.+.x J +.>.#.5 k { k 2 e 2 F ,.>.5.f.f.f.f.f.{ Z A.u.>.>.U  .R ~ ~ ;.~ Z ,.A.1.).+.g U { -.f.+.>.R F -.A.>.U B ~ l j Z -.u.! - 5 7 U 5.>.5.A.f.f.f.A.u.,.;.{ Z -.{ ~ A.R { 5.-.` 5.>.>. .-.A.5.~ ~ -.n.~ U 5.-.Z -.5.5.`  .Y.' D B r 2 2 i >.,.5.A.f.f.f.A.u.-.;.5.W.u.A.W.5.>.+._ 5.` { >.A.>.-.1.-.Z ! +.>.>.U n.Y.{ Z ",
"v { -.i q a j l f 7 e 5 ~ u.5.5.A.f.f.u.5.5.1.5.5.,.~ Z 5.' { { >.:.-.+.-.>.2.3.J v { +.).-.f +.5.} -.U { ` 5.Q l ~ { Q 5 2 e r ~ 5.1.f.A.f.f.u.f.Y.`.{ i U >.+.~ -.5.<.#. .-.` Z { { f { T ` _ A.-.{ `  .>.2.} v A.B r Z F i 2 5 5 ~ 5.>.1.A.f.f.A.5.U Z ` >.>.@.5.R -.>.>.5.>.-.{ u.)._ l 3. .~ >.).>.` { -.+.-.A.} i D V ^ {  .>.Z < e 5 Q 5.>.u.A.f.f.f.A.5.5.A.5.-.+.-.+.! -.>.U v 5.5.3.` -.).-.-.A.>. .9 +.5.~ R 5.>.;.`  .2.-. .~ i e 2 5 x >.1.1.A.f.f.f.A.,.1.W.A.A.5.5._.A.J V 5.U  .-.-.J  .A.>.+.>.U -.A.+. .A.+.5.",
" .-.~ i { i B Z g r 7 e 5  .5.5.f.A.f.f.>.>.f.A.>.5.>.~ +.A.T >.). .5 ~ ~ 5.{ U  .~ 5.3.5.>.>.y  .>.-.-.+.>.5.+.Q ~ ~ ! a 5 5 r e _ 5.1.f.A.f.f.Y.A.).-. . .-.-.U -.>.>.-.+.U _ M.+.~ U { } 5.-.~ >. .-.;.5.Z g g f.>.l Q ! B B 2 5 5 { 5.>.5.A.f.f.Y.5.Z Z 5.-.5.`.Z @.Y.W.3.1.).{ ` >.:.! _ { { >.u.-.5. .U !  .{ A.~ l Q Q ! ~ -.5.i 2 e 5 ! 5.>.5.A.f.f.u.A.A.f.).>.Z Z ~ U >.-.U U 1.5.-._  .5.A.{ >.Y._ i `  .+.Z >.>.>.2.+.U A.-.` k e i 5 2 x >.1.5.A.A.f.f.5.5.W.A.Y.A.-.-.5.2.< x -.#.-.+.y _ ).R.5.+.v T n.5.-.>.Z A.",
">.+.~ ~  .U 5 k Z l 7 5 e f +.>.1.A.A.f.f.A.Y.u.A.` ~ -.~ >.J 5.5.Z J ~ U >.-.U 4.>.-.-. .-.5.V ` -.{ >.5.} -.{ { 5._ k 2 i 7 2 e r +.5.1.A.A.f.u.A.Y.R {  .>.5.{ +.>.! Z { >.+.J U >.2.A.x { >.U @.5.A.5.2.5 V U ` Y.>.@.` x D e 2 2 i { ,.>.5.A.f.u.A.>.` ` >.>.A.+.-.W.u.@.A.5.{ U { U ;. .Z Z ` 5. .>.5.F { ;.~ >.:.y -.` +.>.} Z Z 2 2 5 7 { 5.>.u.A.f.A.A.A.Y.W.-.>.-.1.A.~ ~ U Z >.n.A.{ l 5.A.V J A.>._ g -.5.-.-.+.>. .5.-.A.5.~ ~ l B a 2 2 V 3.>.5.A.f.f.f.A.A.).,. .-.>.1.5.f x -.>.5.5.~ +.5.2.-.-.~ 5.A.>.>.-.U { ",
"5.5.l ! A.{ . k O.l g 2 e 5 x -.,.5.A.f.A.5.5.A.Y.>.=.A.-.~ -._.U g >.>.-.-. .>.~ U >.` -.A.5.J >.-.Z ~ 5.+.~ 5.-. . .~ 5 B f 7 e e g ;.5.5.A.f.f.A.f.>.>.>.f.5.5. ._ U { >.+.i f  .>.5.W.~ Z 5.>.` >.>. .5.x Z v.+.5.~ +.>._ f j i 2 e 5 ~ 5.>.5.f.f.f.f.5.i -.A. .>.>.A.>.>.A.>.' ` 1.>.-.U _  .-.J -.5.5.U { -.U  .~ Z 5.-. .-.B x V 5 f 2 3 i #.,.>.u.f.f.f.f.Y.A.A.>.-.Y.5.f l  .` ' n.>.~ U W.>.>.-.{ { +.9 -.u.1.>.-.1. .5.5.+.5.>.#.~ V D e 2 2 Z 5.>.5.A.f.f.f.f.Y.-.` ).5.1.5.` ~ -.5.{ 5.2.+.>.-.{ A.:.>.Y.-.v 6  .+.",
"5.>.g U A.A.J 5 V k l f 2 e 5 ~ u.1.u.A.f.f.A.).W.-.>.-.n ` f.>.Z  .).-.5.J 9 -.J ~ :.5.{ 5.A.-.-._ V +.` { ~ P -.-.A.-.U U e i 2 5 5 l 1.1.u.A.f.f.f.A.5.5.A.>.>.`  .>.-.>.~ U l -.A.5.5.5.J ~ A.U Q ' >.5.#.{ 5.>.~ -.5.:.>.-.! j e e e 5 { 1.>.f.f.f.f.A.-.' A.;.U +.;.5.Y.>. .5.-.1.-.>.~ >.5.+.g ~ R -.f.A.Z Q 2.+.{ -.>.-.;.r Q i J U i 2 e i { 5.>.u.A.A.f.f.A.f.-.-.W.5.l F ' A.5.u.-.{ +.5.5.T >.-.r Z { +.>.5.f.W.5.>.5.>.y h A.-.-.{ 5 3 5 5 2 Z 5.>.5.f.f.f.f.A.f.f.Y.5.>.1.,.f.>.>./ A.5.` -.n.{ 5.#.U A.U ' v #.>.",
"~ 5.+.V } ).~ y ^ e i x e 2 5 e -.5.1.u.f.u.A.,.X.5.-.v -.5.5.>.-.>.Y.>.n.V 5 +.>.>.-.` -.A.)._  .Z _ l U ` >.~ 5.A.-.W.~ f i i 5 2 5 5 J 5.5.f.A.f.f.A.5.u.A.,.;.~ 5.~ ~ A. .~ k  .A.5.A.5.` F -.T Z U 5.A.-.5.{ ' +.>.A.T -.-.J % 2 2 2 e r  .1.&.f.A.f.f.A.5.5.-.U A.~ } W.5.>.-.U 5.-.-.3._.U V ~ T -._ A.f.-.-.{  .Y.Z  .5.J 5 +.{ f V ~ B < e i -.1.,.A.A.A.f.A.A.5.>.u.Y.` _ >.A.5.,.).+.Z -.Z +.~ -.U Z A.-.J >. .-.).u.-.Z +.v >.>.-.-.f 2 D i 2 5 U 5.>.5.f.A.f.f.f.A.A.A.5.5.f.>.:.A.{ ` 5.>.@.5.-.5.-.V -.;.).+.l 2.",
"-.v U ~ +.>.g Z 5.e k l l 5 5 5 l 1.1.5.f.f.A...` A.>.-.5.U 5.,.>.A.u.A. .Z { -.Q -.~ { M.{ -.` >.Z  .{  .-.R.~ >. .s 5.+.i e 5 e 5 2 e 5 ~ u.5.f.f.f.f.f.A.Y.A.5.} 5.y :.>. . .~ ~ A.5.-.M.-.Z Q  .V h >.).>. .{ { -.5.5.Z  .{ < i k D e 2 5 i @.,.>.f.A.f.u.A.Y.{ ` 5.5.+.A.A.5.+.5 { >.A.>. .{ _ -.-.U Q Y.>. .-.+.{ f. .Z ~ ! k -.>.~ F ~ { k 7 w l >.,.1.A.f.f.f.A.5.>.-.` R  .Y.Y.A.f.5.U . F +.Y.#.Z -.+.).5.J +.~ ` f.-.{ Z A.5.-.;.' A.Q 5 B B e 5 2 Q 5.,.5.A.f.f.f.f.A.A.).+.U >.>.5.>.>. .A.{ U -.-.} -. .A.R.+.i >.",
"-.V +. .-.A.-.B J i k 9 l g 2 e 2 J 5.1.5.f.f.u.,.Y.u.A. .{ A.-.5.5.Y.5.g { +.-.Q ~ >.4.5.J Z f.-.h R.>.-.-.{ Z >.v ! 5.>.#.J 2 F V 2 5 e 5 ! 1.1.A.f.f.f.A.Y.Y. .-.-.J #.-.U @.A.{ -.5.-. .Z 5.~ >.J ~ v.5.5.` +.{ >.5.>. .{ -.~ ! +.Z Q 5 5 3 f -.,.,.f.A.f.f.A.5.2.>.u.A.).>.v >.-.+. .>.J h A.5. .-.+.-.-.-.~  .5.` -.5.l V :.5 { A.A.-.Z B k 7 2 2 B >.1.1.A.A.f.f.f.A. .R -.>.A.W.W.A.5.F F B Z A.A.+.{ V #.` ` 5.5.5.{ { { ~ >.W.Y.+.+.@.5.i D J a k 2 7 J 5.1.5.A.f.f.f.A.A.Y.-.@.).A.5.-.>.A.-.{ T R -.-.>.W.>.-.{ f { ",
"~ { +.-.>.-.U v g i - i Z l f 2 e 5 { u.1.5.A.f.A.f.Y.A.>.>.R ;.A.n.A.U Z A.5.>.>. .2.F ~ ~ v 2. .-.5.-.-.>.U { 2.{ >.>.A.5.{ 2 ~ ^ i 5 5 5 5 ~ 5.5.f.f.f.f.A.Y.U +. .>.~ ~ !.{ ~ { +.>.>.{ Z ~ 5.u.+.F -.+. .5.-.J #.5.A.-.+.-.{ l U V Q k 2 5 5 k +.,.1.A.f.f.f.A.>.>.A.A.).} f M.5.~ { v +.+.-.-.} -.>.>.} +.{ ~ >.-.:.A.k Z -.Z { 3.5.5.~ ! a B 2 2 3 V >.1.1.A.A.f.f.f.5.-.` >.A.f.Y.A.5.U { i _ 5.5.).J - U >.>.5.A.5.R #.>.-.-.>.A.~ ~ ` `.! i D 2 Z i 2 2 V >.>.1.A.f.f.f.f.A.u.f.W.A.~ ` ` A.-.T -.+.-.{ 5.>.>.>.@.{ >.",
"` { F 5.-.~ 5 V ~ D r k Q 5 x 5 2 5 r @.5.1.u.A.f.f.A.A.A.` >.5.A.W.5.U Z 5.Y.,.*.5.>.V U +.{ -.{ ~  .5. .>.:.T >.~ v  .A.f.-.B g _ k i 2 e e i -.5.5.A.f.f.A.A.P +.-.Y.f.+.>.2.~ ~ +.Q ~ 2.y h A.5.>.g +.>.{ -.>.J { A.). .v -.~ f V { { l e 2 5 5 k >.1.1.f.f.f.f.f.A.5.5.Y.5.-.{ *.x ! +.>.f.;.Z Z 5.#.M.-.V >.>.{ J >.{ % V Y. . ._ 5.A.-.Z { V e r 2 2 x >.,.1.A.f.f.f.A.4.~ -.>.A.Y.f.5.-.` ~ 5.5.2.-.f F J >.>.>.-.>.>.#.+. .5.U u.3.-.>.A.} l Z e l { B 3 2 D 5.>.5.A.f.f.f.A.f.Y.A.,.Z ` >.5.5.h 5. .>.>.>.;.A.-.>. .>.",
"2.2.~ _ l O.- j O.Z x V ! e k l 7 2 e g >.5.5.f.A.f.f.A.5.>.>.5.).f.5.-.J -.+.` A.5.T } -.@.~ -.>.~ ~ 5.W.>.Z U { ~ Z  .5.5.5.{ ; l F 7 9 2 e e V 5.1.f.f.f.u.A.-.R 5._.5.U >.A.Z V 2.r +._.F Z +.A.A.+.5.~ { -. .>.{ -.>.U Z A.+.x :.Z 5.~ 5 l 7 5 5 k -.1.1.f.f.f.f.A.f.,.>.-.:.h  .U Z f.A.>.{ g Z Y.2.U ` U 5.~ Z { -.U 9 U u.A.{ x 9 -.>.v >.F k M 3 5 2 V ,.>.5.A.A.f.f.A.A.R  .u.5.f.W.W.>.U U u.2.Z ! { 5.` ` Y.~  .u.2.J R u.>.5.` { f.5.f U ~ ! ~ B B 5 5 5 J 5.>.5.A.f.f.f.A.A.f.' { 5.5.5.5.{ 5.5.u.5.5.{ A._ T { v ",
" .>.F - l U Z f U +.k _ ^ e k l l 2 e 2 ! u.5.5.A.A.f.f.5.>.5.:.>.u.5.~ g l Z  .).U T +.` `  .-.-.A.-.-.A.-.U x v U -.5.-.Z ,.{ < Q ~ V i e 2 e e J 5.1.f.f.f.f.f.-.1.f.5.` @.>.v  .>.~ F u.-.+. .5.-.Z Y.>.-.v.f i 4. .Z 2.#.5.5.F l x U k 9 2.V 2 e 5 k -.,.5.f.f.f.f.u.u.-.+. .-.{ ~ ~ 5.,.+.Y -.).;.-.U ` U 2.~ Z 5.5.F Z -.A.2.f g T -.:.{ +.O.B k B 5 e 5 Z ,.>.5.A.A.f.f.A.5.@.-.-.5.).A.5.>.f 2.5.;.T +.>.U >.Y. .-.{ Z U -.u.5.u.~  .>.R Z { 5.{ { ~ _ Q k 2 7 J 5.>.1.f.f.f.f.f.A.5. .5.A.A. .{ 5.u.-.>.5.U ;.P n  .Z ",
";.T i 2 F 9  .>.>.! i ^ V B k J f g 2 2 i -.5.1.5.A.f.f.1.5.A.U >.W.-.x g Z >.5.u._ ,.5.#.-.>.4.-.{ 5. .;.-. .~ J >. .A.+.Z 5.~ 5 :.Z D B B 5 2 e 5 { u.1.f.f.f.f.f.>.5.A.-.Z &.>.5.T +.{ -.-.>.-.~ 5. .A.-.-.5.V y Z 5.5.-.Z #.A.~ g J < B _ 5.-.r 2 e 5 x >.,.u.f.f.f.f.A.5. .! -.v ` -.>.Z -.>. .>.-.-.>.>.{ U { _ >.Z R >.5.5.5.-.F >.Z 2.} x >.! k Z B 2 5 3 U 5.>.5.A.f.f.f.A.A. .-.1.u.).>.A. .{ -.~ v -.>.~ 5.>. .5.U U 5.1.>.{ J >.>.{ ~ 5.A. .~ A.-.5.^ 2 5 2 5 U 5.>.1.A.A.f.f.f.Y.>. .).A.U +.+.A.{ U -.-. .` ~ Y.3.",
" .>.{ Z +.~ >.;.J - Z +._ i 5 -.Z l 9 2 3 Z u.1.5.f.A.A.5.u.A.5.5.>.v ~ +.>.5.{ A.2.-.>.5.5.-.>.2.v >.-.-.~ U 5.Z U >.Y.-.l J Z { _ +.k l { Z 2 7 r f -.5.5.A.f.f.f.5.A.>.Y V ` 5.u.1.-.k { A.5.U  .5.-.1.-. ._ 5 y h { ).A. .v +.~ @.{ - F _ #.>.U f 2 e 5 F 5.>.u.f.f.f.f.A.} Z >. .5.Y.u.-.>.f.} Z { R.5.~ F ~ -.+.-.~ 5.2.-.;.5.T V  .J { -.l } 5.>.-.V j 5 2 5 ~ 5.>.1.A.f.f.f.f.u.-.-.,.Y.>.A.).! s +._  .5.{ >.A.~ >.U -.-.>.~ -.g  .Y.>.>.-.5.~ _ ).5.U Z < 5 i 5 7 U 5.>.1.A.A.f.f.f.f.>.W.Y.{ @.Z 5. .< +.Y.-.>.>.A.Y.",
"{ U -.{ +.v -.>.y U -. .~ +.l k Q V l 2 2 7 { u.1.5.f.A.f.A.Y.A.A.Z 5 +.A.Y.5. .>.>.-.5.2.5.f.+.+.v { R { U J @.-.>.5.2.f l 9 Z #.J i ~  .+.x l < e 5 B 5.5.5.A.f.f.A.f.-.T +.+.` 5._.+.5 -.u.*.>.>.>.l { >.R Z x v 5.5.A.>.{ U } M.+.{ Z V ~ } -.#.! e 2 u 5 Q 5.>.f.f.f.f.f.5.~ -.>.5.5.A.-. .-.R ;. .>.>.~ Z U 2.-.U } A.2. .+.-._ J >.} F >.~ 5.5.n.U l i < 2 e e ^ 5.>.5.A.f.f.f.A.f.-.>.5.5.A.).y Z A.{  .5.' >.A. .>.~ {  .5.U >.~ ~ >.` A.`  .R.>.>.:.x k i i +.j 2 7 ~ 5.,.5.A.f.f.f.f.A.A.5.,.` -.U } +.&.W.-.} 5.A.f.",
"A.J F i _ Q 5. .-.A.2.-.~ k 2 r 2 F V f 7 2 j >.5.5.5.A.A.f.f.5.5.{ Z -.A.5.,.5.v >.5.-.>.@.A.U ;.Z x >.-.-.>.5.B #.A.{ 7 v +.{ J U k Z  .} x +.g 2 e 5 F 5.1.f.A.f.u.A.1.>.-.-.Z { Y.5.{ 5.-.>.3. .5.~ U -. .` -.U 5.A.A.-.` -.~ >.>.+.-.J l Z 5.~ ~ k 5 5 e e { 5.,.f.f.f.f.Y.>.-.-.@.f.f.>.,.-.R >.{  . .3.~ v { W.} g >.2. .-.~  .-.5.5.Z { +.~  .-.{ U g F B 7 e e { 5.>.5.A.A.f.f.A.A.1.5.).f.>.l _ F -.Y.! +.-. .' @.>.A.5.U U >.-.5.J l f.5.5.).5.-.v V V Z f U O.i 5 e V -.,.,.f.f.f.f.f.f.5.5.+. .U 5.>.&.Y.Z R _. .R ",
"u._ V 5 5.+.Q 5.>.>.>. .- 5 l M i i Q V f 7 2 J u.1.5.u.A.A.f.f.f.5.-. .~ >.).;. .5.5.>.5. .>.5 +.-.Q -.1.5.A.>.l -.5.{ F #.^ J ; ~ 2.i } ` ~ { _ 5 7 e 5 { u.1.f.f.f.f.A.~ R f.`  .W.A. .-.{ >.+.U -.A. .} +.~ >.U ~ 5.u.>.&.-.Z >.2.Z Z Z k V @.~ -.+.x 2 e e i +.1.,.f.f.f.f.A.5.<.5.>.5.5.5.A.T +.5.>.3.>.Z _ v 5.-.{ :. .>.-.~ -.,.u.5.O.B x Z { >.+.-.-.F l B 5 5 r { 5.>.5.A.f.f.f.f.A.W.5.l -.>.l 9 -.`.~ F U { n.-.U 1.5.V ~ -.5.2._ r ;.5.A.A.5.-.v { ! Z {  .+.~ B 2 2 B -.5.1.A.f.f.f.f.f.W. .` -.5.-.` A.>.u.u.{ ` ",
">.9 Z { -.`  .` ` -.~ } J F B 2 2 V V x l 5 2 5 +.u.1.5.u.A.f.f.A.5.,.-.U >.Y.5.W.>.>.A.-.~ -.x >.>.5.-.~ >.5.>.+.` >.} J -.l x M J A.J Z { >.-.4.V < 2 5 i -.5.1.f.A.f.f.>.+.-.-.A.W.>.-.-.~  .>.n.+.5.` U U o.{ -.g 5.W.-.` { +.'.-.. 5 }  .~ >.v.-.U f e 2 e e j -.1.1.f.f.f.f.A.5.5.5.A.3. .-.Z { Y.Y.5.V B O.F -.5. .F 3.-.>.>.>.>.5.5.-.V f 5.4.>.>.+.~ i j e k 5 e 5 ^ 5.,.u.A.f.f.f.f.W.>.v +.5.R { ,.A.-.x _ } A.{ g 5.5.A.-.-.A.5.{ f +.-.~ 5.>. .U 5.-.5 +.2.5.-.f e e 2 B >.,.1.f.f.f.f.f.A.>.>.-.-.5.-.5.-.5.u.u.>.",
"R J Z ;.+.U F U -.5.Z +.>.V @ - 1 k U { V l 5 , f >.1.5.5.f.A.f.f.A.5.>.+.>.-.A.#.1.u.A.! Z 5.+.,.>.-.5.~ ~ f.+.v 4.>.~ i ~ >.{ Q D >.{ { { { >.-.~ F < 5 2 x ,.1.5.A.f.f.A.5. .{ >.).Y.>.x ` 5.5.).U -.' } -.Z ~ 5. .-.+. .{ ;.>.{ { 4 x +.>.` n.>.h f { B a 2 5 5 f  .1.1.A.f.f.5.>.W.f.u.~ ~ :.2.5.Y.W.#.i ! Z _ -.5.{ Z ~ ,.u.-.-.5.>.M.{ +.+.+.h  .>.-.Z ! J D M l 2 e 5 { 5.,.u.A.f.f.f.A.5.~  .1.-.>.A.5.Y._ y +.>.Z  .). .u.3.5.-.{ v 9 -.>.+.{ { -. .2.n.~ U U >.~ +.l 5 2 2 V >.5.5.f.f.f.f.f.A.5.{ >.>.5.-.>.A.,.5.A.",
"U :.A.Z ~ { ! >.+.-.-.{ V 5 V 5 - Q F >.+.l g 2 2 V 5.5.5.5.A.A.u.u.A.5.-.-.` 5.5.A.A.J 4 Z U 5.u.-. . .U -.5.{ Z >.-.>.{ ~ } 2.J 5 +.). .-.U U -.{ _ f 2 5 5 ! A.1.5.A.f.f.A.>.{ >.>.>.-.R -.W.-.>.>.>.{ 5.5.5.-.~ A.! l v.2.>.{ 5 J >.+.U 5.-.3.-.! S V -.B 5 2 e 5 i -.,.5.A.f.f.A.A.A.-.{ -.1.5.).Y.5.x < ; -.>.Z -.;.Z { 1.5.5.2.l { f.5. . .f F 5.,.5.5.2.{ ! k V J < e r { 1.>.u.A.f.f.f.f.f.-.U :.>.1.f.f.{ x -.5.{ v.Z Z 5.&.Y.+.< Z Z ~  .).h  .3.U  .v.+.{ +.-.V { { 5 F 5 2 B >.5.1.f.A.f.f.u.W.~ -.A.-.-.>.5.u.5.A.",
"+.+.5.>.l ^ -.>.~ U  .v J r +.U 5 -.Q V 2.Q l f 2 < U 5.1.5.5.A.f.u.A.>.{ -.-.>.).-.5.k % g  .A.A.3.~ ;.2.>.5.V F A.-.@.-.-.9 -. .U 2.A.5.-.+.l 5.U e J i 2 e 5 T 5.1.5.f.f.f.f.5.Z J >.5.1.>.A.A.' -.>.U -.A.~ -.{ { -._ +.{ V Z { _ 5.u.~ +.>.u. .-.V 2 U { x e 5 e e x <.>.5.A.f.f.f.f.>.` &.f.A.A.).U < F x >. .}  .{ { >.>.5.A. .i ~ A.u.+.-.+.{ -.=.5.A.R  .Z D < _ F < e 9 { 5.>.u.f.f.f.u.A.>.Z { >.f.W.u.@.#.v.>.-.>.5 l 5.5.W.#.O i Z U -.u.-.5.>.A.-.-.+. .>.:.F ! -.l } _ ; 2 k -.,.1.A.A.f.f.A.5.>.>.-.5.-.u.5.u.>.",
"v T )...Z i A.5.x U i ! ~ ! -._ ! Q l e _ _ Z x 9 2 5 { 5.1.5.u.A.A.A.u.;. .-.Y.>.>.>.V g -.).-.3.>.P  .:.~ +.Z >.` -.>.>.-.V v 5.;.+.2.-.+.#.F { B k +.Q k 2 e 5 ! 5.1.u.A.f.f.u.Z ! -.-.W.5.Z >.5.-.2.x  .A.~ 5.@.f A.-.~ F 5 { 5.5.+.>.~ ~ h A.A. .L B i Q V V e 2 e 5 U 5.>.u.A.f.f.f.A.-.-.A.W.W.5.{ g -.U _ 3.5.#.T } _  .f.A.v. .>.;.5.U 5.W.k V Y.u.U l >.U f B Z 5.x < e i +.5.>.u.A.f.A.f.A.>.U -.W.A.W.).>.+.A.M.>._ f } A.).-.i i f ' 5.A.5.A.A.2.v. .g ~ -.-.+.r !.V <  .! 2 e l >.1.,.f.f.f.f.A.A.>.-.M.A.Y.>.` ~ ",
"_ } 5.{ 2.~ A.5.V } J U 5.Z -.2.D k 5 i i Z +.x l 5 2 5 -.5.1.5.f.A.f.f.5.2.-.u.>.5.{ U A.A.5.,. .' -.5.5.-._ F #.>. .{ { x 3. .-._ U +. .-.V { 5. .-.~ ! V 5 5 e e +.u.,.A.A.f.f.5.Z -.>.W.f.f U _.>.{ Z >.{ g u.-.k 5.{ { -.U A.{ >.>.Z x A.} >.5.5.F 2.f ~ _ e k 5 2 e 5 { 1.>.f.A.f.f.f.5.>.W.A.>.>.2.~ { _ -.~ 5.5._ ! i g 2.A.A.' A.>.Z i ` u.U x A.5. .U 2.J Q +.+.-.F 2 5 e i +.5.>.f.A.f.f.u.A.2.~ ;.W.W.A.5.-.>.f.>.{ Q _ -.).5.Z 5 U >.-.-.:.2.A.-.g ~  . .>.-.-.x -.+.B +.{ e e 2 B -.1.1.f.f.f.f.A.A.1.A.A.n.>.;. .",
"J +.J ~ ;.5.>. .g #.-.#.~ Z { #.~ _ k B J l ~ { x g 2 2 x 5.5.5.5.A.A.f.f.5.` { } -.+.:.5.5.5.5.>.,.A.} ~ >.-.Z J A.5.Z B Z 5.5.>.F , _ f.A.v #.>.A.-.+.Q < k 5 7 5 k >.5.5.f.f.u.f.-.~ -.A.A.J U u.-.{ 5.5.h Z ).5. .-.Z } ).M.~ -.U  .{ F -.5.-.{ ,.U 2.-.+.U V l _ 2 5 e i -.1.,.f.A.f.f.A.A.W.>.X.A.5.-.3.+.+.l -.U { < { Q +.Y.5.+.A.&.h V +.-.>.+.>.U ` Z >.>.5.>.>.F r 5 e 5 e i +.5.>.u.A.5.f.f.A.-.=.A.A.n.A.5.-.#.-.` >.A. .-.-.J  .~ ;.-.#.-. .{  . .{ #.5.5.>.Z +.` -.).2.k 5 V 5 2 k >.1.1.A.f.f.f.A.f.Y.W.5.-.5.5.",
"5  .F 5.-.5.-.~  . .>.-.U +.+.} { V k ! +.< x 5.+.x g 2 2 J u.1.5.u.A.f.u.A.>.Q l Z Y.` +.Y.>.~ ).{ 1.>.l  .>.:.A.u.~ Z J i -.5.).F . Q f.-.-.5.{ -.>.;.{ f k i 2 2 5 l -.5.5.A.f.u.Y.+.~ u.>.-.-.A.>.Z >.5.>.+.A.5.;.>.{ -.A.5.l >.:.-.-.F x  .-.' 5._ { '. .! Q 7 ^ k 2 e 5 k >.>.>.A.A.f.f.A.f.>.+.5.>.5.5.A.} Z { v -.+.` ~ -.{ -.R -.>. .-.-.>.A.u.-.j x ~ J 5._.5.{ V V i j e 2 7 i +.5.>.u.f.u.f.f.A.A.M.A.>.f.A.>.~ U >.-.-.5.>.-.-.U g -.5.R ' A.U U W.~ +.4.-.{ J >.>.-.>.U Q - U U 5 5 l >.1.5.A.f.f.f.f.f.A.A.>.-.>.",
"} ).-.U 2.Q >.U >. .{ { U >.v -.A._ Z J ! J 5 5.W.T l 9 2 5  .u.1.5.u.A.f.u.Y.+.x Z 5. .-.A.A.:.k Z >.-.` -.-.` A.).Z % V Z U A. .% Z +.U >.5. .-.U 2. .5.5.k 5 i 2 5 3 k >.5.5.f.f.f.A.-.V `  .-._.-.U >.u.W.3.{ A.5.{ { { U 5.v -.).-.-.F x -.>.{ -.5.{ +.-.4.i < ~ Q l 2 e 3 Z >.,.,.A.A.A.f.f.A. .{  .Y.u.5.>.-.V ~ 5.] -.T >.l -.#.+.-.+.U -.f.5.5.Z Z +.-.J U ).A.U % 9 j - k x 2 e f @.5.>.f.A.A.f.f.A.f.f.>.f.A.A.~ ` A. .U 5.5.>.-.l i -.W.Z -.A.-.{ 5.l F 5.} -.4. .5.b +.~ { j V >.x 2 5 k >.1.>.f.f.f.f.f.A.A.+. .A.",
"-.&.5.f ~ Z 2.+.+.+.{ :.l { U -.A.).U l _ f F { -.-.l x 5 2 i -.u.1.5.f.A.f.u.W.{ k _ 5.4.2.W.2.g U 2.+.-.A.{ _ A.+.l Z Z 5.{ >.U U 5.-.Z 5.{ -.5.F >.A.>.>._ e e f 2 e 5 V 5.5.5.f.f.f.Y.U F -.>.5.5.~ 5.5.5.A. .A.5.l i +.5 -.W.5.>.>.-. .+.{ { n.{ ~ :.-.~ >.{ 5 J V #.V < 5 5 V -.,.5.A.A.f.f.5.A.+.-.A.5.u.u.2.~ +.F _  .-.>._ >.v.v.{ ` ~ ;.` >.-.~ -.5.-.-. .>.A.{ i B L V x +.2 2 5 f #.5.>.f.A.f.f.f.A.A.5.5.A.,.>. .5. .U 5.f.~ ~ -.` _ A. .} >.;.2.+.v _ -.5.-.U -.5.~ -.A.! k i -.5.k 2 7 l >.-.5.A.f.f.f.f.u.f.>.f.",
"/ >.} i ^ F >.>.-.+.M.} 2 ~ 4.>.5.+.g -.F i U k k ~ J h g 7 2 g #.u.5.5.A.A.f.f.u.k g 2.5.-.A.).f.x U 5.>.A.~ >.+.< ~ 5._ { { -.~ U >.A.~ { >.>.-.V -.A.5.-.U e F k 5 2 e 5 J 5.1.f.f.f.f.f. .~  .>.W.U -.` 5.>. .5.5._ Q  .J 2.5.5.u.{ ~ #.` ~ -.A.U { Z >.5.Z J 2 i { +.-.V < 5 5 f ;.,.1.A.f.f.f.A.Y.u.5.5.A.A.A.-.~ g ~ -.n.A.U { >.-.U >.>.F +.>.` -.5.Z { >.>.`  .u. .g J 5 { k i f 7 e g >.,.,.f.A.f.f.A.f.>.5.>.1.f.5.-.-.5.+.;.~ ~ Y.f.{ h >.~ -.>.{ -.>.-.-.>.-.V +.).v.5.Y.:.2 f >.2.x a 2 2 x -.1.,.f.A.f.f.f.A.5.-.",
">.5.-.>.! f A.~ -.U Z P ^ +.-.4.A.v F 2.Z V V F k j v ~ x f 2 5 i +.u.5.5.A.f.f.f.>.U +.A.T 5.A.A.{ 5 5.A.} v >.-.-.{ A.#.f } } -.{ 3.-.>.5.5.+./ ` f.+. .-.Q { +.5 i 5 2 e 5 ~ u.1.f.f.f.f.A.+.+.>. .R -. .f.f.>.>.A.-.v { { 5.U 1.W.>.5 } >.-.5. .U {  . .5.v 5 i { >.U +.+.< 7 e 5 B >.=.1.A.f.f.f.A.u.u.5.>.5.A.-.l i V >.5.W.-.T 5.{ Z -.A.v ` A. .>.+.f x 4.>.~ -.5.5.} ~ ~ _ a B { 5 5 e B >.>.>.A.A.f.f.f.A.5.5.f.A.W.A. . .U T W.-. . .+.~ :.#.-.5.} -.!  .{  .-.Z ~ ).A.;.A.J % F -.~ F k ! i 2 l >.1.1.f.A.f.f.f.f.5.",
" .@.Y.>.#.Z ~ +.~ Z 9 A.5.+.{ >.4. .F f 5 a l ~ @.V J v Z l y 2 e r +.u.5.u.A.A.f.A.u.5.>.+.>.5.A.+.F +.^ v +.5.~ 5.-.A.{ v :.5.5.-.-.l 5.2.>.>.{ Z { { *.-.A.2.i U l e 5 2 5 5 { u.1.A.f.f.f.A.~ v U { A.A.5.1.Y.-.+.U -.~ ~ X.>.>. .).~ ~ U -.5.` >.5.{ 5 2. .O.{ v U  .! +.J e 2 e 5 T 1.>.5.f.f.f.f.f.f.>.,.5.>.>.J Z V A.-.5.,.>.>.{ ! Z  .>.-.>.5.W.;.k F >.-.~ >.4.@.2. .-.g ~ ! r L 5 2 7 Z 5.,.1.A.f.f.f.f.A.A.A.W.A.A.~ J  .-.-. .-.U 5.:.h -.5.5.A.` V ~ ` ~ U +.~ A.Y.5.R R ~ -.-.-.~ B #.B 3 5 l ;.1.,.A.f.f.f.f.A.",
"~ 5.Y.@.J U 4 ~ -.5._ { :. .Z ` >.` y 4 - 5 } -.-.9 f  .} g l 2 5 5 B 5.5.5.f.A.f.f.A.f.>.>.U A.>.A.~ f J } +.u.5.>.1.` -. .-.>.A.Z x U  .>.>.-.~ Z V Z M.>.A.>.{ J i i i 2 5 e e +.5.5.A.A.f.5. .J 5. .` -.5.5.).5.} #.5.U ~  .A.5.{ -.A.V Z Z >.f.+.;.{ i  .f.+.-.{ Z ! U -.+.B r 2 e e { 5.>.5.f.f.f.f.f.A.>.>.5.5.>.5. .+.-. .5.-.>.} { h { W.A.>.5.>.V ~ i -.` U A.` R 5.-.! 5 x ! - V $.2 2 5 J 5.>.5.f.f.f.f.A.A.A.W.).A.-.~  .R `  .>.+.{ +.Z >.).-. .-.>.+.T U Z >.5.;.f.>.>.-.>.,. .} >.#.U Q i 3 2 j -.1.,.f.A.f.f.f.",
" .3.A.:.<  .~ V 3.A.-.f f +.{ >.A.9 y +.x ~ -. .k 7 Q ,.5.U l h 7 e e } u.5.5.A.A.f.f.A.u.` U ).;.` { k { -.~ 5.5.5.1.-.` ~ Y.~ +.Q h -.>.U U 2.U } A.Z { f.5. .u.l - M i 9 < 5 5 f >.5.5.A.f.f.5.>. .` ~ { A.A.W.A.5.+.5.U ` >.>.A.-.U ).+.Z J ~ 5.+.l i U A.~ ~ 5.5.! J -.-.` J V 5 2 e r { 5.>.u.f.f.f.A.A.5.,.A.5.5.A. .~ { ;.` -.>.Z >.~ 5.5.>.-.u.-.& { U +.+.+.A.` -.A.} l ~ Q J V k 5.>.5 5 5 ! 5.>.1.A.A.f.f.A.f.Y.W.A.-.>.{ V +. .A.~ s A.5.` 5.2.~ ` -.>.-.+.~ _ >.>.} ;.).-.{ A.-.{ >.>.A.~ - e i 5 k #.5.1.f.f.f.f.",
"Y.5.>.:.~ f V  .u.u.>.~ l u.2.l F i 9 5.{ 9 { ~ - k n.-.{ >.Z z f 2 e k >.5.5.u.A.f.f.f.u.+.-.5.f.,.l V -.5.5.` >.A.-.,.-.v A.-.B f F >.2.< V '.+.i A.+.~ _ _ >.A.' B i { B 5 2 e 5 J 5.5.u.A.f.f.Y.;.x  .-.5.-.Y.W.5.-.~ Z 5.5.-.>.>.Z 5.>.{ +.l +.5.l V -.>.4.~ >.4.+.` -.2.>.Q V a 2 5 5 k -.,.>.f.A.f.f.f.A.5.M.A.A.5. . .` >.` 5.5.v ~ -.5.1.A. .+.;.Z J A.>.x -.5.-.-.5.` h b 5.{ U Q l +.{ < 5 5 ~ 5.>.5.A.A.f.A.5.A.A.f.5.A.u.{ { ~ +.>.{ 5.>.>.+.5.` -.U @.A.1.>.-. .>.>.+.-.-.3.<.5.{ >.>.~ 4 J ! i 0 q i ~ ,.1.f.A.f.",
"W. .Z  .>.9 9 -.u.>.u.-.U '.U . < x x -.A.U Z _ 7 J >.-.-.>.l l v i 2 2 V 5.1.5.u.A.f.f.A.5.-.5.u.5.{ g A.3. . .5.A.Z  .Y.>.>.g 5 x #.-.` J >.-.2.F +.f -.V J A.5.5.{ Q >.k i e 2 5 5 { 5.1.f.f.f.f.f.J U 5. .-.).Y.A.U ~  .,.A.>.Z 5._ { 5.>.5.F V A. .>.Z V A.5.>.` _ -.5.5.>.5.k 2 5 5 5 e l >.,.1.A.f.f.f.f.f.A.W.f.-. .-.U T -.2.5.v U -.>.5.).{ } ` } -.>.5.J 5  .>.1.>.H U h ;.>.U O.Z Z { Z 5 5 e ~ 5.>.5.A.f.f.A.A.A.5.f.). ...' v _ 5.>.>.-.f.5.#.~ +.Z -.A.5.5.3.A.-.>.Z % ~ -.>.5.{ 5.Y.V g  .g V J 2 e 5 { 5.>.f.f.",
"n.>.U g  .Z y -.Y.J J >.>.:.v < g } >.5.5.<.2.x r Z +.5.<.} i k x l 7 5 5 ~ A.1.5.f.A.f.f.u.1.5.-.>.' Z >.>.{ 5.-.;.>.+.-.5.Z < U  .>.J U A.5.+.! _ { F ~ -.-.1.>.:. .:.B e k i 3 2 e r -.5.5.A.f.f.Y. .{ A.{ +.5.A.A.,.u.! 2.5.5.U >.5.{ ~ ). .x x -.~ v.U +.>.U -. .-.>.A.>.5. .k 2 k e 2 5 7 V >.>.,.A.f.f.f.f.A.).-.U  .{ U h 5.A. .R ~ -.5.5.W.@.Z 5.f.M.{ -.x 2 x -.u.Y.{ T { Z 5.-.U :.! i -.U < e 7 Q 3.,.5.A.f.f.f.A.A.Y.5.` >.-.` 2.5.>. .-.5.W.>.{ Q B >.1.>.R -.`.U y Z 9 ! 5.<.5._ 5.A.5.V k Z +.5.Z 5 e i +.5.>.f.",
"-.A.f % } 5.>.A.-.U ~ -.#. .-.l ~ 5.+.+.>.5. .y 5.>.7 ^ Y.V D V l l l 7 e i +.f.5.5.f.f.f.f.A.>.-.U { -.A.5.>.u.Z U '.U Z -.+.B +.5.Y.{ g ` 5.{ l 5 -.+.Z -.5.A.2.U O.+.5 B { B i < 5 5 k >.5.5.f.f.f.A.5.-.A.U  .).f.u.Y.{ Z A.5.-.>.-.-.h >.` -.J { 5.>.+.{ :.l ~ A.-.! ` ;.-.U J 5 B 5 2 2 e 5 l  .5.1.f.f.f.f.f.A.+.9 l Z ~ ` >.A.-.{ 5.5.).+.5.4.Z 5.>.>.U v g F U U A.>.U 4.>.{ ~ >.-.-.k j x A.~ 2 e 7 B >.,.5.f.f.f.f.A.&.X.&.u.5.>.` 5.>.-.5.-.A.5.-.#.x ~ ,.5.Z -.).{ 9 -.-.Z -.M.-.U A.5.f.J 5 Q _ 5.V F 5 5 i +.5.>.",
"5.+.- U >.5.>.-.>.-.U  .:.5.{ Z { 5.~ h  .5.>.`  .-.f _ A.F ~ Q F Z v f 5 5 g >.5.5.u.f.A.f.A.5.>.J { A.A.f.-.{ ~ -.A.5.T >.V ; F 5.Y.~ s n f.A.V e J Z >.>.5.:.>.+.2 F #.U { _ k i < 5 2 B 5.1.5.A.f.u.f.f.,.U { Y.Y.,.u. .U A.>.U >.>.5._ x  .u.A.U >.f.-.` J Z ~ A.-.x V A.3.{ +.D i k k e 2 e e f >.>.5.A.f.f.f.f.A.! h { { >.2.5.,.A.,.f.-.5.).~ F >.>.>.Z ! U +.5.~ +.{ +.-.#.#.4.>.>.} e - V A.5.F - 5 2 B 3.,.5.A.f.f.f.1.-.>.A.).#.Z 5.).A.{ +.A.5.>.#.>.+.f -.4.>.5.>.g { A. . .5.-.R A.5.-.-.5 V v } l J +.< 2 i +.5.",
"U f l #.' A.~ U >.' 2.f.-.5.-.~ v l { { U -.>.-.' Z ` :.5.! x B Z x f v 9 7 e V 5.5.5.u.A.f.f.A.-.U @.u.<.5.5.U ;.f.A.R  .A.J 5 f 2.).{ { ~ 5.5.+.V J J -.5.>.Z -.A.Z { 5.Q Q ^ e e r 2 e 2 ! 5.,.u.A.f.u.A.5.-.@.<.A.{  .Y.-.u.+.~ ` 5.A.l f } ).5.} T 3.5.v g ! ~ -.>.>.-.,.>.i +.` J { D j 7 2 e 5 Z 1.,.5.A.f.f.f.W.~ ~ -.} >.-.>.5.W.A.5.-.>.A.` J  .>.,.Z } ~ -.A.+.-.V ~ J ` -.-.A.A.^ e - D A.-.>.F 2 e 5 F 5.>.5.A.f.f.f.f.A.Y.A.-.5.n.A._.{ U A. .5.T { 5._ -.-.-.>.5.>.T ~ ,.+.` A.-.5.5.{ -.g 5 F { ~ F A.~ 2 2 i +.",
"Z >.U Z { 2._ { 5.>.>.5.A.U x { { y ~ ~ Z n.-.} -.~ 5.5.5.Z j i i V Z g l 5 5 7 U A.5.5.f.f.f.f.5.+.-.&.>.A.A.#.-.5.` { 5.@.:.f ~ ~ 5.5.5.R >. .{  .} l ~ +.>.f.@.{ >.} 5.~ 9 B i 2 e 5 2 5 5 { 5.1.u.A.f.f.f.-.>.-.A.-.-.).5.>.2.{ ~ -.U Z A.5.>.-.} } ! U +.-.U ~ :.T ' W. .+.g U +.~ x 7 F { 2 2 e 3 U 5.>.5.A.f.f.f.-. .A.{ 5./ >.f.>.5.f.Y.>.>.5.{ ~ @.>.~ T @.f.5.{ ).! ! ! +.5.{ u.5.V 2 2 l A.-.>.A.V < e 7 Z 5.>.5.A.f.f.A.Y.).-.-.M.>.>._.>.` >._ ~ ~  .{ 5.>.{ Z 4.1.A.~ F { ! Z  .5.5.-.-.+.x O.>.~ U B -.A._ 5 5 i ",
">.>.U -.-.` >.Z -.Y.-.U >.V B -.Y.v _ A.>.A.` v -.{ }  .Y.V O - i U { F x h 7 5 5 ~ 5.5.5.f.f.f.f.5.;.@.+.u.Y.-.~ A.>.A.>.Z { { M.#.>.{ 5.2.{ { ~ ~ 5.} x +.>.A.{ x >.v +.~ V ~ k k i J 2 2 e i -.5.1.f.A.f.u.-.A.5.A.+.{ Y.Y.-.V { -.-.~ +.A.,.>.A.>.{ D 5 3.,.l U >.-.2.5.U  .+.V U -.J l ~ Y.Q 2 3 e 5 { 5.>.f.A.f.f.A.5. .-.>.4.>.>.-.u.A.5.-.-.u.~ f -.u.5.i -.>. .5.A.5.Z J >.5.5.5.-.5 5 x F R >.-.5.5.V 2 e 2 F 5.>.5.A.f.f.f.A.5.-.f.5.-.Y.u.5.5.-.~ Z 5.} >.5.-.x J 3.>.f.-.5 V U -.A.5.>. .A. .l Z  .5 i :.-.5._ 7 2 ",
"-.>.5.5.x { ~  .A.>.5.k F -.Z ` A._ U >.5. . .-.+.#. .>.A.^ 2 k F O.! B f x f 2 e 5 U 5.5.5.A.A.f.f.5. .-.5.5.A.{ 5.A.A.~ i 5.v.-.{ f.T >.~ 5 Z A.Z 5.{ ~ A.-. .#.Z #.~ l -.` >.~ D k _ i 2 2 5 l ,.1.1.A.A.f.A.A.=.,./ -.Y.Y.).l Q  .@.>.+.X.u.A.-.>.-.F ; ! A.~ ~ >.>.A.-.U ~ l J +.~ { { i -.n.l , 2 e i @.1.>.f.f.f.f.A.-. .A.-.5.,.5.A.Y.5.>.5.A.+.~ >.{ U F 2.-.-.>.>.).~ ~ 1.-. .5.` ~ } :.F ~ ~ +.>.>.2.k < e 3 U 5.>.5.A.f.f.u.f.A.u.1.A.5.5.W.5.A.~ < -.5.R +. .{ Z ` 5.R.>.Z { { { >.1.A.:.#. .V T 5.g x -.{ ).f.! 7 ",
">.5.`.U < 2.~ ` ).Y. .- f -.U >.5.+.Z l -.R >.5.+.5.Y.+.U ~ l O.+.Q _ 5 k F x 9 2 e i >.5.5.u.A.f.f.A.>.>.A.u.A.>.{ >.W.Z Z -.~  .>.Z n >.-.-.-.5.5.F { 2.5.~ :.-.i +.-.U Z >.5.{ 7 +.i F l < 5 2 J 5.1.5.A.A.f.5.>.>.-.5.A.A.).~ !  .+.U >.-.U A.v.x Z / { { W.+.Z -.4.-.-.-.i i -.>.f -.{ U -.{ k Q 7 e 3 k >.,.,.f.A.u.f.1.A.Y.~ +.Y.5.5.5.5.1.5.+.u.f.U x ~ >.>.{ v.` { M. .-.f.-.Z >.{  .5.5.} 2.F +.>.-.' ~ e 2 5 7 ~ 5.>.u.A.f.f.f.f.A.f.A.5.;.A.+.P { F } -.U U -.;.>.-.-.2.>.+.~ Q { -.5.A.J g v.~ +.>.+.i +.>.>.5.>.Z ",
"5.5.W.-.U >. . .A.Y.-.5 U -.~ 5.-.~ 5 ! +.U @.>.>.>.Y.} g ~ 5.~ 5.:._ x r i k h 7 5 2 F 5.5.5.u.A.f.f.f.u.f.).,.~ R  .u.R Z P ` >. .Z #.5.-.A.-.{ v.-.~ U >.{ +.5.! y } ~ J { A.^ x ^ x V { y 2 5 2 ~ 5.1.u.A.f.f.Y.-.~ 5.u.f.W.>._ -.>.~ -._ v A.5.i U 5.5.-.>.' { { M.+.U +.B ~ -.-.U { -.A.>.Z i { F 2 e 2 V >.>.1.A.A.f.f.A.Y.{ >.5.>.5.u.u.5.5.5. .U U { A.-.-._ -. .~ >.>.5.5.A.Z { 5.+.-.>.5.5.} Q ~ ~ +.+.M 5 2 e 5 ~ 5.,.u.f.f.f.f.A.Y.-.>.A.5.~ 9 5.-.+.-.5.~ Z _ _ >.` { 5.-.U f _ >.>.-. .U 5.+.A.>.l _ { >.5._ 5.{ ",
"5.5.5.@.{ u.~ >.2.:.Y.{ F U  .u.{ < J 5.>.U { 3.~ ` ).+.~ +.5.-.5.~ F . f J i x l 7 e 5 _ f.5.5.f.f.f.f.A.A.u.~ l ~  .5.Z ! -. .A. .5.f.Z ~ u.>. .-.A.~ } -.+.5.U x Z -.V g J _ 5.F U F +.~ V i 2 5 5 +.5.5.u.A.f.u.A.-.U ` A.A.u.1.>.5.-.v +.#.U 5. .+.-.-.-.~ ` 5.-.R 5.+.Q F ).5.l #.;.-.>.5.~ f V J i 2 e 2 F >.>.1.A.f.f.f.A.>.>.>.>.A.Y.5.Y.5.>.J ~ { v 5.,.>. .-.5.' A.-. .W.5.` J { >.-.~ >.>.5.-.Z U +.Z i Q f 2 e 5 Q ,.,.u.f.f.f.f.f.5.1.A. .~ v A.>.Z -.5.1.>.l 5 5.>.` >.2.{ 7 _ '.+. .>.-.5.+.+.A.Z +.f.-.>.@.~  .",
"5.A.` -.+.;. .5.>.+.>.F . ~ 1.>. .} J U _._ ` >.-.-.5.~ >.` -.A._ ~ +.F ~ -.l k v y 2 5 5 +.u.5.5.f.A.f.f.A.=. .~ x >.Y.~ ~ Z >.A.-.5.W.J F u.5.>.-.{ { 5.{ { 1.-.J A._ U ~ V Q >.{ f { #.v { U < 7 3 f >.5.1.f.A.f.f.A.`  .3.A.5.5.5.+.~ F ~  .Z } }  .} #.~ >.-.5.+.+.5.`._ 9 A.).J J 5.{ +.A.{ D B o.2 e 2 e 2 Z 1.,.1.f.f.f.f.u.>.5.5.f.5.).-.R -.{ Z 5.-.2.+.-.+.@.,.>.A.' R A.5.R U ;.5.` { >. . .Z g #.! . F 5.-.i 2 e 5 Z 1.>.f.A.f.f.f.f.A.5.U v { ,._.J Z A.1.f.+.l ` ).{ -.-.~ Z -.+.` T  .A.).v.x J  .` A.W.5.~ +.+.",
"Y.;.{ -.Z ` >.f.5.+.f _ f U f.u.`.O.i U 5.-.} { ,.A.#.U -.T 5.,. .>.-.5.+.i e 5 g v 5 2 5 j 2.5.5.u.A.f.u.f.u.-.-.R ,.A.} -.Z A.).-.3.u.>.+.5.>.5. .#.+.5._ 4  .).f.>.i { Q Q -.J -.Z ~ ~ -.-.^ r 7 2 2 l 5.5.5.A.f.f.A.>.A.,.Y.5.>.>.` -.+.` 5.-.~ g Q M.-.~ A.>._ 5.5.A.-.-.Z { `  .+.3.B -._.{ 5 V ^ i F i < e 5 U 1.>.1.A.f.f.f.f.f.5. .5.M.`  .5.2.-.<.A.-.5 { U +.f.u.-.~ -.A.-.~ 5.+.-.>.>.U Z -.O.Q 1.` k Q ~ -.{ 2 2 e 5 J 5.,.f.A.f.f.u.f.5.~ ~ R >.Y. .U 5.+.-.5.>.>.5.A.>.F Z 3.4.U U F { '.Y.W.+.f U ` -.A.4.P +.g ",
"A.>.5.! 5 >.5.u.A.Z 5 -. .>.>.>.A.7 f { U >.5.U { [.Z U u.+.J ;.-.J -.A.{ 5 2 5 B l x 5 5 7 B 5.5.5.u.A.f.u.A.>._ >.}  .{ A.{ -.5.5.Y.>.>.5.-.4.R  .5.{ x J x ,.W.5.{ l 2.{ v >.} { >.V V 2.{ V B 5 2 e 2 J u.1.5.f.f.f.f.Y.3.-.-.>.>.-.>.;.>.A.-.+.~ k ~ f.+.~ { ! >.W.+.Z 5.;.{ -.` R ).{ ~ u.-.i Z _ i k ~ i 2 e 5 ! 1.>.5.A.f.A.1.A.5. .W.=.5.5.5.5.,.#.-.>.g { -.;.A.f. . .-.-.5.Y.~ g { -.-.V +.5.2.l ` A.>.i 5 { -. .5 2 e 5 ` 5.,.f.A.f.f.f.A.5.J -.{ >.5.<.2.~ l f.A.5.A.5.s _ +.J A.A.{ l V A.W.).U ~ h g +.5.*.>.>.~ ",
"A.>.5.{ ;  ._.>.5.~ V -.5.-.~ A.>.; y ` U >.)._ { +.V -.A.A.x @.5.V -.).-.U +.F i g l g 2 e 5 J f.5.5.f.A.f.A.>.Z 5.U ~ A.A.Y.>. . .f.1.5.>.-.~ ` 5.-.>.~ J U 1.Y.5.-.>.Z >.+.J -.Z V l V { l 3 i V g < 3 2 _ u.1.5.A.f.f.f.,./ Z 5.f.>.@.1.-.A.5.U l V  .A.U l V +.-.W. .+.u.` U ).x U _.Z U A.x U V < 2 k +.-.r 2 3 5 ~ 1.>.5.A.A.f.f.A.f.A.A.f.A.f.-.>.+.>.#.Z -. .-.5.5.{ -.U { W.A.Q i F v -._ ).{ _ -.v >.5.~ 2 x -.f.{ e 2 5 r { 5.>.f.A.f.f.f.A.5.U U Y.Y.2.Z +.-.5.f.>.>.-.P -.n.+.>.-.~ i l >.A.>.i l { v { 5.>.A.A.~ ",
"A.>.>. .U +.).+.5.5.;.-.` ~ n._.-.! F ~ >.{ 3.A.U h T 2.5.Y.~ Z A.U  .2.5.5.5.V r k i x i 2 e 5 F 5.5.5.f.A.f.f.5.` V -.A.f.f.f.Y.>. .-. .-.+.U A.f.V -.u.F ^ 2.A.2.-.5.x ~ -.Z l ; 3.F 9 >.l - J -.~ 9 2 e e -.5.1.u.A.f.f.f.@./ A.=.>.>.>.A.Y.5.{ U >.,.5.i l >.-.=.>.-.' >.-.{ +.Z { ;.Z ~ 5.U U O.5 k U ~ ).U < 2 2 e +.5.>.5.A.A.A.A.A.A.f.A.A.>.-.>.5.-.>.~ -.-. .>.3.+.h ~ >.5.u.U Z ^ k U -.A.>.U f l R 5.J < f >.>.{ { 5 2 e r  .1.>.A.f.f.f.f.A.5.>.5.A.5.~ ~ >.5.5.{ U 4.-./ ,.[.-.f . g 5.A.;.@.l g A._ ;.5.>.~  .~ ",
"f.A.-.} -.3.>.+.).-. .>.2.U +.).;.J 5 Z >.+.5.Z T +. .:.A.Y.-.!  .>.{  .5.5.>.V Q i r l l 5 2 e 7 F f.5.5.A.A.f.Y.~ U >.A.5.Y.A.f.).k J n >.>.A. .-.{ {  .#.5.@.Z >.5.+.r 9 /  .{ g >.Z k -.% 2 {  .>.Q < 2 2 g >.5.5.u.A.f.f.A.>.5.1.R Z -.5.u.>.R -.A.5.i g >.R  .5.+.3.+.-.-.-.h >.5.+.Z V -.5.-.>.~ f ~ +.} { ` 5 2 2 f -.1.>.u.A.A.A.A.f.f.A.u.5.5.f.` ~ 5.>.R -.>. .5.-.Z ~ ).~ 5.5.{ v 9  .W.<.} l F ~ >.5.l < Z 5.>.V 5.+.r 5 5 i -.5.,.f.f.f.f.f.A.A.>.A.-. .+.=.A.+.~ ` +.~ 5.` Z / x Z  .A.-.v -.U Z A.&.A.5.g 5 x >.",
"f.A.,. . .>.5.A.~ ' 3.>.{ 5  .5.` 5 ~ 5.U { +.. Z 1.-. .5.f.>.~ ~ { 5.5.#.-.h U +.~ g i x h 5 5 e 5 { f.5.u.A.f.f.5.U ,.1.5.,.).A.-.x Z { 4.~ Y.`  .5.2.x f +.-.V R 5._ B 5 +.>.-.-.-.J D k r Z Z -.>.2.F < 2 2 V 5.5.5.f.f.f.u.f.5.` { l  .5.5.>.>.u.5.~ Z >.5.-.{ ,.A.~ -.-.i Z U >.5.-.#.U ~ >.3.<.U +.+.i l i 5.J # 2 2 k >.,.>.f.A.f.f.A.u.f.Y.>.5.5._ +.-.-.3.-.<. .-.>.U ` ).-.=.A.g . Z A.5.>.` ` -.{ ;.{ l l -.{ T U { 2.-.< 5 e l >.3.,.f.A.f.f.f.f.,.A.-.>.5.>.>.A.v } 5.u.~ < V -.~ ).U +. .<  .>.` f.A.5.;.x { >.5.",
"A.f.A.-.;.A.A.f.v +.;.G -.-.>.Z Z >.~ -.+.~ +.V -.5. .-. .U A.>.-.Z -.-.U 5.` 5.-.J F 2 9 l f 2 2 5 i -.u.5.f.A.f.u.-.5.>.>.f.W.Y.-.>.5.:.U ! -.' >.5.U J 7 U 5.U V 1.4.U F U  .#.5.:.J 5 ~ { -.{ -.Z >.>.l < 2 2 J 5.1.5.f.f.f.Y.3.' >.Z n.u.5.).A.5.&. .} 5.A.>.>.5. .v Z J ~ -.Z 2.+. .).4.{ ~  .~ +.+.l F { l -.! k 2 e 2 Z 5.>.>.f.A.f.A.f.A.A.5.A.5.5.-.A.{ ` 5. ._ >.A.>.u.5.+.R -.x f { A.>.Z ~ 5.5.>.5.! #.+. .{ +.{ { -.~ ! 5 r 5 x >.,.1.f.f.f.f.f.A.u.-.u.5.-.#.A.~ } >.A.Z @.+.{ ` >.-.v >.{ { A.-.5.u.;.u.! { >.` ",
"A.f.A.A.5.5.5.A.U { U ` _.@. .v 9 >.>.F { 2.+.>.>.` >.>.Z {  .-.).l -.-.V ~ R A.-.+.l i 2 5 x 9 2 5 5 k >.5.5.A.A.u.Y.>.-.A.A.Y.A.5.5.~  .>.>.U ~ =.A.f { >.+.~  .>.>.T -.5.+.! 5. .+.Q < O.~ >.Z Z { >.-.~ 5 < 5 2 _ u.1.5.A.f.A.-.>.A.v ~ 5.5.).>.>.5.-.~ >.M.-.{ -.-.` k x #.W.U { A.J ! ~ } T {  .f.Z 9 4.+.U D F Z 5 2 e 2 Z >.>.1.A.A.A.f.A.f.5.A.A.5.5.-.5 { u.-.{ ~ f.A.W.~ x U 5.+.+.{ { >.{ ` A.A.3.A.k % D U } >.A.5.U J #.2 2 e 7 V ,.1.1.f.f.f.f.u.f.5.5.A.+.-.A.>.-.u.U  .W.-.U J } 5.+.{ A. .+.>.-.5.5.5.n ~ A.U ",
"5.A.f.f.A.5.5.5.V  . .5.).F f v >.5.Z ~ } -.+.>.-.-.{ { ;.)._ Z A.R 5.2.5 < G W.5.U M e e : i x 9 2 e 5 F A.5.5.A.f.u.u.>.A.Y.>.5.A.-.v ;.A.>.{ U #.+.-.{ { { -.U U >.>.-.-.~ ~ -.;.U +._ J Q } k ~ n.5.' F Z i 2 3 5 +.5.5.5.A.A.5.f.u.l Z A.5.A.5.u.;.>.A.>.A.-.Z Z Z +.U Z { u.-.A._.k - F +.` V 5.n.5._ f V ~ g g Z ! 5 2 e 2 J 1.>.5.A.A.f.f.f.A.A.A.Y.A.U J 5.+.Z +.V 5.).5.h  .).+.4.5.P +.U O.>.u.A.5.W.~ B i U +.5.-. .-.! i l F 2 5 5 v >.1.1.A.f.f.f.f.A.u.1.5.-.-.A.-.>._ { ).Z U -.l Q 2.+. .5.5.~ T M.>.U  .` 5.A.",
",.f.A.f.A.A.>.{ ~ >.5.f.A.J f -.).5.V  .-.+.-.-.+.u. .-. .A.5.Z U 4.R.+.< 5 -.W.5.x i , 7 2 B k l 7 2 5 5 ~ 5.5.u.A.f.f.f.5.u.&.5.f.A.2. .5.>.-.U ` ~ v.5.U { >.4 v ).u.A.l V -.&.5.! 5.{ ! l 7 +.Y. .U >.U Q ~ 5 5 2 i >.5.1.u.A.f.f.5.-.{ 5.,.5.W.f.3.n.).5.5.Z J 5 ~ U F  . .-.' ).>.i l Q F -. .5. .{ Z g x ~ g Z +.~ +.f 2 e e { 5.>.5.A.A.f.f.A.A.f.u.u.` >.,.` { v.{ -.{  . .5.A. .U 5.>.~ -.~ >.2.5.>.` -.5.U U +.~ >.-.#.i i _  .Z 2 e 5 l >.1.5.f.A.f.f.u.A.,.A.=.>.A.-.F -.-.5.s  .'.l F >.>.-.} 5. .-.5.A.f f >.A.Y.",
",.1.A.A.f.A.>.-.>.5.A.A.-.U f.+.{ +.U 5.-.U W.-.V 5.A.-.-.n.{ U -.~ 5.` 9 ~ 1.-.v < 5 2 - 5 L 7 l g 2 2 e i >.u.5.f.A.f.f.u.5.A.A.A.1.A.5.~ -.-.x +.>.A.5.2.F { F ~ 5.>.#._ B +.A.-.>.3.B 5 #.V ~ -.` +.5.{ i -.J 2 2 2 l >.1.1.f.A.f.f.Y.5.-.>.-.A.5.Y.A.A.5.{ v >.Z >.{ #.;.~ -.2.>.Z g l F J 3.-.-.5.V l 5.! k V F ~ -.{ -.5 2 5 5 +.5.>.5.A.f.f.f.A.5.,.Y.-.`  .u.@.~ &._.V ~ 5.3.5.>.U 5.u.T +.5.l f ~ -.~  .f.).~ 9 -.>.>.` 9 k J  .-.B 2 e 5 k >.1.1.A.A.f.f.u.u.A.A.A.R >.~ -.-.>.+.>.W.-.{ +._ +.V  .1.u.Y.U l J >.A.5.",
"1.>.u.A.f.A.>.` f.f.).{ ~ 5.A.T v ~ +.{ -.R } -. .5.5.-.5.~ y 2.-.-.Z J >.5.>.{ x J u.! 2 e J Z F h f 2 2 5 { f.5.u.A.A.f.f.A.Y.A.A.-.u.>.@.A.>.U { 4.n.>.} { Z ~ f u.>.~ >.Z ~ >.-.).3. .! F V f -.>.f.Y.O.- ~ ! f 2 2 2 V 5.1.5.f.A.f.A.u.-.>.5.A.A.A.f.A.f.>.5.x x 2.~ ~ >.+.A.A.Q - f ' +.v >.v >.A.Z +.5.+.Q r B -.-.-.A.~ 2 - e j -.1.>.u.A.A.f.u.A.>.A.A.~ U 5.@. .u.`.Z V / 3.-.-.>.5.u.>.Z Q V Z U ' A.5.n._. .9 +.Z -.A.{ ~ _ { -.Z e 2 e e B >.1.5.A.A.f.f.f.A.A.A.-.-.` >.A.@.-.-.>.5.-.{ v >.-.-.+.>.5.g 5.5.>.5.2.",
"1.=.5.f.f.f.u.-.5.5.A.-.5.-.+.` -.+.{ Q -.s P 5.1.f.-.x Z ~ V } ` >.h 9 5.A.>.-._ V -.-.< k Z k ~ U h 9 2 2 r >.5.5.5.A.A.u.f.Y.f.&.f.Y.;.-.2.1.>.x 5.).4._ U x +.U -.5.>.~ l Z >.A.A.5.>. .< x F ~ -.2.5.x 5 B F } l < q , J 5.1.5.A.A.f.A.f.f.5.~ ` A.f.A.A.W.5.U Q J x U ;. .5.5.l 7 v >.A.J @.~ +.).V Q f.{ i 2 7 1. .J 5._ B 5 2 2 l >.1.>.u.A.A.u.f.f.1.5.y l ' >.).).>.v { Z -.-. .u.u.f.A.B i ` ,.>.` @.A.A.,.;.U _ T +.5.<.A.U +.A.~ j e 2 e 5 x >.1.5.A.f.f.f.f.A.A.-.U +. .5.-.` >.` >.-.+.U A.5.<.#.{  . .+.-.{ A.A.",
"+.1.>.5.A.A.f.A.u.f.A.W.>.-.U -.>.V ~ l i R W.>.5.-.`  .F -.-.U { ` { >.>.5.u.2.5 5 V { - { J ; B U f l 5 2 2 Z 5.5.5.5.A.f.u.A.u.5.).A.A.5.l ` ).{ -.` >.X.` { ~ ~ U >.>.{ f Z 3.u.>.,.5.-.~ >.Z . o.>._ k F l 9 2.-.i 2 2 5 +.5.1.5.A.f.u.f.W.A.Z Z ).Y.A.f.A.A.Q i k B -.-.~ -.A.~ J  .-.5.>.&.3.~ A.l y W. .i k Z >.} ! >.U _ D ; e 2 Z 5.,.,.f.A.f.f.f.A.} 5 Z  .u.).A.U _ -.6 x ` ,.A.Y.A.5.V x +.` ` -.n.-.v.5.>.~ k Z F 5.W.W.J { -.{ } f 2 2 e 5 V 3.1.5.A.f.f.f.f.f.,.P R ' f.-.>.).>.@.n :.5.+.u.5.~ ! ~ >.~ { ` v.f.",
"l >.,.5.5.A.f.f.A.,.5.f.>.-.~ 5.4.Z 5.Z x 5.f.5.+.J W.Y.~ { >.~  .{ 5.v.+.5.W.+.< D j k l k Z F ; { { l g 2 2 2 ~ u.1.5.f.A.f.f.A.Y.A.u.W.,.U 2.>.5.~ 6 >.f.5.{ l >.U +. .{ +.2.Z +.+.+.5.~ A.A.} 5 l :.+.F ! U B J A.! 5 2 2 i >.5.1.u.A.f.f.f. .U ' ).A.,.A.W.5.y < J U { -.5.>.{ -.` -.+.U  .A.-.>.>.< l 2.A.-.-.J ! Q ! v.v.J B i - 3 2 U 5.>.,.f.f.f.f.u.>.Z U -.5.).5.U U g x 9  .f.f.).A.&.-.U -.A.'  .5.5.@.>.+.! g F {  .5.A.R 5.{ ~ 5.U u e e e 5 V 2.,.5.A.f.f.f.5.A.{ l &.A.>.u.).u.5.J +.~ ;.>. . .+.~ 3.@.-.>.+.>.",
"7 ~ 5.,.,.u.A.f.A.=.>.f.5.A.-.~  .&. .U -. .-.>.{ _ Y.5.>.-.l #.>.>.-.A._ +.5.J i J F ~ _ 2 k J { -.! Z l f < 5 e -.5.5.5.A.A.f.A.A.f.A.Y.Y.-.` -.-.>.{ } :.+.{ ` ).{ Z -.-.x -.{ >.Z _ +.d A.Y.>.5 g {  .3.{ F +.U ~ #.v 2 2 2 l 5.1.1.f.A.f.1.R >.A.A.5.,.Y.).>.k x ~ { { 5.A.A.+.T +.` -.+.>.-. .>.{ V -.-.-.+.>.h f U ~ A.~ l -.Q r 2 3 5 Q 5.>.,.f.f.f.f.f.1.-.-.W.A.>. .+.V h Y -.{ >.5.-.-.).-.Z -.Y.-.-.-.U >.~ V i l u.>.-.u. .A.A.x ! { U k 2 2 5 7 V >.,.5.A.f.f.f.W.>.f >.f.5.,.5.A.1.-.,.{ 3.U } { >.4.5.` Z 5.A.5.",
"5 f >.,.>.,.A.f.f.5.-.Y.Y.Y.-.5 J 5.u.>.5.+.~ Z 5.-.f.,.5.-.F 5.{ i J >.` 5.U ! 2.Z -.f._ J - -.A.+.g { v l 5 2 2 k 5.5.5.u.A.A.f.A.Y.Y.A.1.` { 5.` >.f.{ v { -.-.5.-.s -.{ k +.Y.U * { T Z Y.A.T f A.+.Z +.5.g x :.l V ~ x 2 2 ; Z 5.1.5.f.A.5.>.).f.>.5.W.A.Y.} V F Z ~ 5.A. .).>.J U #.~ ).>. .-.~ { 5.3.5.U 7 y ~ +.{ ~ 2.-.~ ~ >.B 2 5 e 5 ~ 5.>.1.f.f.f.f.A.5.` >.>.u.1.f.} Z 5.5.` +.5.~ 5.).>.9 U A.` >.>.y -. .F 5 ~ >.u.5.>.-.A.4.Z { 5 J { Z f 2 e 7 Z ,.1.5.A.f.u.f.5.` ` 5.f.~  .A.>.u.A.f.>.F { +.-.~ >.5.+.-.5.@.",
"e 2 Z 5.>.,.5.A.f.A.5.A.W.A.f.{ Z +.>.A.4. .>.#.{ Z u.{ >.5.} R Z 5 U -.A.A.J Z A.2. .>.4.~ l Q >.-.{ V Q x l 2 2 2 ~ f.1.5.u.A.f.f.A.5.>.` >.5.A.} R ).-.~ ` -.h ` A.{ 2.k Z ;.f.~ < -.>.-.5.-.Z { ,.>.#.l -.+.-.+.B Z O.k i < 2 2 U u.,.5.A.A.A.f.A.>.u.W.).5.-.~ { -.{ ` >.:.>.5.#.Z U Z A.>.-.-.-. .>.+.~ } 5 #.A.>.Z { 2.5.-.U J V i 2 5 e e { 5.>.1.A.f.f.f.A.=. .u.W.1.5.P U A.{ ` f.-.+.Y.>.-.F l :.+. .` h -.+.* U A.>.>.5.A.5.U U A.1.~ { ~ V ! i 2 e 5 Z 5.,.5.A.f.f.f.f.{ #.3.-. .Y.A.5.>.f.A.J ~ +.-.U -.,.5.). .-.",
"2 e 7 ~ 5.,.,.u.A.f.f.Y.A.A.W.A.F i Z u.>.{ A.5.h B  .@.A.A.< x -.x >.1.-.>. .~ #.` -.-.-.-.{ 5 Q A.! x B k x g 2 2 2 ~ u.5.5.f.A.f.A.,.X.>.W.-.P 5.>.).~ U ~ x s A.A.2.{ h { 5.).k x A. .).{ - Z >.>.T { -.5.5.{ -.>.U F e i i 2 2 2 _ u.1.5.A.f.A.f.u.5.A.).A.-.+.{ -.-.} { :.>.).Z  ._ J f.>.>.~ >.+.~ 5.{ -.{ V 5.R. .Z _ >.;.2.F B V B e 2 e r { 5.,.1.A.f.f.f.A.>.u.A.5.-._  .f.#. .A.-.+.5.>.-.v < -.>.P A.O.#.} l 5.A.>.5.>.-._ g U Y.>.>.J Z { +.D 2 2 e 7 V >.1.5.A.f.u.A.>.T >.5.>. .u.,.1.,.).~ ~  .>.5.#.A. .-.{ >.",
"5 2 2 5 +.1.>.5.f.f.f.A.A.A.Y.5.U -.Z T 5.>.>.-.-.-.U A.{ Q % +.-. ._ ! -.5.).F Z >.-.` ` +. .>. .+.f B B < 5 x i 2 2 7 +.u.5.5.f.A.f.f.A.5.5.U _ >.f.>.>.{ U s -.A.A.5.{ -.U 5.-.i V 5.{ Y. ._ ~ ~  .-.{ :.-.).{ U -.2.j D i B 5 2 2 5 +.5.5.5.A.f.f.A.A.W.W.f.} >.+.' -.-. .>.:.A.` ~ ~ V -.5.-.R >.{ f f.5.>.v.U 5._.U Z +.}  .-.~ J J ! k 5 2 e e U >.,.5.A.f.f.f.A.u.5.5.` ` -.=.f.f.>. .5.,.Y.V B Z { A.5.4.Z V B #. .+.A.).~ 4 U 5.{ u.A.} ! >.>.n.Z 5 5 2 e 7 V 1.,.5.A.f.u.Y.-.;.2.Z _  .5.u.f._.5. .5.5.-.5.).#.< -.` ",
"g 2 5 7 x ,.>.,.5.f.f.f.A.Y.W. .v `.>.U l Z U  .5.>.~  .U U x A.+.#._ U 5.>.-.{ { -.! v 5.>.U ;.A._ - i J i B J g 9 2 2 i >.u.5.u.A.f.f.f.A.{ Z 5.>.1.,._.Z ~ 5.>.>.A. .>.>.v +.` -.v ~ #.A.5.>.-.~ V >.{ ~ 5.5. .{ { 5.7 k 2 2 i 5 2 2 r -.5.1.u.A.f.f.f.Y.1.>.>.5.-.{ -.-.-.5.-.~ >. .>.k _ -. . .-.+. .>.5.5.5.>.-.5.-._ +.Q ` +.{ 2.x l Q i 2 2 e 5 } 5.>.5.f.f.f.f.A.5.-.~ >. . .Y.Y.Z A.-.5.{ 5 j f ` _.5.~ g U B -.>.-.A.n.l { +.;.>.5.M.:.U +.2.>.{ 7 i 5 2 e 7 F 5.1.f.f.f.f.5.A.Q.Z { { { A.Y.A.5.A.>.>. .Y.1.T 9 x ~ ",
"F i 2 5 7 U 5.>.>.u.f.f.f.A.Y.~ ` A.W.+.5 i ~ A.A.Z ~ / ` >.3. .Z -.). .+.O.g 5.>. .~ V { 5.5.U -. .i V -.F F B g l 2 2 2 V 5.1.5.u.A.f.f.Y.`  .u.f. . .Y.~  .). .~ A.R -.n.-.` { v { 5.>.5.2.U >.-.F ' ~ Z 5.5.>.5.5.{ < 2 i l O.k 2 2 2 j >.5.1.f.A.f.f.f.,.f.5.A.5.} #.<.-.5.{ U -.5.#.Z _ { ` ~ 5.W.>.`  .>.5.-.` m f. .~ +.Z ~ -.+.B Z Q k a 2 5 e i -.,.>.u.A.f.f.f.W.@.{ A.>.-.5.>.-.>.v 5. .~ U x -.A.2.g g f.-.~  .3.-.+.{ Z 5.2.~ -.f.:.U -.J  .~ Z #.Z < 2 e 7 U 5.,.f.A.f.f.A.A. .x Z Z A.5.A.Y.A.-.>.>.W.{ l ,.{ Z ",
"_ f 5 2 e e { 5.>.5.f.f.f.f.f. .5.u.A.5.Z ~ } >.5.+.~ -.+.{ A.#.v 5.1.~ +.J V -.5.f.U B U ,.5.{ +.~ ! -.~ k +.i Z l g 2 2 < _ f.5.5.f.A.f.f.f.-.+.5.-.=.).5.Z 5.-.U 5.-.` -.A.x h { ).5.#.-.5.>.>.-.-.>.Z V +.+.+.~ 5.-.! i 5 { { i f < 2 2 l >.5.1.f.A.f.u.A.Y.u.A.A.>.+.>. .+.-.+._ -.-.-.h 2.-.{ 3.u.-.5. .>.F U ` R ).>.-.J v { >.^ l { { V k i 2 3 5 B >.,.>.f.A.f.f.f.A.>.u.Y.A.-._ -.>.+.{ -.W.U } M.A. .h >.5.-.{ { n. .{ ~ v >.).-.l R A.+.-.U _ k { +.{ U < 2 e 5 ~ 5.,.f.f.f.f.f.A.` i Z -.-.A.W.A.5.5.` A.+.x -.Y. .",
"_ x f 2 2 5 e ~ 1.1.5.f.A.,.5.1.5.5.3.5. .5.#.~ U  .~ 5.+.f 5.5.+.{ 2.+.+.U  .5.-.+.:.+.+.W.-. .>.U +.~ J k f F B f v i 2 2 i -.u.1.5.f.A.f.f.5.{ ` v ` W.).x { -.U >.5.5.>.A.J { >.3.A.~ ~ A.A.5.{ l ~ +.-.~ ~ ! U >.5.>.+.B U #.V e i - 2 2 V 5.1.1.f.f.f.f.A.A.A.W.A.5.A.5.i ~ -.{ :.#.-.-.{ -.-.Z ~ -.-.~ 2.l J >.-.A.>.-. . .2.>.5.^ Z -.F i V i 2 e 3 Z 1.>.,.f.f.f.f.f.=.f.W.f.>.-. .5.;.~ R 5.5.5.Z f.Y.` x  .>.-.:.`.U i J >.>.@.T 2.U 5.>.@.+.i 5 Z { ` -.! 2 2 e e } 5.,.f.f.f.f.f.A.~ U ~ ~ 5.Y.).W.>. .>.n.>.U -.!.",
"J Q i i 2 5 5 5 +.5.1.u.A.f.A.5.>.&.u.5.f.5.Z ! Z >.A.5.~  .5.5.:.>.Z U 5.2.-.).! Q 5.~ f >.-.{ ;. .+.U F f i O.F Z x l 5 2 2 i >.5.5.u.A.f.u.A.>.Z U 5.W.U v A.>. .+.5.;.5.f.-.>.-.Z -.} >.>.1.+.9 9 { f.>.>. .U {  .5.3.~ -.J i i u V i - e 2 U u.,.5.A.f.f.f.A.Y.f.A.A.Y.>.l V { -.>.2.} F x 2.V +.-.U >.3.{ +.F V >.A.-.~ >.v >.f.f.-.-.>.V i l i 5 2 e 2 U 5.>.5.A.A.f.f.A.&.u.5.1.1.5.5.2.+.{ >.U ~ l ;.A.>.~ +.~ _ 5.Y.{ V } f.>.~ v A.-.+.>.~ s 9 F Z T >.-.Y.{ < 2 e r  .5.>.f.f.f.f.A.f.-.U -.@.5.Y.Y.,.5.3.>.u.A.Z ;.",
"5 ! i k 5 2 e 5 l ,.,.1.A.A.f.f.>. .A.A.5.-.Z >.v 5.{ h R 5.<.A.F l +.+.1.+.-.-.V 5  .>.i ! A.U { >.` -.U x 5.F F >.k l l 7 2 2 M 5.5.5.5.A.f.f.f.-.{ 5.). .5.W.>.-.-.{ -.>.5.>.A.+.J -.>.>.-.-.~ Z 5. .{ 5.>.-.~ f { #.+. .-.~ Z 2 V +.Z 5 2 2 5 O.5.1.5.A.A.f.f.f.1.A.W.W.-.U U >. .! ;. .i _ 5.f >.W.>.u.>.i f { >.+.5.A.-.Q 5  .1.>.u.u.-.} k D r 2 3 2 5 5 _ 5.>.1.A.A.A.A.5.A.f.u.A.A.A.` #.{ #.f Z #.>.5.-.A. ._ Z 5.-.v.i ` u. .+.+. .5.5. .Z Z _ J V V -.f.5.u.~ < 2 w i  .1.,.f.f.f.f.f.5.-.5.>.>.-.A.A.>.A.5.>.>.J -.",
"g i ~ i f < 2 5 5 U 1.1.5.A.A.5.5.5.,.).A.9 ~ 2.-.5.Z ~ { 5.>.{ x 9 u.A.1.' 5.~ J U -.A.-. .5.V -.5.Z  .A.Z Z 4 P >.4 e l g 2 2 2 J A.1.5.u.A.f.u.A.5.5.1.Y.5.-.-.J +.U ` A.5.>.+. ._ ` -.5.1.+.Z ,.).>.f Z l  .-.U -.g { A.5.~ i 5 k } +.l 5 2 2 i :.5.1.u.A.f.A.5.>.).Y.A.-.T v n.2.x :.+.f { >.-.+.>.5._.^ . i 5.A.-.5.f.-.~ +.} ~ ~ >.5.:.{ +.i - i B 7 2 e 5  .5.>.5.A.A.f.f.A.A.Y.Y.).u.-.R U U J  ._.>.f U } { 5.U A.-.U F :.-.{ U } z 5.5.-.J k U J Q B ~ A.-.&.)._ - 2 2 f >.,.1.A.f.f.f.f.Y.5.~ ` >.5.5.>.Y.;.` { 5.@.",
"J k { B k f < 5 e e +.5.,.5.Y.>.>.A.1.).+.f >.+.-.+.v A.>.;. .Z T } A. .-.A.-.V ~ >.+._ Z  .A.`  .>.U >.{ ~ { J v R V x V v f < 3 2 ~ f.5.5.f.A.f.u.A.Y.f.A.-. .~ ~ +. .+.A.W. .{ 5.F l _ 5.5.-. .Y.>.U l +.Z J } #.{ ~ 4.>.A.~ D 5 { U V ! l < 2 2 k >.5.5.f.A.f.f.A.A.Y.-.&.>. .).>.Z -.~ Q v -.-. .>.5.A.Z i k -.-.=.5.A.>.{ +.>.+.{ U ` { >.U k < -.J k e 2 5 i  .1.,.5.A.f.f.f.A.W.).A.;.U ~ -.v >.5. .-.m 5.V { -.J +.Y.-.U ` f. .Z x V 5.5. .Z l ;.Z { +.Z U  .5.u.5.Z - 3 5 Z >.,.5.A.f.f.f.f.A.{ { 5.`  .f.f.{ R -.W.~ ",
"} F U ! ^ x 9 2 e 2 l >.,.1.A.f.5.f.&.f.-.` ` f.~ -.x +.-.-.` i 2.5.>.-.>.5.J k 5.@.>.+.r 5.{ ' 5.5.~ ~ U 5.5.~ f V Q ~ -.g x 5 < 2 2 ! f.5.5.f.f.f.f.A.u.f.A.f.x U ).>.>.>.>.=.A.u.x . ! M.+.~ 5.f.x 9 v =.5.U V A.5.~ ` ~ U #.k 2 } _ - ~ -.i < 2 2 J f.1.5.A.A.A.f.u.A.>.u.5.5.).A.9 Z >.Z x >.-.>.>.>.U A.>.V U 5.-.{ A.>.v -.5.x ~ T U Z ~ 5.J l +.i B B e 2 5 r +.5.>.5.A.f.f.f.Y.X.>.-.Z @. .+.>. . .5. .A.~ -.J U { 5.5.{ J 5.} A.+.Z +.-.-._ J { -.>.{ < F 1.>.W.5.>.D - 5 7 D 4.,.1.A.f.f.f.f.A.-.{ ~ x f.>.>.,.,.u. .",
"5.4.F U ~ f k 2 2 e 7 ~ 1.,.5.A.f.u.f.Y.>.U R A.>.V ! >.Z } ! ~ 2.v -.Y.5. .x x A.-.+.J 5 v  .A.).-.l x 5.5.>.f Z f Z } } Z g l 2 1 2 2 Q u.5.u.A.f.f.A.A.W.A.u.~ >.{ v -.-.-.-.` >.>.U U >.v.>. .B V U ~ 5.A.+.~ A.A.{ Z O.i { 5 { -.U e { -.Z i < 3 5 +.u.1.5.A.f.f.5.A.W.Y.f.A.).A.g Z { +.>.#.+.~ ~ 5.U 5.>.+.U  .A.-._ +.9 ~ A.{ U U ` ! +.5._ +.l V J B L < q 5 i -.1.>.u.A.f.f.f.5.5.,. .` W.A.` R 5.5.5.>.{ -.<.+.~ -.>.} Z -. .W.>.*.;. .5.Z g 2.{ >.>.B k >.>.A.A.-.-.Z < e 5 Z 5.,.1.A.f.f.f.f.A.U U g >.5.A.5.=.A.A.",
"-.+.J 5 F ~ Z i 2 7 7 r -.5.,.5.f.f.f.A.5.R { ).).Z { A.~ Z  .>.5.~ { 5.<.-.! l n.~ Z ;.f ~ u.5.`.+.; ~ 5.+.T { F { M.v V ! g l k < 2 2 5 >.u.5.u.A.f.f.u.Y.f.>.-.5.+.v  .5.5.f F A.A.5.-.>.5. .i < v 5.+.`  .W. .>.A.@.>.~ - _ k _ -.+.J j Q ~ { < 2 2 e -.5.1.5.A.f.A.A.f.Y.).Y.1.Z P 5.Z +.A.-.} / +.).-.{ 5.n. .-.Y.B - F ' +.5.>.;.-.U 5.5.>.5.J g U :.k e k 2 e 5 x >.,.,.5.A.f.f.A.>.5.>.>.Y.Y.A.>.>.>.-.-.-. .5.+.Z ~ :.5.J { u.>.>.,.Y.' { +.Z R A.-.-.@.V V { >.5. .>.A.V 2 e 2 F 5.,.5.f.f.f.f.f.A.+.5 ! 5.u.5.5.).).",
"3.U F Z Q -._ v 5 2 5 2 k >.5.>.u.A.f.f.A.1.5.A.-. .>.~ l -.R ' W.)._ 7 } 1.Z 5 ;.{ ~ '.U { A.} -.5.l ` <.{ U  .-.>.+.A._ 5 F l l i ; 2 2 J A.5.5.f.f.f.f.Y.5.&.5.u.Y.+.Z  .5.v +.W.5.2.~ -.Z h ~ U { >. .~ { } R 5.5.-. .{ i #.i D +.i i f V -.2.F 2 2 2 k >.5.1.u.A.A.f.-.A.5.>. .U >.A.-.V ~ 5.-.&. .>.>.-.>.>. .;.>.k - Z 5.>.>.>.A._ h 5.-. .A.k ! -.J l 5 B B < e 7 V >.,.,.u.A.f.f.A.f.A.+.>.W.).1. . .>.>.-.-.5.-.5 { 5.A.U l Y.~ >.>.Y.>.x { -.-.R.>.>.-.~ x g Z 2.4.4.A.-.i 2 e 5 U 5.,.1.A.f.f.f.A.5.f ~ >.u.5.A.).).",
"u.l . ~ Z Z -.V l 5 2 e 5 x >.1.>.f.f.f.f.u.u.5. . .>.g i U -.u.Y.1.R 9 U -.Z Z >.5.U >.{  .5.-.J U ~  .A.! V -.U >.>.!.{ l ~ l k x 5 2 5 2 Q u.5.u.f.A.f.A.A.A.5.A.A.+.U >.5.>.>.A.>.-.Z l f -. .>.` ~ :.4.~ k ` A. .>.-.J 5 #.~ V F - J ! { } ~ -.x 7 2 2 V 5.,.5.f.A.f.f.u.A.-.+.A.u.5.5.J Z >.-.A.-._ >.~ +.+.v #. .+.i U -.>.~ >.A.Q { 5.>.>.-.` _ 5.+.~ f 2 J B - e 2 J 5.>.,.f.A.f.f.f.A. .>.W.5.>.-.{ 3.,.>.5.5.5.@.-.+.V F #.5.+.5.+.>.).U ` ).{  .5.-.+.v -.>.k V >.>.A.~ J F < e 5 ~ 5.>.5.A.f.f.f.A.n.T ` ).>.>.=.W.",
"+.V - Z x {  .! l y 2 2 e 2 F 1.>.5.f.f.f.f.>.' ~ R f.Z i V 2.W.-.>.A.-.v +.Z 4.5.+.` >.:.v U >.Z x  .>.).^ 5 ~ -.-.u.5.+.~ Z r u x l 5 2 3 2 { f.5.5.A.f.f.f.u.5.A.A.g 2.Y.Y -.3.Y.-.{ k i J >.u.{ ~ A.5.=.{ f 5.A.:.-.{ B x >.>._ ! i B J -.U +.k 5 i < 2 2 Q u.1.5.f.A.f.f.f.A.5.5.;.u.-.~ Z _ f.W.{ ~ 5.-.` Z x ,.3.>.~ Z u.>.} -.5.5.{  .-.5.>.3.5.>.-.` l M Z +.f 2 e 5 ~ 5.>.>.f.f.f.f.A.5.A.5.;.>.>.-.&.A.5.5. .>.n.-.f ~ -.5.{  .5.U  .5.#.-.A.+.U -.>.-.Z A.A.+.k `  .f.2.Z +.2 2 e 5 ~ 5.,.5.A.f.f.f.A.>.-.R.5.{ ~ 5.",
"{ Q k < Z { -.} Z l i < 5 e 5  .5.,.u.A.f.A.=.`  .-.f.` } R 5.).~  .A.A.V x  .5.-.~ 2.-.! 9 J 5.-.>.,.).f.;.+.V g } ).5.-.~ U 5 2 y x f < 2 2 i >.u.5.u.A.f.u.>.f.A.A.` :.>.` -.+.5.W.>.5 V ).+.A.5.{ -. .A.F 5 :.'.+.{ U ~ >.{ R A._ @ l  .-.^ i - - k i 2 5 5  .u.1.5.A.A.f.f.A.Y.@.-.A.1._ { -.A.>.~ 5.>.-.{ 5 J 2.{ >.} Z 5.-.5.>.{ ~ -.-.>.>.5.5.A. .U -.U +.k F { 5 2 e 5 _ 5.>.,.f.f.f.f.A.A.-.5.>.-.,.f.u.5.5.5.:.U U ~ :.u. .-.` >. .{ >.>.5.5.A.{ ~ -.A.,.-.5.5.~ x +.-.O.g _ i i 2 e 5 Q 5.>.5.A.f.f.f.Y.>.>.5.>.>.n.",
"A.F M i V {  .2.#.Z l 7 2 5 7 l >.,.5.A.f.f.u.u.{ +.A.` -./ -.).5.>.V ;.>.-. .-.5.5.T Z Z Z Z 5. .>.Y.W. .Y.+.9 Z ~ @.5.5.l g k 7 3 5 l y < 2 2 l 5.5.5.f.A.f.A.A.f.u.` ` 5. .>.5.f.>.5.#.{ { +.-.>.).{ ~ ~ V x 5. .J v -.J V  .-.5.+.f _ -.5.! < a 5 V _ 5 2 2 i >.1.1.5.A.A.f.f.f.5.>.A.A.U } +.U >.5.A.5.-.V ~ -.Z -.>.-.{ +.U -.5.Z } A.>.>.5.-.-.Y.{ 9 5.5._ Q F k V 2 2 e e { 5.>.5.f.A.A.f.A.,.>.>.>.u.Y.5.A.5.5.~ J  .Z U A.>.>.{ >.2.' A.>. .).5. .U ` -.;.+.2.>.5.{ { { 7 f -.J ~ 9 2 e 5 U 5.,.5.A.f.f.f.A.A.5.4.5.~ ",
"} U ~ O.k B ~ -.-.~ j f 2 2 2 k 5.>.,.5.f.f.f.W.~ +.A.~ -.-.-.).W.W.{ v >.5.U x >.5.{ 7 U T +.>.x 5._.5.-.Y.U i x  .-.5.3. .J J i - l Z h 9 1 2 2 F 5.5.u.A.A.f.f.f.&.-.>.u.-.,.A.f.-.{ W.5.i l v >.A.Z v { Z U >.v Z Z T v v ~ 5.A.5.>.>.J 5.{ e i k r l V 5 2 - J f.1.1.5.A.A.f.f.W.>. .{ l ~ s h &.Y.u.@.5.f :.-.V Y.A.5. .U { Z v.F { A.-.{ >.>.{ ;.>.J -.u.~ ! -.B 5 i 2 2 0 e { 5.,.1.A.A.f.f.u.>.5.5.f.5.W.A.~  .-.v  .-.>.>.+.-.-.-.>.>.A. .U u.u. .v +.>.-.{ 5.R 5.>.~ V g l +.+.F ! k 2 e 5 J 3.,.5.f.f.f.f.A.u.5.U ~ ",
"y  .-. .J 5 U >.>.Q i l 5 2 3 i ~ >.,.,.u.A.f.A.1.>.>.` ~ A.-.f.).5./ ` { n.J Z -.:.~ V { { +.-.U 3.W.A.-.A. .l V -.u.5.>.>.5.J 4 . V -.x l 7 - 3 2 ` u.>.5.A.A.f.A.5.+.+.,.f.` >.A.5.>.).A.k < { 5.Y.9 J A.-.J T A.V } V +.>.J A.-.:. . .Z -.` U k i 2 e e i 2 2 5 +.5.5.5.u.A.f.f.Y. .` ~ 9 U ` P -.A.>.R Y.5.+._ { 5.-.-.5.-.M.k +.U _  .h #. .>.Z U W.U ~ 5.` O.U ! - 2 e 2 2 e e U >.>.5.A.f.f.f.A.u.5.-.>.). .R >.5.-.-.A.A.~ f  .Z -.5.5.-._ +.5.>.U -.A.{ 5.-.-.V  .>.3.{ 5 5 U 2.~ { ~ 2 2 e 5 { 5.>.5.A.f.f.f.f.A.+.~ ",
">.2.v -.2._ ~ -.>.Z 2 U l 7 2 e 2 F 5.>.,.f.f.f.f.5.>.{ +. .>.A.Y.f.-.5.5.>.+._ l J '  .-.v +.5.A. .3.;.-.5.-.U U -.-...f.{ Q V i @ 2 A.~ g g 2 2 2 Z A.=.5.u.A.f.f.A.-.U >.u.R A.>.5.A.u.5.J ! -.~ >.v  .A. .! U -.V #.+.2.#.+.>.-._ ~ -.@.+.` +.k e M k l i V 7 2 l 5.1.1.5.f.A.f.f.f.A. .V { ~ v 5.>.-.u.).A.Y.V i v.-.` -.).U < { { }  .~ +.{ 2.~ -.A.~ +.2.>.-.V ~ Q 2 e j - 7 e 7 ~ 1.>.5.A.f.A.,.u.A.` A.5.-.5.>.A.5.>.+.5.+.5 -.{ >.A.A.-.T -.>.5.5.>.B U >.>.+.k >.4.-.+.! < 9 2.~ l / +.5 2 e i -.5.>.5.A.f.f.f.f.W.-.",
"~ -.~ { >.>.U x +.l x +.F i 2 7 5 5 Q 1.1.1.f.A.f.A.-.~ { +.f.W.Y.5.A.>.>.-.+.x ^ +.-.Z >.~ v -.-.5.A.Z >.).{ l  .2.l :.R.#.B k V # l 5.{ U l i < 2 5 +.f.5.5.u.f.f.f.-. .>.,.>.).+.,.-.A.A.A.Z 3._ g v.-.>.>.-.+.2.Q v  .A.+.V ! A.A.J V { i 5 -.>.^ Q 5 f k J i 5 2 { 5.>.5.5.f.A.A.f.A.-.h x v -.>.-.>.A.).A.A.J ~ }  .>.U 5.U V { +.U 2.5.>.-.>.x _ A.-.{ ~ ~ -.} { x i 2 k U 2 5 2 l >.>.>.u.f.f.u.f.A.M.A.f.A.A.A.M.>.>.` >.+.Z +.-.-.5.5. .>.+.U A.A.5.r F Z } `  .A.T +._ +.Q 5 #.{ T -.A.{ < 5 e k -.5.,.5.A.f.f.f.f.W.",
"` J ~ V A.{ _ l >.-.! F ~ l 5 2 5 e 7 U 5.,.5.A.f.A.>.{ ~ -.Y.Y.A.u.-.~ >.>.5.U ~ 5.~ J +.5.>.J { A.f.+.-.-.5 < 5.-.{ J -.>.i - k 2 { >.l +.J g 5 2 2 i >.5.5.5.f.A.f.>.A.{ +.u.5.{ 5.5.Y.5.A.~ ~ f ! A.-.-.>.>.~ ' Z v >.Y.u.{ i >.>.5 O x { ! 1.>.+.g < 2 2 r l 9 2 r -.u.5.5.5.A.A.f.f.u.{ v +.-.` -.5.Y.).Y.5.Y 5.>.~  .+.Z >.V +.>.{ -.,.W.u.u.F i -.U -.{ f +.-.~ -.J j k ! B - 5 5 Z >.>.>.f.A.f.A.A.A.A.A.f.A.A.-. .>.>.n.{ U >. .+.5.<.+.V U ` W.f.>.5 U i ~ ` 5.A. .~ Q 5 { { Z 5.-.{ +.#.i 5 0 5 l >.1.>.u.A.f.f.f.A.",
"{ ~ g { u.5.~ l { +.:.J M j f 5 2 0 e r +.1.,.f.A.f.A.;.Z  .Y.).A.>.-.5.#.-.W._ J U +.n.A.U Z 2.-.-.A.+.>.Q 2 Z  .G *.~ ~ >.5 i _ Q +.>.5 f B l l 2 2 2 Z f.5.5.5.A.A.f.A. . .,.5.f.A.A.A.5.A.l / ;.@.5.-.J +.A.U J +.>.Y.5.>.-.5 -.u.V   V f.5.>.>.{ k i 5 2 l Z F r 2 e _ 5.5.5.5.A.A.5.f.A. .-.~ Z ;.5.A.W.u.Y.5.M.{ Z  .} Z -._ >.>.>.~ T u.5.A.-.f l < ~ +.U 5.{ +.).x l { U ! k 2 e 2 U 5.>.,.f.f.f.f.f.A.f.A.A.5.3.,.f.@.{ 5.-.~ -.-. .1.>.F U 5.>.-.5.U -.Z f { A.>.-.f f ~ -.A.F F ~ ~ 5.#.l F 2 e 5 l >.1.,.f.A.f.f.f.",
"{ ~ v -.u.A. .~ -.-.A.^ l r i l 2 2 e 2 f >.,.5.A.f.f.A.}  .).W.W.>.5.5. .5.-.+.! k -.>.A._ { A.5.9 U >.+.l k :.} -.>.+.5.>.+.U F L Z +.5 - D U l l 2 2 2 { u.5.5.u.A.A.f.1.5.{ +.u.A.Y.A.-.5. .>.+. .>. .U -.A.4.-.~ 5. .>.+.} ;  .W.J l { -.>.-.Z 5 r v _ - F i V J 2 2 e >.5.1.5.5.A.A.A.f.5.5.J l ;.5.A.).u.f.A.-.l +.A.-.~ -.5.-.! +.>.g >.).-.{ ~ V i i R A.Y.~ { 2.k F >.{ Q ^ i 2 5 5 Q ,.>.,.f.f.f.f.A.u.f.u.A.-.A.1.Z  .-.>. .-.2.-.5.-._ h ).>.` ).3.k < Z ).A.>.T Z { ~ >.4.i 5 -.2.-.F J #.B 7 5 5 B >.1.,.f.A.f.f.",
"` { F { >.5.R.>.>.5.A.{ i j 2 j 9 < 2 e e J 5.,.5.A.f.A.5.-.W.A.u.f.>.4.5.3.-.>.-.5 ! W.A.M.Z Z ~ f { +.+.;.5.{ { >.-.@.>.>.-.-.5 . { { B V F ~ Z l f 2 2 5 -.u.5.5.f.A.f.A.A.-.+.>.A.W.>.5.5.u.A.V } -.V >.,.5.-.>.} +.Z ` R -.5 >.,.R W.:.k +.< % < 9 s 4.~ i e l } v 5 2 U 5.1.5.5.u.A.A.f.f.A.~ F >.>.A.Y.Y.f.A.~ { 2.5.5.R 5.>.U ! ~ _ y u.5.l ~  .5.{ v _ 2.W.-.U _ j x +.+.k F F - 2 e 2 Q 5.>.,.A.f.A.f.f.u.Y.A.>.A.>.@.-.-.-.2.-.>.`  .5.#._ A.1.+.5.{ < 3 -.A.>. . . .>. .>.~ ! ~ -.>.+.~ { -.x k 5 5 5 V >.1.1.f.A.f.",
"` ~ < { >.5.-.>.>. .u.+.i 5 2 M k 5 2 5 e e  .5.1.u.A.f.f.5.A.f.A.).-.>.5.>. .>.l v >.,.,.~ s < F @.u.l ;.5.A.{  .Q Z  .U Y...-.F F i Q ~ +.V L l V h 5 2 2 j 5.5.5.u.f.A.f.f.5.>.5.A.5.>.5.>.>.5.{ -.{ l 5.A.>.+.-.~ i _ { U 5.} 5.>.-.5.J l J k < k +.Z >.'.~ k k 5 k g < 2 ~ u.1.5.5.f.A.f.f.A.5.-.5.>.5.>.A.).f.{ { 5.-.U  .Y. .U ~ Z  ._ >.A.Q ! >.u. .-.-.T 5.).! 7 J J U 2.2 Q J F < 2 e 5 _ 1.>.5.A.f.f.f.A.A.f.u.Y.f.2.-.R.U J f.+.{ -.A.5.n.5.-.U _  .x Z -.5.>.x { A.A.>.5._ ~ #.~  .-.5.A.{ U D D 5 5 7 V 5.1.1.f.f.",
"{ ~ - ~ A.R U >.5.-.~ v.x Z 5 j i f 2 2 3 2 l >.,.5.f.f.5.A.A.W.>.A.>.>.W.V Z  .V >.5.-.~ ~ >.f +.5.f.~ ~ / X.).{ f U A.~ 5.,.>.+.-.k u V _ +.x B { x h 7 2 2 J f.1.5.u.A.A.f.u.5.1.>.f.5.>.,.5.A.{ } 5.+.5.>.{ v.{ _ - J -.` 5.-.5.5.-.-.~ V j x i i { A.-.).~ 2 i 2 < U g < 5 -.u.1.5.5.f.A.A.f.A.5.+.>.5.>.5.).f.M.{ U Z :.>.5.Z Z 5.>.5.#.` 5.>.U U 3.-.5.5.-.~ A.` Z ! { x U } B l B i 2 5 5 5 { 1.>.u.A.f.f.f.A.u.f.Y.A.f.5.+.5 { 5.-.+.v 5.A.W.>.h J  .5.-.-.~ ` >.} } A.A.5.A.Z X i U U >.5.A.>.Z _ e 5 2 e 5 V >.1.1.f.",
"-.V 5 { -.y } A.A.1.f.5.+.x 5 i V k i 2 2 e 2 U 5.>.5.A.f.A.f.A.;.A.>.A.-.& ; 2.A.-.>.f.l ~ M.F -.5.Y.v l 5.-.A.{ +.>.~ U >.f.>. .-.-.U k e k -.-.i l x g < 2 2 { f.5.5.u.A.A.f.A.>.-.A.A.A.;.5.5.>.A.>. .>.Z >.U U 3.F Z 4.+.>. .2.4. .+.{ V f ^ i i V ' 5.-.{ i k e B l ! i 2 g ,.5.5.5.5.A.A.f.f.f.>.5.u.A.>.A.A.A.-.< ! `. .~ v ~ n.>.5.A.-.~ 5.v Z _. .+. .A. .U -.#.y >.n.{ -.k 2 V { l 2 7 5 i -.,.,.5.A.f.f.f.A.A.f.A.A.Y.U U 5.>.l +.J { ).f.~ l ).5. .f.>.J +.J  .,.u.A.5.).+.Z f Z } 5.>.-.>.>.x e i 5 5 e 2 B >.1.1.",
"5.B Z >.` U U -.-. .>.5.>.U B j J g f 5 2 5 5 i -.,.,.f.A.A.u.>.-.5.>.5.5 < _ -.>.&.1.5.~  .5.-.3.U -.~ { 5.5.3.A.>.{ 5 { u.>.>.A.{ ~ -.~ V Z -.~ , e Z l i - 2 5 -.f.5.5.f.A.f.f.>.>.u.A.A.f.>.>.5.A.-.-.f.! V ~ +. .A.U U ~  .` 5.@.{  .>.g v A.! F y >.5.l { Z r i Z 5 J g 5 , B 5.5.5.1.5.A.A.A.5.5.A.-.4.>.5.<.5.D i >.u.-.+.Q ~ Y.5.+.>.>.{ ).+.f -.+.>. .U A.i l A.Z +.Y.5.A.U M B D -.Z - e 5 x >.,.,.u.A.f.f.f.A.A.5.u.A.` >.>. .~ 5.-.{ -.U -.@.Y.5.~ ~ 5.-.~ -.~ >.3.5.,. . .5.{ v  .~ #.-.>.{ x ^ k 2 i 2 e 5 k -.1.",
">.f 9 g -.` { 5.5.~ +.5.1.5.B 2 i k F g < 2 e 2 Z 5.>.1.A.A.5.>.u.>.-.=._ V >.;.;.-.5.A.>.#.;. .{ { >.5.} J +.5.u.>.-.r Z >.;.5.5.~ ~ U Z 5.>.~ } l j i g x 5 1 2 f 2.5.5.5.f.A.f.=.5.5.5.Y.u.u.-.{ Y.Y.n.;.~ U -.>.{ >.-.v -.>.} +.+.{ } 5.Z l 5.-.+.5 +.5.x D e i i , { 9 f Z 2 - U 5.1.1.5.5.A.A.A.A.f... .A.-.` 5.x k ~  .>.5.-.U _.5.~ +.A.:.~ U Z { -.5.} f @.{ l { 5.>.-.>.>.u.U # k F >.l < e 2 Z 5.>.,.f.A.f.f.f.A.5.,.Y.-.` ` 5.-.` ' W.-.g >.5.5.A.{ ~ A.5.U +.5.Z l `  .~ ` 5.A.>.f Q 5.>.>.Z g -.F 5 k k 2 e e f -.",
"9 V +.~ ~ 5.5.-.5.G -.>.{ v } , B Q F g i 2 2 e 5 { 5.,.5.A.A.A.).2.{ u.A.Z R  .5.>.>.A.{ { 5.5.} -.>.5.~ { 5.A.-.-.5.J { v { A.5.+.~  . .5.~ k 5.-.7 e k k l < 2 1 B n.>.5.5.A.A.u.5.A.f.f.1.W.>.,.A.Y.3./ ~ J { A.#.U 5.>.>.5.P ~ { 5.{ x }  .-._ 9 5 +._ 2 l 7 i f B -.7 f +.V < , ~ 5.,.5.5.u.A.f.f.A.u.5.f./ -.A.{ Z l -.>.u.5.` A.-.+.@.5.{ f g -.A.>.-.F ~  .5.F Q 5.5.-.>.2.U { F B i >.-.i - 2 5 Q 5.>.,.f.f.f.f.u.A.>.Y.A.+.Z 5.>./ >.Y.A.k !  .1.-.-.>.5.5.-.U { l f U ` A.5.5.).A.9 F  .U 5.2.~  .B B B Q f 2 e e ~ ",
"} _ +.A.{ 5 { ,.-. .-.2.Z f +.J V { F k V 5 2 3 2 i +.1.>.5.A.f.A.Y.~ -.>.-.-.-.Y.A.>. .+.>.u.Z -.5.>.3.Z ~ >.Y.-.~ u.>.5.J V 5.-.~ A.>.>.u.>.x k { i a e i l f < 2 2 ~ 5.1.5.u.A.f.f.A.5.A.A.A.A.A.A.-.-.>.{ ` >.-.-.-. .5.5.+.{ v  .-._ V l :. ._ -._ Z ; 2 V e Q +.x Z x F g >.l , i >.,.,.5.5.f.Y.f.f.A.u.;.' -.{  .>.+.~ u.A.>.5.>.>.2.V { 5._ x U 5.+.A.+.v.>. .F k ` A.-.@.3.7 >. .F e Q +.F e 2 e 5 _ 5.>.1.f.f.f.u.A.f.1.Y.Z 9  . .A.).). .g ~ ` >.-. .A.5.A.A.B r ~ 2.-.{ { A.u.u.5._ U { U 5.>.3.-.j J ! ~ ~ k 2 e e ",
"-.-.v.^ Z g :.A.v +.>.U { V  .>.+.! V Z L i 2 2 5 2 B ,.,.1.f.f.f.f.-.;.f.,.5.5.A.W.f.v -.>.5.} >.>.>._ { >. . .;.~ -.Y.5.V Z { f ~ ).>.>.>.f.2.l Z V i i x k x i ; 2 5 -.5.5.5.u.A.f.A.f.f.1.f.,.=.>. .5.A.U ~ >.>.-.>.U -.5.~ U Z U A.-.} f F { ~ { f x B V ^ i { -.Z Z ! J r -.} 5 - V 5.1.5.5.5.f.A.A.A.A.` +.g J >.,.` >.A.A.5.-.>.` U V  .).5.Z l -. .-.+.#.5.5.J - +.u.>.R W.U ~ ` Z F i l k Q 3 2 e e +.5.>.1.f.f.f.f.f.u.;.i g ~ >.W.).>.v >._ f ~ @.>.A.A.A.f.F k U +. .-.-.>.5.5.5.{ ! V ~ ~ A.A.).! U +.~ T +.2 2 e ",
"Y >.5.F < -.>.&.~ 5.` Z -.Z F -.5.V F ! i f f 2 2 e 7 _ ,.>.1.f.f.A.5.A.5.~ 5.>.>.).5.-.5.l +.W.f.>.g v  .1.' -.{ Z A.5.{ 5  .~ J  .A.4.>.-.u.W.{ - e +.U -.k k l 5 2 1 k 3.5.5.5.f.A.f.u.5.>.f.X.-.1.5.u.5.-.` >.A.+.>.^ l >.-.#.F +.5._ { -.U l { U U :.} < ! { U U +.F i f Q Q ~ U 5 2 ! 5.1.5.1.5.A.A.A.f.A.` x  .-.>.v ,.5.Y.W.-.+.v >.>.>.A.,.>.9 ~ ~ Z { ` _.>.5 k { +.u.>.Y.~ Z ).+.< V a j k 2 2 5 2 i -.,.>.1.f.f.f.f.f.5.v V { >.Y.).-.U U J 9 f >.A.A.).A.5.~ Z  .5.R ` 5.5.>.5.5.-.J y J U >.W.A.v -./ ~ { B k 5 2 ",
"` U U -.2 Q A. .>.5.5.U Z #.J ~ -.Z F r x l g 5 2 2 2 i -.>.,.5.A.f.f.f.f.' ~ ,.Y.).=.5.5.y l -.>.} f -.-.f.-.4.2.J ! :.h -.5.>.! >.>. .>.-.-.A.2.J 5 ~ 5.;.Z i l h 7 1 , l ,.5.5.u.A.A.f.A.Y.A.=.5.W.u.>.5.).-.+.-.` f.{ V A.-.U Z Z >. .+.5.{ +.+.~ 2.{ i . ^ +.J k Z { B J -.U U { ! < , { 5.>.5.5.5.A.A.f.f.5. .x ~ >._  .Y.).W.5.} i  .+.>.5.5.5.U Z h -.,.{ >.2.< Q -.` >.{ -.-.>.).5.Z Z k D B j M < 5 5 f -.1.>.5.A.f.f.f.5.;._ -.1.W.A.-.~ U 5 Z h >.-.5.A.f. .A.-.U 5.5.+.>.1.-. .>.R v x U 5.{ >.A. .A.>.V ! i ! J 5 ",
"{ +.U V i F { ` ).` Y._ k l g x h i i 5 ! Z J l 2 2 3 2 Z >.>.,.u.f.f.f.Y.U n A.).A.5.Y.-.V +.Z 5. .v >.5.5.~ 5.>.F 5 +.;.-.-.>.>.{ Z >.5.` :.A.-.+.~ y { -.! i f l f , 2 - U f.5.5.5.A.f.A.A.A.u.W.W.5.>.>.f.=.>.{ { 5.-. .-.-.-.l {  .+. .+. .' Y -.~ 5 Z x J V F 3 D +. .-.x F ~ Q F x ; i -.-.u.1.5.u.A.A.f.Y.>.5 U >.~ >.u.W.).5.~ 2 U >.3.u.5.+.U ~ Z A.Y. .>.>.J f -.} _ ~ -.>.A.A.u.4.7 k B D Q k Z 5 e 5 x ,.1.1.5.A.f.f.A.A.A.{ 5.f.5.-.>.>.F V -.5.~ -.5.{ =.W.A.Z V A.>. .>.` U ,.U Z 7 Z A.5.&.5.{ 5.).x Z g O.~ i ",
"~ -.F 9 { _ Z A.>.-.u.h < % x x Z B . x ;.J >.J 9 2 2 e 5 { 1.>.1.f.f.f.A.-.A.@.-.).5.).Z Z 5.' A.U g #.>.-.A.A.f F k Z u. .-.5.>.i { u.u. .5.5.5.~ ~ ! Z  .5.k 5 g l y 1 2 2 Z >.u.5.u.A.f.f.f.A.A.W.A.5.5.f.u.u.-.~ ` -.+.~ >.>.{ _ +. .>.T >.-.>.2.V 5 +.{ l e B J M Z ). .Z { ~ 5 F 2.f - k 5.1.1.5.5.u.A.A.A.A.{ ~ ~ { >.A.Y.Y.A.{ Z +.>.,.u.5.U V >. .A.>.+.5. .>.{ k f ` +.5.>.A.5.A.-.Q - a F Q k Q D 2 e 3 U 5.>.1.5.A.f.f.f.A.>.' -.5.A.5.A.U T 5.>.' -.5.` 5.).5.Z i 2.-.` A.U f 5.~ f h -.>.5.u.5.>.v.-.~ +.V U O.e ",
"2.>.V V :.-.} ;.>.>.Z U O.! -.~ ! V Q { -.+.@.l g i , 2 2 k >.,.>.5.A.f.f.Y.-.' 5.A.).-.v  .-.f.5.y ~ ).;.>.A.l U -.B i +.A.5._ J ~ A.>.-. .>.@. .5.` } -.{ 5.V 2 i k l 5 : 2 1 j >.5.5.f.A.f.5.5.A.W.5.5.A.A.5.5.5.} { U -.>.:.>.v.~ ` +.5. .-.-.4.-.k < a +.-.5 % +.-.Q _ -.-.{ ~ < Z >. .f - Z 5.1.1.5.5.f.Y.A.A.A.>.~ -.>.-.A.,.).' V l -...u.A.Z Q ~ ~ _.-.+.>.+.-.4.x U 5.+.>.u.5.A.A.~ F ; l -.Z r i J k 1 e 5 ! 5.>.>.5.A.f.f.f.A.@.;.A.W.>.2.v _ W.` / A.-. .A.>.X.+.y U >.{ ` R Z 5.U 4 -.Y.>.>.5.A.5.F x A.5.-.{ J k ",
"x -.~ U 4.` { { 5.~ -.A.{ ~ 5.2.e B 2.v ! -.f ~ #.h 5 2 e 2 U 1.>.,.f.f.f.u.>.>.).5.&.>.A.+.y -.-.g 5.).>.>.~ Z 3.{ F +.! >.5.~ ~ >.A.-.v >.+.{ >.-.-. .u.u.5. .D 5 r l g < 1 q 2 Z 5.5.5.A.A.f.f.A.A.A.A.A.A.>.-.>.5.Z l u.5.5.2.{ 5.i f A.A.3.-.{ Z V 2 k Z 5.V y -.-.~ { f f g Z { l ! >.~ r - Z u.1.5.5.5.A.A.A.f.A.+.-.>.-.5.;.>.-.{ 4 -.>.-.-.Y -.5.5.f.A.~ @.-.>.{ +.Z ~ -.>.>.U >.R.l - V U Z +.k J ~ J a 2 3 5 ~ ,.>.>.u.f.f.f.A.u.5.u.A.5.-.{ -.5.-.+.A.-.+.>.5.,.F 5 x ).T #.).U >.J U 5.A.>.A.>. .~ Z V 5.5.>.{ J { ",
"k V 5. ._ 5.-.v -. .5.W.Z l >.A.i ! Z F } ~ l -.-.Q 9 < 2 2 e +.1.>.1.f.A.A.A.A.A.u.5.W.W.~ < ~ 5.-.>.u.>.+.g U A._ { 5.T -.>. .5.J ` >.y u.>.-.1.>.3.-.` 5.A.>.r 5 k r x i - 1 2 < { u.5.5.A.f.f.A.A.Y.A.f.A.5.Z ~ 1.{ ~ A.A.5.+.< @.{ v >.).5.{ +.V i 5 k l { #.{ #.~ _ ^ f U ! +.+.~ U { { F 5 - Q u.1.5.5.5.A.A.f.f.5.-.5.A.+.Z n >.R ~ 5.5.-.` ` 5.u.u.>.u.5.u.{ +. .Z ! U -.+.v h 1.5.v f _ +.~ R.} ~ +.V l e 2 2 5 { 5.>.,.f.A.f.f.f.A.5.5.>.~ { +.>.A.A.>. .5.5.5.+.5 ^ v f.5.5.@.v V v >.` -.A.).{ 4 Z f. .>.A.>.Q >.>.",
"+.l U -.5.Z J >.+.+.5.A.! V -.A._ -.B i V U -.-.B Z T 5 2 3 2 k >.1.,.5.A.A.A.A.A.Y.).u.>.-.~ { >.5.5.-.J { k U 5.5.-.-.R >.~ _ 5.Z -.A.l J 5.-.>.5.~  .R >.5.A.Q k B i f l 5 : 2 2 r >.u.5.5.A.f.f.f.A.Y.Y.W.-.U >.>.5.>.u.u.-.{ 7 F ).>.~ -.5. .! $ _ ~ i -.U U 5.2. . .-.~ {  .` 5.^ g k k -.J , 2 ~ 5.1.5.5.u.A.A.A.u.>.A.5.v V Z { >. .>.>.~ { >.5.>.5.-.A.).A.{ +._ #.{ -.V l +.+. .5.V U +. .>.5.5.-.+.Q r a e 2 3 i +.5.,.,.f.A.f.f.f.f.u. .~ >.+. .A.`.Z 3.>.>.>.x < l g A.).>.J l U Z ;.>.=.f.A.v _ +.>.-.5.>.A.! { 5.",
"+.A.F x M.J V A.v 3.-.{ { } v.5.{ F B 5 B -.>.Q k +.-.v < 2 e 2 Z ,.>.,.u.A.A.5.A.).Y.>. .5.5.J +.f.Y.+.f Q ~ J -.A.>.~ +.U k _ A.5.2.+.V U 5.>.>.5.n { { 2.5.A.+.Z D e 5 k h 5 - 2 - V u.1.5.f.f.f.f.A.Y.A._.v { `.{ ~ 5.5.A.{ ~ 5 B :.5.5.+.Z g Y { -.~ U -._ -.>.-.).>.1.{ { ` 4.3. .U U k x { v 2 2 { u.,.5.5.f.A.f.f.A.A.Y.~ 5 v -.5.{ Y.-.v A.>.5.+.R ).A.A.R U -.Z {  .Z ~ A. ._ V #.+.` +.5.A.-.-.>.A.2.i e e 2 2 2 i -.1.>.1.A.A.f.f.f.Y.' } f.>.-.5.5.{ A.Z  .5.Z ^ x J 5.W.:.5 x Y.+.{  .1.:.@.{ J -.A.~ @.5.A.~ ` -.",
">.+.y k Z } U 5.5.>.! { -.~ -.5.>.V i k { 4.+.r ^ -.{ ~ g < 2 e 5 _ 1.>.,.A.f.u.A.A.f.1.-.f.-.y { 5.Y.>.x l ~ >.+.+.` ~ A.F l U A.). .~ 2.2.5.>.>.{ +._ 5.U } A.+. .Q V i i x g < 1 2 2 ! f.5.5.f.f.f.A.A.A.Y.+. .5. .-.-.-.W.A.~ - +.5.} >.J h -. .u.A.U % { A.{ A.+._ 4. .-.>.>. .5.>.U _ { ! l x i 1 5 +.u.,.5.5.f.A.f.f.f.W.l 4 +.5.>.-.A.1.>.+.5.u.5.+.A.A.-.U  .-.U R A.~ O.).5.U f -.{ +. . .5.2.` >.A.+.5 2 e e 2 2 2 j >.,.>.1.A.A.f.f.f.A.5.5.A.f.-.{ +.>. .+.-.A.>.x 5.5.A.Z x 4.5.+.` { 5.+.+.} l  .`.A.Z Z >.>.} -.",
"-.5 { _ l 5.5.,.5.Z Z -.3.+.g ~ A.l V 4. .~ } Q -.{ ! _ B 9 < 2 2 i -.,.>.,.A.f.u.f.-.-.A.>.{ ` -.5.A.1.U ;.~ +.5.~ f 2.-.h +.} 5.>.v >.{ { n.-.-.>.>.Z { ' >.A.-.U Z -.! e i l f < 1 2 2 +.f.5.u.A.A.f.A.f.A.-.Y 5.-. .5.5.5.>.5.~ _ { x >.{ -.5.U -.5.U i R u.>.5.>.~ -.} { >.5.+.+. ./ -.5.U f i i e 2 5 @.f.1.5.5.A.A.f.f.Y.' F ).~ { ` u.Y.A.,.;.u.A.{ +.u.5.5.U { 4.-.Y.>.l 5.-.-.F #.Z @.-.-.} >.2.5.u.~ B i 2 e V < 2 2 l >.,.>.5.A.f.f.f.f.-.A.).W.>.-.~ >.5.U U -.A.2.-.~ ).5.U J -.>.-. .'.{ l V +.-.A.{ +.U +.).{ -.",
"l V @.+.+._ Y.W. .f ' ' +.! 2 x Y.U { :. .~ Z >.5.>.2.k i v 2 1 3 2 Z 1.>.>.u.A.u.5.,.5.).-. .A.;.,.5.5.5.A.T  .-.5.-.5.Z i :.x A.+.+.5.x #.f.5.+.J >._ ~ >.5.-.+. .>.{ { e 2 k x 9 - 2 2 g 5.5.5.u.A.f.f.f.>.-.-.A.=.-.A.f.5.' -.).Z f 2.>.v.{ -.` -.3.-.>.{ { !.A. .! 5.{ F ~ 3.2.Z 2.5.-.+.~ ~ r i k e < 5 { u.1.1.5.A.A.f.f.A.~ 3.U f >.>.W.>.f.>.5.).Z ~ -.A.1.` ~ -.4.5.5.V { -.5.5.-.U { v U #.5.2.{ A.u.U - - B >.F - e 2 B >.>.>.5.A.f.f.u.A.>.f.u.1.>.5.>.5.5.~ +.2.-.{ g W.5.-.x +. .} 5._.} f U 4.5.-.x +.5.~ >.:.{ ",
"Q ~  . .+.>.-.@.>. .-.U >.F < g A.A.f x 5.J ~ >.-.>.A.J i k k 2 2 7 2 ~ 5.>.,.f.f.5.A.A.f.>.A.3.-.f.A.>.} -.=. .{ 5.u.>.9 F ~ ~ 3.A.5.2.{ ~ Z A.+.h 4.5.>.+.-.-.` A. .` >.F 2 e k l 5 < 2 < J f.1.5.f.A.f.f.5. . .=.f.-. .A.u.&.5.A.V J -.5.n. .! -.>.-.1.A.~ ! { 5.5.~ f.+.k { +.+.~  . .-.~ 5.-.l D a g 5 2 2 ! 5.1.1.5.A.A.f.A.-.~ -. .-.>. ...A.Y.A.).` 2. .~ >.#.5.~ 4.>.-.-.v / ).Y.Y.V Q V U  .V  .>. .).+.k i B 2.>.f 2 e 2 V ,.,.>.1.A.f.f.A.>.f.f.5.f.5.Y.>.{ -.+.#.5 U U >.Y.5.5.+.U F 2.>.5.F J A.-.-.F  .A.>.>.{ l ",
"+.U -.{ x >.U { 5.} -.x U +.* Z Y.u.J _ -.V ).U ~ n.A.~ 5 e k i 2 2 5 5 { 5.>.5.A.A.A.A.f.1.W.R &.5.W.2.U { >.>.>.5.u.+.f ~ F  .;.A.A.2.{ Z ~ ` A.{ >.n.V } ,.-.!  .' 1.>.v.D i i l g < 1 2 2 ! f.1.5.f.f.u.f.5.R ` A. . .).-.W.f.5.v J f.>.P W.>.-.{  .>.~ #. .l >.).>.+.V Q _ _ ` ` R m f.5.u.A.+.F i i j 2 2 2 Z 5.5.1.u.A.A.f.A.#.5.>.-.5.U R 5.Y.Y.A.@.3.+.l >.} +.-.2.>.-.>.-.U 2.).-.Z y 5 Z -.U } J -.5.-._ ! ~ x 2.{ 5 2 5 7 Z >.1.>.5.A.f.f.A.A.f.A.Y.Y.).>. .{ U { s -.5.5._ ~ 5.{ >.V 5.-.-.V Z 5. .{ 2.} U A.>.{ U ",
"~ J } v ! +.5.5.5.-.x x J >.J Z T 5.).A.V F #.{ -.A.A.+.3 2 5 k 5 2 2 e i -.1.>.5.A.A.A.A.f.5.>.A.5.A.5.Z 5.2.-. .>.1.-.x -.U +.A.>.A.} * ! n.5.>.{ >.` U U -. .{ ~ >.A.>.5.+.2 7 f x f < 1 2 2  .u.5.u.A.f.u.f.~ -.5.-.A.f.-.>.-.A.~ ! W.-.v A.).f.5.U U 9 J ).-.5.A.Z #.Z { l v R >.5.+.5.f.} u.5.i a e e i 2 3 2 U f.1.1.f.A.f.f.A.5.>.-.R ` { ,.).W.A.5.f.~ {  .-.{ ~ A.~ -.5.W.;.~ ~ Q f g +.2.U { 3.Z 2.>.U U 3.2.} ~ Z 5 e 2 5 2 l +.1.>.5.A.f.f.f.A.Y.).).Y.>.+.U ~ Z  .>.Y. .y ` J ~ A.~ >.u.R U -.>.-.F v Z ~ ).>.-.k ",
"h U >.-.+.>.Z ` W.-.V i 5._.-.5 y >._.+.^ ~ J  .>.>.Y.+.< 1 2 a f 2 2 5 3 k -.,.,.u.f.u.f.Y.u.5.A.W.u.A.-.5.x f V 2.5.-.~ 5.U v ).{ x -.U } 5.A.).` J +.,.~ k -.{ ~ { 5.A.A.{ j i e k x i 1 2 2 i -.u.5.f.f.f.>.,.>. .5.A.@.+.3.u.!.U ~ f.5.U f.).-.1.Z Z -.Z 3.3.>.>.~ 5.Z {  .-. .5.A.~ -.5.g ` u.U < 3 2 x r : e 2 ~ 5.5.5.f.A.f.f.f.>.{ 5 -.W.>.A.).1.A.A.Z  .R U 5.+.).R  .A.>.f.>.V +.V x 5.A.-.Z >.>.Z ~ #.Z A.>.>.v.k 2 i 5 2 5 e i #.5.>.u.A.f.f.f.A.W.A.5.` v >.~ U u.>.{ -.U ).Z ~ { Z J Y.A.~ v 5.5._ ~ i J 3.>.{ F ",
"{ 5.>.+.< ~ >.` >.5.g Z 5.>.+.< J Y.5.U V _ Z Z A.-.Y.J . a M F f r 2 2 e 2 F >.=.1.f.f.f.A.A.A.A.u.A.).5.@.; 5 +.>.5.{ { n.-.l u.' Z u.;.Z A.A._.J F ` -. .g { Z _ -.A.3.A.>.! e 2 r l l 5 < 2 2 l 5.5.5.f.f.5.f.>.~ ;.5.5.5.u.Y.5.-.U f.A.>._ >. .>.-.-.@.` ;.v.+.' 5.5.y >.Y.-.+.-.-.v >.` h +.A. ._ k i ~ i 5 2 2 2 ~ 5.1.5.A.f.f.f.5.+.Z -.5.A.W.A.A.5.-.-.-.>.-.-.-.~ {  .5.&.A.W.! B { T -.5.>.T _ A.+.Z 2.-.5.+.-.-.r 2 F a 7 2 e 2 j -.,.,.f.A.f.f.A.5.-.A.` `  .-.>.-.` >.u.-.Y.{ ~ Z ~ { #.,.5.T  .5.-.5.~ ~ @.+.>.! ",
">.U u.~ - J Y.-.-.+.Z A.} s 5.~  .Y. .T  .-.x Z A. .-. .k F 7 B ^ x 5 2 2 0 e  .,.,.1.A.f.f.Y.f.5.A.W.A.A. .5 F >.-. .-. .;.W.+.x { 5.5.2.n 5.W.W.U { f -.-.>.+.5 { A.5.>.>.>.Q 2 2 2 5 k g 2 2 2 2 Z 5.5.5.f.f.f.5.-.>. .5.A.A.).u.>.>.+.5.-.T -.>.>.5.>.-.;.>.{ U { 1.>.U u.A. .+.>.Z U 5.P { 5.>.5.5.~ i M j k 2 2 e 5 { u.1.5.f.f.f.A.5.Z +.>.A.f.>.A. .>.5.+.-.T >.5.U x x A.5.5.A.Z i  .-.-.>.-.~ >.{ 5.F ~ A.5.>.~ -._ Q F V l , 2 e 2 J 5.>.1.f.A.f.f.f.u.1.5.` -._.A.~ ~ 5.5.A.>.` U 5.A.+.F +.5.-.{ -.J -.A.>.-.-.5.x ",
"+./ 5.J v x 3.>.>.5.v _ ~ x A.5.@.-.>.+.-.J l { -.>.>.5.R { Q j F Q f 7 : 2 2 V 5.>.>.u.A.f.f.A.A.A.A.5.5.>.U -. .F ~ 5._ v u.5.T >.+.>.+.#.>._.u.U U f -. .{ _ 5 2.W.A.-.l  .~ J F 2 r V h f 2 2 3 2 U f.5.u.A.f.f.A.>.~ -.u.A.).,.>.A.5.U #.~  .-.-.>.5.>.~ V ~ T +.n.` >.-.>.>.-.>.~ ` 5.-.+.{ >.W.5.-.j 5 e e k 2 2 2 r +.u.1.u.A.f.f.A.{ ~ -.W.5.-.>.1.&.;.-. .{ >.>.A.y f A.5.-.>. .~ ~ ).T -.` -.-. .5.F V v.u.>.B ~ { k Q _ i j 2 2 e 7 ~ 5.>.1.A.f.f.f.f.5.5.>.3.A.Y.A.>.>.5.-.U >.+.A.A. .+._ -.V -.~ ~ ` 2.{ -.-.-.+.",
"{ +.A.Z _ -.,.} _ -. .V -.V _ A.W.F ~ Z F x -.>. .>. .~ -.+.>.! l B i i ; 2 5 2 ~ 5.>.1.A.A.f.A.A.A.5.-.f.5.` A.2.F >.5.U J -.-.n.3.J +.~ -.` A.5.Z -.+.+.A.U < { -.A.).2.i ~ -.+.>._ ~ O.Z l 9 , 2 5 5 } f.5.f.f.f.u.A.>.&.5.W.5.&.A.A.W.i Z x >.>.A.;.` >.U ~ -.+.5.5.{ +.Z >.5. .>.5.{ ` >.l J -.A.5.5.F k e e B i < 2 2 r -.5.1.f.A.f.f.A.>. .-.>.-.&.5.&.5.>.-. .-.` 5.U  .1.>.5. .3.-.{ 5.{ i g 5.5. . .+.~ >.A.+.i 5 Z { >.F i r Q 2 2 e 5 { 5.>.1.f.f.f.f.A.M.f.@.u.W.).f.>.-.-.-.-.~ >.5.1.>.>.+.9 ! Z 5.-.Q x 5.u.R ` ",
"U { A.U { +.H g 5 / 5.A.~ 5 V A._.-.k Z U Q 5.A.-.~ { Z >.>.5.-.Q < k V 5 2 2 5 i -.,.>.5.A.f.f.f.A.&.>.A.Y.u.5.A.~ >.>.-.~ Z >.n.} -.3.v Z J 5. .-.' -. .f.U < U >.5.>.W.! l 5.5.>.>.l ; y l k 2 2 2 2 f 1.5.5.f.f.u.A.>.,.5.f.>.5.5.).-.Z F { v.U -.A.U >.5.>.l B  .5.>.} U -.5.).5.U V ~ -.F F { 4.Y.5.>.V < f i i e 2 e 2 l 5.1.1.f.A.f.f.f.5.+.~ -.u.A.f.f.>.-.-.` >.>.v  .Y.5.5.+.{ -.5.R >.J F -.'.J v '.-.} A.+.i % Z W.-.k f ! { x - e 5 9 +.1.>.1.A.f.f.f.A.A...5.W.Y.f.5.-.~ U  .~  .-.-.-.1.U V { _ { J -.~ >.A.~ { ",
"k ! 5.>.:.5 V 2.5 { ).).F < -.5.5.4.< l -.#.5.+.~ >.>.@.{ ` >.-.{ - Q -.f 7 2 5 5 V >.>.>.u.A.f.f.A.5.u.Y.5.5.>.>.5.-.5. .` +.>.A.{  . .9  .` -.m A.v +.{ -.;.-.-.5.~ >.>.P +.-. .-.+.~ B 2 e l i - 2 2 2 U A.5.5.f.f.u.u.u.>.>.Y.5.u.).-.>.5.>.{ v -. . .5.>.J Z < T ,.+.` A.{ 5.W.u.U Z Q V U >.>.A.~  .5.l 2 +.M e k 5 2 5 2 _ f.1.5.f.f.f.f.f.5.~ / A.A.5.A.' #.Z { -. . .U Y.Y.1.-.~ ~ ;.-.-.2.A.Z >.~ U 3.>.-.>.{ ! +.U >.! < Z +.l >.F - 5 5 i -.5.>.5.A.f.f.f.A.1.A.).n.>.u.5.Z {  .+.{ 5. .-.A.>.~  . .l ~ 5.-.+.-.` -.",
"V ! 5.A.+.T v.^ i } f.A.+.J 2.F ~ { Z +._ +.} l -.5.>.' { ! ~ ;.~ i Z O._ r 2 2 e 7 ~ 5.>.,.f.A.f.f.A.A.>.>.5.>.5.-.>.-.` ).;.~ >.>.{ F J +.>.` ` >.2. .Z U f.n.,.A.} Q +.-.>. .y >.5.3.D 2 e i l 5 - 2 2 7 ~ 5.f.u.f.f.f.A.>.-.A.A.Y.A.5.5.-.R >.>. .Z } 5.5.9 +.-.-.~  .-.W.-.>.A.>.+.Z k J -.{ u.:.f -.>.F r 5.k 2 Z k 7 2 2 5 } 5.1.5.f.f.f.f.A.-.-.A.>.5.A.+. .x -.Z U A.>.A.A.-.5  .A.` -. .U R.Z T 5.-.U 5.+.~ Y.+.{ 3.F ! U J B v -.-.3 2 e 2 k -.,.,.5.f.f.f.f.A.A.A.A.5.f.5._ } Z { -.>.>.5.{ 4.l ` >.-. .>.f.+.k U 3.",
"+.x { ;.f -.).f F _ >.A.{ ~  .Z  .>.5.5._ { ~ ~ >.>.B V >.4.l U U a i Z A.Z 5 2 7 7 i +.1.>.5.A.f.f.f.5.>.u.u...-.5.f.>.5.n.k v >.5.{ ~ ~  .3.).Z { 5.-.f x Y.5.>.+.` ~ Z #.#.-.~ A.A.5.J i 2 5 k g 2 2 2 2 2 x ` 5.f.f.f.5.&.5.5.).A.u.A.>.v ` _.>.-.F { +.-.{ ~ -.-.{ -.U ;.>.>.;.A. .;.{ ! 2.+.u.M.Z +.>.l g >.F B Q f x 2 2 2 e -.u.1.5.A.f.f.A.A.A.-.` A.).5.U ! f 5. .3.u.u.5.~ f  .A. .>.-.x 5.U +.>. .~ >.-.v P >.=.,.l -.).i i +.+.B i < 2 5 2 V 5.>.>.u.A.f.f.f.f.A.Y.A.f.5.>.~ ` -.5.-.+.-.g  .x +.>.-.-.M.A.-.e k >.",
" .U h  .~ ;.A.{ { { >.~ x J 5.` -.A.>.f._ ~ A.).+.+.l k { A.{ k $.k - { ). .f 7 2 5 e i -.1.,.5.A.f.f.A.,.5.u.-.,.Y.Y.-.5.` l } >.5._ U A.-.-.5.v -. .Q F _ A.).>.Z +.{ h 5.#.-.-.-.A.A.+.k 2 2 7 k g < 2 2 5 2 V 5.5.f.f.f.=.f.A.A.-.,.A.5.;.U 5.5.5. .T  .~ 5.5.Z U >.Z < 3.A.5.5.{ ~ >.5.x J -.A.A.~ j U F -.~ -.~ F V k i 2 2 2 k >.5.5.u.f.f.f.f.A. .5.W.u.-.l v U +.>.3.@.1.;.3.U ~ ;. .).+._ -.5 F >.5.>.5.A.U Z A.-.>.' { )._ Q l _ Z 2 D V - e 5 Z >.,.,.f.A.f.f.f.A.A.A.A.A.A.>.+.>.>.U U ~ f +.R 5.>.+.Z 1.A.>.~ U >.",
" . .~  .U >.5.+.+.2.+.5 ^ ! >. .5.~ { 5.~ 4.>.A.{ < O.F F u.>.Q F e i { { >.~ i 2 2 e 2 V 5.,.,.f.f.f.A.A.>.1.>.5.).A. .2.{ ` W.-.-.-.4.A.>.T v T >.{ 5.-.U ).>. . . .{ J 5.+.g M.Z A.-.5.-.l e e i l i < 2 2 2 U u.5.u.A.f.1.f.A.5.5.u.u.f.Y.5.{ >.-. .Z ` ' Y.5.-.! :.F i 3.5.5.>.f U -.>.-.-.>.).~ k a 5 Z -.Q f {  .! 5 u i - 2 2 V u.1.1.f.A.f.f.A.-.>.Y.-.U Z  .~  .>.' U W.>.-.>.+.{ { >.-.n -.Z l +.Q.-.U A.Y.>.-.~ -.).~ ;.).+.2 Z 5.i L 2.i 2 5 2 x >.,.,.f.f.f.f.f.A.Y.W.W.Y.>.y >.>.f V ~ v } A.A.+.{ { { Y.A.5.~ _ ",
"~ U 5.>.+.! v >.A.~ +.U #.T 5.5.5.g J ;.{ >.v 5.{ U >.{ V ;.+.-.k 1 D Z l >.4.Z 5 < 2 e 7 ~ 1.>.5.A.A.f.A.1. .5.A.Y.Y.-.>.u.{ -.>.+.{ n.X.` ~ V { A.-.f.5.`  .+.J _  .` ` =.v U ).{  .Z ).{ ~ F 5 r i l 5 < 2 2 2 ~ A.5.u.A.f.A.A.u.Y.f.A.,.>.).+.~ 5. .x -.3.A.5.5.~ Z { D +.1.-.~ 5.F  .u.-.5.5.5.F 2 F J ~ ~ _ 5 U -.+.k 2 i e , 3 7 { u.1.5.f.A.f.A.5.-.5.>.{ >.>.4 U u.-.{ ).5.>.-.{ -.-. .A.V Z 5.~ U -.~ ~ A.).5.U +.5.>.2.Z  .).B i >.{ e a ^ 5 5 5 2 F 5.,.1.f.f.f.f.f.Y.).A.5.U $ { ` U ~ ~ 5.` -.).+.Z -.Z n.A.Y.A.J ",
"{ 3.5. .Z 9 Z -.>.-.+.5.+.V 2.5.+.Z -.l 2. .+.J -.M.+.x F 2.2.Q Q e B { { Q 5.{ f 5 2 2 5 i -.,.,.5.A.f.f.W. .;.).A.u.>.5.Y.U ~ 2.#.i { >. .U +.>.5.>.5.>.3.Z ~ Z Z Z A.>.>.~ ~ -.R {  .A.U { 5.J 2 5 f g 2 2 2 2 5 +.u.5.f.A.f.f.A.A.A.A.>.,.5.+.5.A.-.~ _ 2.5.5.` -.J U V V ).-.~ +.Z -.Y.+.` ).>.U 2 _ >.~ Z V :.i Q +.v L e k 7 1 2 i >.5.1.5.A.A.f.A.,.-.>. .-.v v  .Y.A.>.-.).1.5.Z -.u.5.Y.k 7 -.f. .v Q ' 5.A. .{ R 5.>.v v +.u.5.i Z 5.i V +.e , 2 5 5 F >.>.,.f.f.f.f.u.A.5.{ s f l -.{ -.>.-.>.Y 5.Y.U ~ ;.>.5.5.>.Z ",
"-.u.A.#.i Q A.>.U {  .A.5.U { } 9 v 3.} J U ).x +.-.5 v >.5.2.< +.U l +.>.~ _ Q i f 2 2 5 2 B 5.>.>.1.A.f.f.A.-.5.A.A.A.5.u.5.>.>.! B U -.{ { -.).-.U  .1.1.~ ` +.J #.Y.A.5.-.k V -.-.Y. .{ -.5.-.5 2 5 l g < 2 7 2 l u.5.5.A.A.u.f.A.A.&.1.Y.A. .>.>.5.>.l 2.Y.A.+.Q B F -.J 5.>.>.{ l F 5.f.5.u.3.~ Q 2.J Q - B 5.{ Z -.#.l D ~ x < 2 2 x 5.1.5.5.A.A.f.f.5.>. .R { A.-.5.A.5.-.>.u.5.h >.5.f.A.l Z @.-.5.< 9 -.`.+.Z >.v >.-.Z -.-.5.'.k k ~ J x +.Z k - 5 e 5 Z >.>.1.f.f.f.f.n.A. .l V 9 ` -.5.>. .5.,.A.f.>.-.-.5.>.-.+.T ",
" .1.W.Y.-.-.' 5.{ Z >.W.A.~ F ~ B f A.W.-.5.5.{ ! < 5 -.>.1.2.V { -.~ 5.` { U f e k r 2 e e 2 ! 5.>.1.f.A.u.Y.5.-.A.Y.1.>.A.M.5.5.-.Z { +.x { { ).;.g R A.1.>.-. .:.+.A.<.5.Z 9 >.>._ U 5.+.V R A.-.f e i l f 2 2 5 2 Z 5.1.5.A.f.u.A.f.,.Y.W.u.n.>.l ` ).~ -.-.=.-. .J +.~ ~ U 3.>.{ f k 2.Y.n.>.5.+.R -.v f B k -.5.x U -.+.B V { l < 2 2 J 5.5.5.5.A.f.f.f.,.-. .5.f.5.>.>.5.J -.>.R m ).{ >.5.{ J -.-.-._ Z =.5.Z J >.F -.5. . .).A.5.l - Q g k { ` -.F < 7 e 5 U 5.>.1.f.f.f.f.5.u.` Z g >.f.1.5.>.' Y.Y.,.Y. . .3.>.>.>.+.",
"2.5.<.<.` U ` >.-.~ -.W.A. .5 g i V M.5.W.A.` l y 5 Z u.5.>.4.k :.-. .Y.5.~ #.! e e k 5 2 2 5 5  .5.>.5.A.A.u.W.A.5.5.1.1.A.=.>.Y.#.Z >.+.i +. .>.5.{ x -.>.>.>.>.+._ 5.-.>.{ _ -.A.-._ >.Z 2 ~ ` 5.5.k 2 f x i < 2 5 2 F 5.5.f.A.f.f.A.A.W.A.u.).-.v 3.>.5. .9 ~ f.-.>.~ V -.U -. ._ _ >.{ _ 5.+.f.~ f ~  .~ } Z { 5.Z +. .+.^ V V k e - e 2 ~ 5.,.5.u.A.f.f.u.5.-.5.>.>.` +.>.P ;.>.s ` _.@.=.>.-.+.:.Z +.`.5.5.U Q -.x ~ @.5.5.v A.-.U 5.Q 5 5 U ^ +.@. .F - 5 e 5 U 5.>.5.f.f.f.f.f.5.V v -.f.-.A. .' 5.).u.5.5.>.5.>.-.>.&.",
"u.5.Z -.~ -.).>.Z #.A.3.f.f % v -.-.5.>.A.-.y U  .U f 5.A.f.v.x -.#.~ >.A.-.U { l , j f 2 2 7 7 k -.,.>.u.A.u.f.A.5.f.f.-.f.>.-.).2.5 { -.U ` >.-.+.F +.f  .).-.f.v _ @. .+.5.W.-.>.2.+.>.B e >.U >._ f k i f x 5 2 2 e 2 _ f.5.f.f.f.f.A.A.u.Y.Y.5.-.@.-.5. .U U A.f.>.Z ~ ).~ Q -.{ { +._ U >.U 5.{ f ~ >.A.U B k 2.5.{ +.+.+.~ k 3 a i < 2 e } 5.,.5.f.A.f.f.A.5.` +.#.-.>.5. .-.A.Z ` ).Y.A.-.>.A.-.~ +.:.5.} U M.Z g +./ A.W._ ~ ~ ~ >.).k 1 +.Z { +. .5.x 1 e e 5 ~ 5.>.5.A.f.f.f.Y.-.Z ` u.-.@. .,.>.W.;.,.u.5.A.-.b >.5.",
"5.>.-.>.-.A.~ l ~ -.5.+.U Z Z F >.5. .&.Y.{  ._ -.1.l ;.).,.3.~ Z  .} 5.A.{ l ~ J , 7 k i < 7 e q M >.>.,.A.f.f.f.u.f.5.P A.A.5.W.5.7 r ~ Z  .A.-.-.5.+.k _ _.-.V { 5.>.>.g >.2.>.5.#.>.{ x 5 >.+.J x l +.l J g l 5 2 2 5 i >.f.5.f.f.f.f.A.Y.A.Y.A.` ~ -.-.;.A. ._ V +.' :.).-.k { A.s ~ >.5.~ i :.T -.2.Z +.>.V 5 5.Y.-.-.+.i 2.+.5 a k 5 2 2 e -.5.1.5.f.A.f.A.u.{ +.A.>.>.-.Z -.5.v  .).Y.W.>.~ A.5.n.5.V 5.5.v { +.J { +. .).A.+.J x -._.-.k 5 2 Q >.Z 3.+.2 2 5 e i +.5.>.u.A.f.f.f.Y.-.J ~ >.'  .-.>.A.f.A.W.-.-.5.` { 5.",
"5.5.` ~ >.f.` ` >.A.A.v J U U ~ -.A.,.5.5.Z -.U >.>.g -.).5.>.J h { -.+.W.{ i U r e i i k 5 2 2 e 5 U 5.>.5.A.f.f.f.u.A. .5.Y.5.).>.5 i +.~ A.-.-.-.W.-.{ -.>._ Z  .2.-.1.{ { 9 ' Y.-.5. .#.k Z 2.Z ~ g v._ +.f l f 2 2 5 7 l >.u.5.f.f.f.A.A.A.u.-.'  .A.>.R A.>.U F 2.-. .-.>.h +.+.x Q ,.u.5 4 2.{ -.Y.J l 5.~ { 5.3.W.{ 3.U J v.i 1 k J < 2 2 j >.1.1.5.A.A.f.A.5. .+.-.`  .-.n.-.U ~ ).W.,.+.Z 3.).~ -.+.~ >.} _ >.` 2.-.x  .>.>.Z < { u. .J - # e Z V >.5.f 2 2 5 e i +.5.>.u.f.f.f.f.A.-.{ -.+.-.~ U u.Y.f.).+.{ ).>.{ +.",
"u.1.~  .-.A.A.~ >.5.A.{ >.l {  .:.-.>.f.>.v >.{ _ 5.Z -.-.;.-.Z U -.>.{ A.F < ~ U ~ ! 2 i f 2 2 5 5 e  .1.>.u.A.u.f.A.5.5.f.A.5.n.>.Z Q 5.@.5.>. .-.A.5.-.>.~ l ` >.` { 5.-.~ 5 ` ).!. . .).V y ~ { :.V { +.-.i r l 5 2 2 e 7 Z u.5.f.A.f.u.f.>.-.` 5.5.5.=.P 5.). .~ R  .9 ` W.#.5.J y -.5.A.B i 3.>.2.>.{ 9 ~ n.-. .5.>.+.>.+.v { a 2 ! Q f < 2 2 l 5.1.1.5.A.f.f.A.;.{ +.-.A.>.-.A.+._ W.1.>.2.x -.A.~ >.Y.V ~ W.>.U U J -.+.Z >.5.~ ` U ~ 5.k - a u 5 >.>.5.;.U < 2 e e k -.,.>.u.f.f.f.f.A.5.~ -.{ { v -.Y.Y.5.5.5.A.T #.~ ",
"A.-.{ >.u.Y.>. .5.-.+.>.-.U { >.-.Z -.A.>.F 5.>.V ! >.M.U @.-.~ Z  .A.{ >.l x A.5.F L i i i i 2 5 5 2 l ,.>.,.A.A.u.f.f.5.A.A.Y.,.U -.+.{ ,.>.Y.R ;.).>.>.+.& l  .>.` V -.-. .{ 5.5. . .:. .s Z U ~ 4.v U -.V i l l k 5 2 2 e 5 _ f.5.A.A.u.A.>.-.5.A.5.v ,.1.u.A.Z U ~ g h Y.Y.3.-.v J >.A.v.< Q A.{ ).+.y Z U A.-.~ -.+.`  .n  .-.J Q +.l k e 1 2 2 U 5.,.5.u.f.f.f.A.2.} >. .5.-.A.U -._.f.5.~ 9 +.).U  .W.V l W.' ` #.9 -.5.#.>.-.` >. .! >.J O o.F f { -.-.5.5.! < 2 5 5 B ,.>.,.f.f.f.f.f.f.>.' U { 5.~ A.A.>.Y.A.5.l ~ V ",
"A.{ ~ 5.A.Y.5.-.A.).x $ { 4.~ v +.Z -.W.2.< ` [ ' ~ #.{ >.A.A.J 5 +.5.-.U ! l A.A.Z i f 5 k x 5 2 2 e r  .1.>.5.A.A.f.f.5.Y.>.u.A.+.Z -.` 1.u.>.` 3.>. .>.v 5 :.-.T Z ~ >.5.>.5.5./ Z -._  .} #.U ~ M.-.5.Z 5 M l +.l f < 2 2 5 i -.f.5.A.f.f.f.A.5.5.' U >.5.u.>.-. .J 9 ;.Y.u.Y.{ -.T } A.-.- D A.{ W. .Z 5.5.-.! V ~ -.>.;.l -.A.>.#.{ B a i 5 2 2 2 ~ u.5.1.u.A.f.f.A.5.5.>.,.Y.` h { ).>. .~ -.A.~ % -.).{ Z 3.{ Z A. .5.>._ -.>.} -.{ U ..2.i y 2.-.Z 5.~ ` -.A.Z 3 2 e 5 +.5.>.1.f.f.f.f.f.A.-.Z _ -.U f.f.Y.u.3.u.{ { ~ ",
"A.5.>.A.F ` >.5.5.+.F 5 F u.>.~ 2.{ -.,.>.k F  .1.M.-.5.5.{ -.Z V 2.>.F Z Z  .5.~ r < J 5 ! ~ f 2 2 e 5 k >.,.,.5.Y.A.f.A.!.R 5.f.` v -._.>.+.~ -.-.R ` -.-.U >.l f Z A.u.5.+.A.~ s 5.Z Z ).-.U f -.5.A.5.k e k l @.l l 9 ; 2 5 5 k >.u.5.A.f.f.f.5.>.v -.>.5.5.5.).l ~ >.4.-.5.M.{ A.~ Z >.U +.Z ~ { Y.5.2.3.-.5.~ 7 i 2.A.A.v #.+.A.5.{ +.B 5 k 5 : 2 5 +.5.5.1.f.A.f.f.A.Y.5.>.A.U >.~ 5.>.;./ u.5.U l u.Y.>.+.-.F ~ W.A.>.U 2.U ~ 5. .+._ A.-.V 2 +.A.U { 5.{ J #.$.5 5 5 5 l +.5.,.5.A.A.f.f.A.1.J i { -.A.5.).Y.-.u.A.-. .",
"f.W.A.>.Z ~ -.).Y g A.-.i { A.} -.+.Z >.A.( Z -.W.5.>.!.{ v  .~ +.>.U 4 >.{ { 5.i 7 Q ^ 5 { -.V i 2 2 e 5 ~ 5.>.1.f.A.f.f.A./ A.,. .>.5.W.5.x +./  .+.-.A.` U -.~ v ;.).5. .+.>.{ 9 -._ :.M.5.{ U Y.-.A.+.~ Z U U ~ k f l 5 > 2 5 2 J A.5.u.A.f.u.Y.+.U 5.A.5.~ >.A.U >.A.-. .u.@.~ A.-.~ { -.~ Z -.>.2.A.~ +.-.5.A.i 2 -.5.-. .A. . .>.>.-.U i B j 2 2 2 i >.1.1.1.f.A.f.f.A.5.>.>.g ` 5.>.).+.v >.5.5.+.&.W.>.-.5.{ { f.A.-.V f.@.{ A.~ } 2.).{ k i U >.{ -.+.2.x i D e 2 < 5 5 e U ,.,.5.A.A.f.f.A.@.f -.Y.,.>.5.). .1.A.&.>.",
"f.Y.-.c { ;.>.-.U 5.Y.;.F l u.~ Y -.{ >.Y.-. . .;.-.5.>.-.5.J x U ~ ` ~ 5.>._ _ ~ Z O.O.M F +.B i 5 2 e e i -.1.,.1.f.f.f.f.5.5.>.5.>.>.).5.Z U U ~ U 2.>.{ ! >. .-.f.3.J T ,. .5.Z >.-.U #.>. .v 5.-.5.5.-.{ 5.;.~ i i k l 7 2 2 5 5 { A.5.A.f.u.f.5.-.-.>.5.-.5.Y.-.J ).>.x 5.-.`  .).-.~ V h A.A.>.-.A.~ @.>.>.U - Z +.+.-.5.>.-.+._ 5.{ A.-.B e i 2 2 2 V 5.,.,.5.A.f.f.f.f.+.F V -.` A.).-.J >.5.A.u.@.>.W.5.+.-.+.` >.>.5  .'.>.-.+.l U ).5.Z k U +.~ -.>.+.Q B 3 2 B f 2 e e 5 U 1.>.5.A.f.f.f.Y.-.~ 5.v.5.5.>.` 5.A.,.>.",
"f.A.>. .u.5.~ >.Z T 5.>.A.l _ 5.>.Z +.~ 2.A.>.;.+.F >.f.{ 2.g Z } V >.f.>.5.2.v -.-.+.i Q l i B L l 2 2 e 2 B 1.>.,.5.f.f.f.A.5.>.5.>.5.W.5.V Z >.#.{ ~ F >.{ 5.-.-.5.+.U #.W.>.-.A.5.J % { -.Z v f.W.u.u.2.T >.+.V 2 > e l g 2 2 7 5 r -.u.5.A.f.f.A.5.+. .5.P >.).Y.U ~ A.J >.>.>.{ -.A.9 Z 2.A.5.>.` f.5.5.-.+.V B -.{ l A.5.~ >.{ U A.-.>.A.{ 2 e e 2 2 2 J 5.5.5.5.A.f.f.A.` R +.~  .W.A.>.` >.5.u.W.5.U A.5.{ V { J x u.} >.A.-.>. .Q { 5.A.>.l Q { ~ U Z 4.>.V e k D ! 7 2 5 2 k >.>.,.u.A.f.f.A.u.5.A.5.5.-. .} A.5.A.Y.",
"A.f.5.>.).2.Z A. .5 -.A.A.{ +.>.5.>.+.< { Y.>.A.>.v T } -.-.U >.>.< ~ Y.-.5.-.+.+.T 2.Q Z e @ { { i f < 3 5 2 ~ 1.>.1.u.A.f.f.A.5.&.u.u.).3.Z ~ +.-.5.{ +.:.V U A.-._ _ { +.Y.R  .).+.; 3 { +.v ` ).W.5.,.V Z ,.R -.l r 2 i l g 2 2 e 2 x 5.u.5.f.f.5.A.5.~ Z c >.Y.).Z U A.F  .5.>.5.>.f.U  .+.>.u.;.Z ,.A.A.5.U 7 x -.5.U >. .` A.-.Z 3.Y.3.-.+.F 2 k i < 2 2 x -.5.1.u.f.f.f.f.-.J l A.>.1.A.U 1.5.>.>.A.-.A.A.{ % U _ 4 5.).A.5.>.>.+.-. .-.>.>.~ +.i ~ -.{ 4. .{ V i a 2 r < - 7 j >.1.>.,.f.f.f.f.f.A.A.A.5.+.{ ~ } ,.A.-.",
"A.f.f.A.).3.Z Y.2.Z U -.-.5.u.+.5.A.-.i U >.>.5.` -.5.y -.5. .>.-.Q Z :.>.-.{ ~ -.+.-.` o.< i -.x F Z 5 2 3 3 i >.,.,.1.f.A.f.f.A.>.,.Y._.+.V +.5.-.-.2.2. .5 +.5.Z i Z -.5.5.+.A.u.l x l x  .` Y.5.` R >.G { f.>.>.+.B 5 e k v i 2 2 3 5 U f.5.u.f.f.u.f. .Z  .f.).~ s 5.5.-.` >.5.>.5.f.+.>.2.U { -.+.5.;.5.~ 5 y l 5.u.~ U >.>.3.-.g >.f.A.>.-.V e J f 5 2 5 2 e -.u.1.f.A.f.f.5.~ v 5.A.5.W.{ ~ +./ A.>.{ 5.f.-.U {  .U 5.5.5.A.>.~ { >. .~ ~ A.~  .+.{ A. .-.5.J - F 2 j B f ; 2 2 l  .,.>.,.A.f.f.f.f.f.u.f.1.U f {  .5.-.",
"u.f.f.A.Y.5.>.A.-.Z +.3.+.5.~ ~ f.M.f.U U -.>.5.5.>.-.V Q A.:.~ h -.>.{ _ { ` {  .-.;.{ ~ { v i B -.U f 7 2 5 2 Z 1.>.,.1.A.A.f.A.5.A.A.A.v g @.&.,.A.-.` 5.} -.5._ < -.3.+.>.5.A.>.f k f ~ +.-.>. .U >.A. .-.A.n.>.+.l Z F B j l 9 2 2 e 5 ~ f.5.f.f.u.u.5. .{ 5._. .;.).5.>.-.@.{ -.>.5.>.5.4.x +.-.5.-.-.>.U V -.U >.,.>.-.,.5.{ { ~ >.3.{ >.{ l { >.5 i 5 2 5 2 j >.5.1.f.f.u.A.5.~ -.A.A.3.~  . . .A.u.-.-.5.A.#.V ` ~ A.R +.W.u.~ 9 +.5.! +.3.{ { >.~ u.-.A.).+.f ^ i ^ V Q i - 2 2 5 +.1.>.1.f.f.f.f.A.u.f.W.-.V ' ` 5.W.",
">.u.A.A.f.=.f.>. .+.&.).4.#.~ Z A.&.-.5.:.f  .5.-.>.{ V l ~ d m P A.A.-.9 +.:.-.~ 3.5.v.U { 9 . D F #.~ f 2 2 e 7 { 1.>.,.u.A.f.f.f.A.A.-.g U ' ,.u.Y.-.-.<.-.~ ` A.J Q >.` >.>.3. . .f ~ >.{  .h f.W.v 5.5.-.5.>.).~ % ; +.Z 2 l g 5 2 2 5 r -.f.5.f.f.u.f.A.3.5.5.A.A.5.5.` U >.Z +.A.5.-.2. .{ } ' 5.&.>.{ J >.W.-.-.U -.Y.u.>.+.{ ~ 5.>.~ >.+.5.>.B e k i 2 2 2 2 B 5.1.1.f.f.u.A.5. .5.A.-.U 5.A.f.5.u.Y.>.>.<.Z U -.~ -.{ +.5.u.W.g { 5.~ Z -.-.{ ` { >.1.Y.n.A.o.< J J 7 O.B i 2 5 7 B >.,.>.5.A.f.f.f.f.A.A.u.-.+.U _ 2.",
",.5.A.f.f.u.5.-.-.5.A.A.Q f ;.>.{ P -.W.5.{ V x R -.>.5.Q 5 f &.A.A.5.+.x >.-.>.` A.-.A. .~ l X e { { :.F 5 2 2 2 j >.>.>.,.f.A.f.f.Y.>.~ { l +.f.A.-.` A.Y.l Z f.-.>. .>.+.-._ >.3.-.>.Z >.{ T  .5.-.~ 5.,.>.` >.R l i e U >.j 5 l f 2 2 7 2 x 5.5.u.A.f.u.f.Y.Y.5.A.5.R +.{ _ ` { } W.Y.3.U -.~ U ~ -.u.f. .~ A.A.-.+.k ~ 5. .3.>.+.V V U -.-.-.f.>.g ~ ~ e i 2 2 5 2 F 5.1.5.A.f.f.A.,.&.5.5.>.-.>.f.,.&.Y.5. .~ ` ).Z Q ~ A.5.@.` ).-.-.#.>.U Q l ! J 5. .5.Y.5.A.+.5 f Q j Q D Q - 5 e 2 V >.>.>.u.A.f.f.f.A.Y.5.5.5.~ Z ~ ",
",.1.u.A.f.A.-.>.A.>.A.A.~ V ~  .-.>.~ =.'.! . V >.5.Y.A.{ Q Z -.u.+.>. .{ -.>.{ ;.A.5.>.{ -.f : # k { >.U x 2 2 e 2 Z 5.,.,.5.A.A.f.A.5.@. .~ >.>.-.U ` ).&.s >.5.-.>.>.>.5._ k } -.-.>.J } 5.>.>.-.` 5.{ _ >.v  .{ +.V g U '.B 5 Z h i 2 2 7 2 U f.5.f.A.f.u.f.Y.A.f.5.>.-.f +.5.+.>.A.A.-. .Y.-.5 5 :.5.-. .>.A.4.J l Z { -.>.>.-.~ v Q y +.5.5.f.5. .^ 5 i i e < 2 2 2 _ 5.1.5.f.f.f.A.5.>.5.5.@.U -.u.u.Y.).>. .-.5./ ~ { >.A.A. .@.5.-.} #.5.! ; -.-.>.1.A.5.Y.5.` ~ % Q +.i k i D 2 2 e 7 Z 5.>.1.u.A.f.f.f.A.u.f.A.>. .>.",
">.1.1.A.A.A.5.>.A.A.).Y.U l -.+.>.-.>.5.A._ . l A.Y.3.-.` -.U { n.+. . .+.+.{ -.-.-.Y.>.{ 9 < 2 + 1 -.{ ` +.9 2 5 e 2 { >.,.,.5.A.f.f.A.5.>.;.>.~  .+.-.5.P -.Y.-.f.>.+.+.u.x r h 5.>.A.-.+. .-.>.5.~ +.J { 5.U _ Y.A.Z Q 5.-.i ^ Z i x 5 2 7 e 7 _ u.5.f.A.f.f.A.u.f.W.Y.-.k -.f.-.>.-.-.>.A.5. .5 < -.5.#.~ >.2.} ~ x { ;.#.U _ >.! T A.} l 2.5.5. .5.} O k i i 5 - 2 2 i >.5.1.u.A.f.f.A.A.>.5.5.~ { A.A.W.Y.5.A.{ >.+.V ;.-.5.5.5.+.>.-.-.-.-.~ _ { >.` 5.5.>.Y.5.l l ~ +.+.i 5 ! _ D 7 2 5 5 ! 5.>.,.f.A.f.f.f.A.f.A.A.,.>.",
">.>.,.u.A.f.A.>.u.u.A.f.Z ~ -.-.+.` ).5.&.U l B _ ). .Z >.-.+.Z 5. .~ 3.>.Z v.~ F -.Y.-.U < 2 0 # D >.h >.5.U 5 2 e 3 i -.1.>.1.f.A.A.f.f.A.U k } -.{ ` >.-.).A.+.f.u.>.J ~ U  .{ 5.5.5.`  .{ 5.5.-.{ >.5 _ A.>.+.>.-.5.U 5.{ i V O.B l g 5 2 e 0 7 +.f.5.A.A.f.f.A.Y.Y.u.u.~ A.U l +.>.-.-.T  .5.>.U ~ 5.A.5.+.l Z n.l { -.v.5 f A.5.l ;.5.~ U +.-. .f.>.x 2 k F B 2 2 2 2 J 5.,.5.u.A.f.A.W.u.A.-. .+.5.>.5.).Y.5.+.A.V ~ 5.>.-.5.5.-.>.-.+.' >.~ ~ f  .>.5.Z v 5.5.f f >.A.A.Z B k V -.^ < 7 e 5 { 5.>.,.f.f.f.f.f.A.A.u.u.5.",
">.>.,.1.f.A.A.u.n.5.A.A.u. .-.~ >.` 3.5.>. .-.{ ~ f.5.~ ~ -.~ 5 -.A.+.5.5.} 4.F B >.5.-.U f i - e F  .~ Y. .+.V 2 2 e 2 F 5.>.,.5.A.A.f.A.A.g Z ` ~  . .-.5.Y.>.-.5.A.A.x 5 >.A.5.5.-.-.U ~ A.-.A.{ Z Y.Q 5 ! >.A.>.4.5.-.~ >.~ J ! B 5 x f 2 2 e 2 l 5.5.u.A.A.f.5.f.W.1.=.-.f.+.V { 5.A.~ y >.A.5.5.;.>.5.-.k 5 V { Z -.5. .4 { A.).f Z A.! -.Z V 5.Y.>. .^ Z  .D i 2 2 2 2 { u.,.5.A.A.f.A.f.u.>. .>.5. .5.).Y.A. .~ x -.5.A.-.-.-.>.M.A.>.~ 2.V ~ { } ^ U v U A.-.v _ >.5.>.5.Q - M V ;.J < 2 2 r +.1.>.1.f.f.f.f.f.A.u.>.A.",
"5.>.,.,.1.A.A.f.A.A.u.W.1.` -.~ 3.5.-.5.5.,.,. .-.-.5.5.-.{ i <  .).>.+.>.A.+.J k -.{ Z V ~ ~ Z { 5 j Z ).>.} +.f < 2 e 7 { 5.>.,.5.A.A.u.A.! ~ +.U ~ :.1.W.>.Z >.A.f.5.V U 5.>.-.A.x ` A.{ 5.{ +.{ x )._ i k >.<.f.{ >.5.5.;.#.U D t 3 i x i < 5 e 2 F u.5.u.A.f.u.A.A.>.&.u.5.A.+.F { 5.Q V A.Y.5.-.~ 2.~ s J F ~ -.{ -.{ ` _ M.~ 5.+.{ ! < :.Z F ).&.n.3.! _ 2.r i k - 2 2 i -.5.,.5.A.A.f.A.f.f.~ >.5. .A.Y.A.)./ R +.-.3.A.>.l -.u.A.A.+.{  . .>.` { f ~ >.+.~ 4.Z +.5.f.2.{ { l k i -.5.k - 5 5 f ;.5.>.1.f.f.f.f.u.A.>.u.",
"+.1.>.>.,.u.A.f.A.5.f.W.-.*.>. . .A.4.5.-. .A.>.{  .).5.>.>.O.B ~ A.A.Z ~ ;.>.~ 5 #.5 g +.,.-.} -.g f l -.2.+.2.U 5 2 5 e i -.,.>.,.u.A.f.A.>.U { +.{ 5.A.`.} f A.A.5.5.~ >.A.!  .5.-.-.5.-.{ U ` >.-. .+.-.U >.>. .-.Y.-.` 5.! U - 5 F k i l 9 2 5 e 2  .A.5.A.A.f.f.A.f.A.u.A.A.>.Z { 5.A. .2.A.>.5.Z J f _ ` ,.+.U { >.Z ~ A.5.-.` U _ } F ~ >.-.,.2.v.-. .>.J 5 l J i - 2 2 i :.5.1.5.A.f.f.A.5.-.-.A.@.>.,.f.Y.5.f.-.U n.4.5.Z -.A.u. .v -.U Z  .} l 2.A._ ~ x #.-.-.>.f.5.9 +.>._ i Z -._ i 2 e 5 l >.,.>.1.A.f.f.u.A.A.>.",
"l >.>.>.,.1.f.A.f.A.u.>.1.>.u.3.P 5.5.;.` -.~ A.-.{ !.5. .>.A.-.{ 5.-.V l U 5.U ; _ < r h ,.A.;.~ } { i J _ +.;.-.v 5 2 e 2 V ,.>.,.1.f.A.f.W.{ U 5.#.-.A.).-.{ A.5.{ A.-.>.5.>.5.A. .Z { +.l Z -.#.#.>.~ U ~ Y.1.-.+.A.A.-.{ k B B B k r k l g 5 2 e 5 i -.u.5.A.A.u.f.f.A.5.f.).U _ W.>. .5.5.). .{ x r i -.>. ._ #.5.A.{ i { 5.f.` k k >.5.x { >.5.A.#.J #.2.e 2 ~ J F 5 - 2 2 k >.1.1.u.A.f.f.A.5.-.A.f. .-.).f.A.5.A.~ ~ 5.,.-. .5.>.R { -.+.Z -.M.U >.Y.5.U l -.` @.>. .Y.x { +.x x x F B L k < e 2 V 5.,.>.1.A.f.A.f.A.u.",
"2 Q ,.>.,.,.5.A.Y.A.,.>.5.>.-.5.>.>.>.+.-.5.{ -.A.~ -.A.~  .u.5.+.Z #.h U +.-.{ i l k k +.f.>.{ ~ J ~ B F x } 5.A.U f 7 2 e 2 ~ 5.>.,.5.A.f.f.5. .>.>.>.-.-.1.f.u.5.@.4.>.&.5.A.3.5.>.l { +.; l #.v { 5.>.+.f 5.>.;.J >.).5.Z Q F V i 5 V { f l g 2 2 e 2 l 5.5.5.A.f.A.,.&.u.f.).v +.W.} U >.>.Y.>.-.f f -. .Y.5.~ +.5.A.5.f v +.Y.+.U r ^ v { +.u.5.W.5.~ V Q ^ Z ! ~ } J 5 2 3 2 J 5.,.5.f.A.f.f.A.5.-.A.>.-.Y.W.u.5.).` v A.f. .` >.,.5.+.J >.>.-.).{ Z A.-.-.Z -.Z @.5.-.W.2.l 2.~ U 5 j i B k 2 2 2 2 J 5.>.,.5.A.A.f.f.u.",
"3 5 @.5.>.>.,.u.A.f.A.A.1.R R >.5.` n.f.-.` A.J >.>.~ >. .-.5.5.{ V { f { -.A.Q D Z ~ +.>.A. .{ ^ 5 ~ >.f ~ >.#.+.:.J 9 2 5 e r -.,.>.,.u.A.f.1.X.>. .{ R 5.A.f.u.A.-.~ +.,.5.u.n. .,.>.} y i V ! R  .5.;.~ ! >.U U { -.Y.>.Z {  .T U ~ ~ U V k l i < 2 e 2 U u.5.f.A.f.5.u.A.A.A.>.R 5.+.+.-. .A.A.>.k j ).-.-.).>.#.~ >.A.l i @.'.>.~ ~ U Q 2.;.>.,.{ #.5.7 r +.-.J +.V B k 2 1 2 2 ~ u.,.5.f.f.u.A.<.-.>.5.1.5.).5.>.,.>.` -.A.~ T >.5.n.-.U { 5.>.A.2.l -.@.5.>.-.U { U { Y.-.v A.Y.l 5 ^ 2 F 5 i 3 2 e 7 Q 5.>.,.5.A.A.f.f.",
"2 2 x ;.1.>.>.,.f.f.f.f.-.{ >. .,.5.).).:.h 5.~ ` >.>.+.U Y.5.>.-.x l 4 +.A.v.l Z #.-.l U A.:.J ^ k Z +.Z 5.J J { ` +.Z 5 2 e 2 l >.>.,.,.f.A.u.u.f.{  .>.f.A.f.W.f. .#.+.+.,.5.,.>.~ =.{ % J U ~ -.>.>.>.5.U ~ 9 l 5. .5.5.>.} -.{ -.+._ ~ k 2 l l 5 2 5 2 5 +.f.5.f.A.f.f.f.f.5.@.R u.>.` 5.f.A.-.5.2. .} ! >. .f.A.! { ~ U V A. .! g ~ -.f U ;.5.-.U  .).~ J >.:.B ~ { i 2 i 2 2 2 5 +.5.1.5.f.f.f.A.5.` 5.).5.5.5.U +.).-.5.2.~  .+.{ 2. .>.-.` 5.-.-.{ V +.W.A.Y.Z J J F -.>.>.).f.>.B k k ^ k D B 2 5 e 5 { 5.>.,.u.A.f.A.",
"2 5 2 i U <.>.>.5.A.f.A.5.-. .5.>.A.).5.` v 5.-.~ 5.5.+.l Y.5.U  .5 V { 5._.Q g >.>.~ 9 { -.>.U _ O.Q l Q 5.! #.U J 5.} i 2 2 e 2 F 1.>.>.5.A.f.f.W.U >.5.5.5.A.A.5.5.` g _ u.>.>.>.-.A.~ & T -.-.5.@. .A.5.U +.2 V 5.>.5.W.).>.-.+.-.5.+.l j a j k l < 2 5 7 l >.u.5.f.f.f.f.A.>.-.>.f.,.-.u.u.f.;.` u.).Z i Z Z Y.,.J v { Z F 5.Z x J U Z V x  .1.A.5.5.>.>. .>.A.{ 5 Z k 5 i 5 - 2 2 5 -.5.1.5.A.f.f.A.5.>.Y.>.;.W.` -.).5.5.>.5.~ -.U _ >.{ >.;.3.>.-.3.U U A.W.).T V i f { ` >.W.5.)._ < k k Q F i Q 5 2 e r -.5.,.,.u.A.f.",
"5 2 e e 7 J <.>.1.u.A.f.A.>.>.5.5.A.A.u.U +.>.>.R u.Y.~ Z !.Z U { { { >.>.n._ ~ >.-.~ l { ~ 5.A.Z -.Z V } { #.+.} { f.Z l r 2 7 2 2 { 5.>.,.5.A.f.A.>.5.-.*.A.>.5.A.5.Z U u.f.} +.>.u.U U Z >.-.-.-.-.2.+.` ` >.Z g ;.>.).A.` f.{ -.>.A.>.x B k - 5 x f < 2 e 7 V >.,.5.f.f.f.A.f.+.+.-.A.,.{ 5.f.5.-.A.W.-.% k -.A.,.6 P 5. .~ V ).~ U ~ x A.~ U A.>.5.5.Z { -.v 5.Z l l B e 2 D f - 2 2 k >.1.1.u.A.f.f.A.>.A.1.5.A.>.+.W.A.5.{ _ -.:.#.} -.+.{ ' 5. .-.>.).{ ' 2.} g y v ~  .~ A.5.u.A.+.V - B Z ! k Q D 2 e 7 k ;.,.>.,.f.A.",
"g 5 2 e e 5 ! 5.,.1.A.f.f.A.5.>.-. .-.;.Z 5.1.5.{ 5.A.Z ~ A.U R  .f._ 5.>.-.>.-.+.2.V 5 v -.>.>.+.F ! e +.~ +.U { #.>.U { l 5 2 5 3 i ;.,.>.,.f.A.f.u.f.5.Z  .-.A.Y.A.A.5.5.5. .` 5.-.U  .` >.~ T 5._.+.5 ~ -.{ { U +.2.~ J ` >.f.`  .5.>.U -.k e 7 l l y 2 2 e 2 V 5.u.u.A.f.f.f.5.~ ~ u.5.Y ).>.5.).u.W.~ y  .` -.A.5 ` Y.-.` x 5.Z U -.` 5.-.@.u.` } T -._ >.l { @.V >.J V M V { < - 2 2 k >.1.1.u.A.f.f.f.A.A.5.5./ U A.W.W.{ g { -.>.>.` +.{ -.A.U -.A.u.5.+.l { J 9 -.f.5.Z >.f.).>._ J . J -.V i i D B 2 5 2 l >.>.>.1.f.",
"x i 2 5 e e r +.1.,.5.A.f.f.A.>.v ~ 5.` -.Y.A.5.-.>.` ~ -.3.5.l J W. . . .-.A.2.v F l +.5.{ U -. .F < V >.V V 5.Z >.>.-.~ F g 2 2 5 2 x >.>.>.1.A.f.f.f.W.U g u.W.f.A.,.>.5. . .5.5.@.-.f.{ >.>.+.A.).-.~ V V { +.+.-.-.y ! A.{ >.T ~ Y.5. .Z U { k e l x 5 2 7 e 2 ! 5.5.u.A.f.u.A.~  .5.>.>.).>.>.>.=.A.A.} ~ 2.~ Z -.>.5. .-.~ -.{ ^ ~ v.>. .! } A.>.} { U >.U i -.~ >. .{ i F F f 7 : 0 2 Z 5.1.5.f.A.f.f.A.1.-.5. .-.W.A.W.).l J  . .-.{ +.u.-.v.~ +.A.-.5.A._ F { g  .5.A. .F 5.A.5.9 < Z V U { i J ! F k 2 q 2 B >.,.,.,.",
"l h 5 2 5 e 3 F 5.,.,.f.A.f.A.5.J -.A.>.A.1.@.5.f.>.` ;.-.>.-.g -.A.} U 5.Z -.f.v 5 v.).>.{ j l -.V 5 { -.F D { { -.5.-.U J F i 2 2 e 2 Q ,.>.>.5.A.f.f.A.-.l +.).f.u.>.>.5.+.-.&.-.>.u.W.+.{ ,.-.2.5.5.Z l -.-.).{ 5 >.5.-.-._ v 5.5.5.-.~ ~ -.+.D 2 i l g 2 2 5 5 5  .f.5.f.A.f.1.-.5. .5.5.A._ 1.-.A.A.Y.3.l v.V l ).{ -.5.5. .-.-.l l >.).>.B x >.).{ < x  .-.~ l -.5.>.Z 9 -.5 ! V ; 2 3 2 ~ 1.1.5.A.A.f.f.1.5.5.-.5.5.W.Y._._ U  . .{ +.5.-.5.U { ` 5.>.A.).+.k ~ { { >.>.#.Z -.).>.l i { -.U A.{ Z #.! B i - e 2 U 5.>.>."
};
